(GCode created using the HeeksCNC Mach3 post processor)
(/home/user/git-repos/donation-box/designs/3D/blender/top panel/bolt-pocket-bl-file.tap)
(G-code generated with BlenderCAM and NC library)
N10 G17 G21 G90
(Tool change)
N20G43H1
N30T1 M06
N40 G00 X0 Y0 Z9.999 S12000 M03
N50 G00 X29.528 Y29.559
N60G01 Z-1 F500
N70G01 X29.529 Y29.56 F1000
N80G01 X29.659 Y29.446
N90G01 X29.738 Y29.404
N100G01 X29.879 Y29.363
N110G01 X30.022 Y29.352
N120G01 X30.133 Y29.365
N130G01 X30.249 Y29.4
N140G01 X30.344 Y29.451
N150G01 X30.435 Y29.528
N160G01 X30.434 Y29.529
N170G01 X30.548 Y29.659
N180G01 X30.59 Y29.738
N190G01 X30.631 Y29.879
N200G01 X30.642 Y30.022
N210G01 X30.629 Y30.133
N220G01 X30.594 Y30.249
N230G01 X30.543 Y30.344
N240G01 X30.466 Y30.435
N250G01 X30.465 Y30.434
N260G01 X30.335 Y30.548
N270G01 X30.256 Y30.59
N280G01 X30.115 Y30.631
N290G01 X29.972 Y30.642
N300G01 X29.861 Y30.629
N310G01 X29.745 Y30.594
N320G01 X29.65 Y30.543
N330G01 X29.559 Y30.466
N340G01 X29.56 Y30.465
N350G01 X29.446 Y30.335
N360G01 X29.404 Y30.256
N370G01 X29.363 Y30.115
N380G01 X29.352 Y29.972
N390G01 X29.365 Y29.861
N400G01 X29.4 Y29.745
N410G01 X29.451 Y29.65
N420G01 X29.528 Y29.559
N430G01 Z-2 F500
N440G01 X29.529 Y29.56 F1000
N450G01 X29.659 Y29.446
N460G01 X29.738 Y29.404
N470G01 X29.879 Y29.363
N480G01 X30.022 Y29.352
N490G01 X30.133 Y29.365
N500G01 X30.249 Y29.4
N510G01 X30.344 Y29.451
N520G01 X30.435 Y29.528
N530G01 X30.434 Y29.529
N540G01 X30.548 Y29.659
N550G01 X30.59 Y29.738
N560G01 X30.631 Y29.879
N570G01 X30.642 Y30.022
N580G01 X30.629 Y30.133
N590G01 X30.594 Y30.249
N600G01 X30.543 Y30.344
N610G01 X30.466 Y30.435
N620G01 X30.465 Y30.434
N630G01 X30.335 Y30.548
N640G01 X30.256 Y30.59
N650G01 X30.115 Y30.631
N660G01 X29.972 Y30.642
N670G01 X29.861 Y30.629
N680G01 X29.745 Y30.594
N690G01 X29.65 Y30.543
N700G01 X29.559 Y30.466
N710G01 X29.56 Y30.465
N720G01 X29.446 Y30.335
N730G01 X29.404 Y30.256
N740G01 X29.363 Y30.115
N750G01 X29.352 Y29.972
N760G01 X29.365 Y29.861
N770G01 X29.4 Y29.745
N780G01 X29.451 Y29.65
N790G01 X29.528 Y29.559
N800G01 Z-3 F500
N810G01 X29.529 Y29.56 F1000
N820G01 X29.659 Y29.446
N830G01 X29.738 Y29.404
N840G01 X29.879 Y29.363
N850G01 X30.022 Y29.352
N860G01 X30.133 Y29.365
N870G01 X30.249 Y29.4
N880G01 X30.344 Y29.451
N890G01 X30.435 Y29.528
N900G01 X30.434 Y29.529
N910G01 X30.548 Y29.659
N920G01 X30.59 Y29.738
N930G01 X30.631 Y29.879
N940G01 X30.642 Y30.022
N950G01 X30.629 Y30.133
N960G01 X30.594 Y30.249
N970G01 X30.543 Y30.344
N980G01 X30.466 Y30.435
N990G01 X30.465 Y30.434
N1000G01 X30.335 Y30.548
N1010G01 X30.256 Y30.59
N1020G01 X30.115 Y30.631
N1030G01 X29.972 Y30.642
N1040G01 X29.861 Y30.629
N1050G01 X29.745 Y30.594
N1060G01 X29.65 Y30.543
N1070G01 X29.559 Y30.466
N1080G01 X29.56 Y30.465
N1090G01 X29.446 Y30.335
N1100G01 X29.404 Y30.256
N1110G01 X29.363 Y30.115
N1120G01 X29.352 Y29.972
N1130G01 X29.365 Y29.861
N1140G01 X29.4 Y29.745
N1150G01 X29.451 Y29.65
N1160G01 X29.528 Y29.559
N1170G01 Z-4 F500
N1180G01 X29.529 Y29.56 F1000
N1190G01 X29.659 Y29.446
N1200G01 X29.738 Y29.404
N1210G01 X29.879 Y29.363
N1220G01 X30.022 Y29.352
N1230G01 X30.133 Y29.365
N1240G01 X30.249 Y29.4
N1250G01 X30.344 Y29.451
N1260G01 X30.435 Y29.528
N1270G01 X30.434 Y29.529
N1280G01 X30.548 Y29.659
N1290G01 X30.59 Y29.738
N1300G01 X30.631 Y29.879
N1310G01 X30.642 Y30.022
N1320G01 X30.629 Y30.133
N1330G01 X30.594 Y30.249
N1340G01 X30.543 Y30.344
N1350G01 X30.466 Y30.435
N1360G01 X30.465 Y30.434
N1370G01 X30.335 Y30.548
N1380G01 X30.256 Y30.59
N1390G01 X30.115 Y30.631
N1400G01 X29.972 Y30.642
N1410G01 X29.861 Y30.629
N1420G01 X29.745 Y30.594
N1430G01 X29.65 Y30.543
N1440G01 X29.559 Y30.466
N1450G01 X29.56 Y30.465
N1460G01 X29.446 Y30.335
N1470G01 X29.404 Y30.256
N1480G01 X29.363 Y30.115
N1490G01 X29.352 Y29.972
N1500G01 X29.365 Y29.861
N1510G01 X29.4 Y29.745
N1520G01 X29.451 Y29.65
N1530G01 X29.528 Y29.559
N1540G01 Z-5 F500
N1550G01 X29.529 Y29.56 F1000
N1560G01 X29.659 Y29.446
N1570G01 X29.738 Y29.404
N1580G01 X29.879 Y29.363
N1590G01 X30.022 Y29.352
N1600G01 X30.133 Y29.365
N1610G01 X30.249 Y29.4
N1620G01 X30.344 Y29.451
N1630G01 X30.435 Y29.528
N1640G01 X30.434 Y29.529
N1650G01 X30.548 Y29.659
N1660G01 X30.59 Y29.738
N1670G01 X30.631 Y29.879
N1680G01 X30.642 Y30.022
N1690G01 X30.629 Y30.133
N1700G01 X30.594 Y30.249
N1710G01 X30.543 Y30.344
N1720G01 X30.466 Y30.435
N1730G01 X30.465 Y30.434
N1740G01 X30.335 Y30.548
N1750G01 X30.256 Y30.59
N1760G01 X30.115 Y30.631
N1770G01 X29.972 Y30.642
N1780G01 X29.861 Y30.629
N1790G01 X29.745 Y30.594
N1800G01 X29.65 Y30.543
N1810G01 X29.559 Y30.466
N1820G01 X29.56 Y30.465
N1830G01 X29.446 Y30.335
N1840G01 X29.404 Y30.256
N1850G01 X29.363 Y30.115
N1860G01 X29.352 Y29.972
N1870G01 X29.365 Y29.861
N1880G01 X29.4 Y29.745
N1890G01 X29.451 Y29.65
N1900G01 X29.528 Y29.559
N1910G01 Z-6 F500
N1920G01 X29.529 Y29.56 F1000
N1930G01 X29.659 Y29.446
N1940G01 X29.738 Y29.404
N1950G01 X29.879 Y29.363
N1960G01 X30.022 Y29.352
N1970G01 X30.133 Y29.365
N1980G01 X30.249 Y29.4
N1990G01 X30.344 Y29.451
N2000G01 X30.435 Y29.528
N2010G01 X30.434 Y29.529
N2020G01 X30.548 Y29.659
N2030G01 X30.59 Y29.738
N2040G01 X30.631 Y29.879
N2050G01 X30.642 Y30.022
N2060G01 X30.629 Y30.133
N2070G01 X30.594 Y30.249
N2080G01 X30.543 Y30.344
N2090G01 X30.466 Y30.435
N2100G01 X30.465 Y30.434
N2110G01 X30.335 Y30.548
N2120G01 X30.256 Y30.59
N2130G01 X30.115 Y30.631
N2140G01 X29.972 Y30.642
N2150G01 X29.861 Y30.629
N2160G01 X29.745 Y30.594
N2170G01 X29.65 Y30.543
N2180G01 X29.559 Y30.466
N2190G01 X29.56 Y30.465
N2200G01 X29.446 Y30.335
N2210G01 X29.404 Y30.256
N2220G01 X29.363 Y30.115
N2230G01 X29.352 Y29.972
N2240G01 X29.365 Y29.861
N2250G01 X29.4 Y29.745
N2260G01 X29.451 Y29.65
N2270G01 X29.528 Y29.559
N2280G01 Z-7 F500
N2290G01 X29.529 Y29.56 F1000
N2300G01 X29.659 Y29.446
N2310G01 X29.738 Y29.404
N2320G01 X29.879 Y29.363
N2330G01 X30.022 Y29.352
N2340G01 X30.133 Y29.365
N2350G01 X30.249 Y29.4
N2360G01 X30.344 Y29.451
N2370G01 X30.435 Y29.528
N2380G01 X30.434 Y29.529
N2390G01 X30.548 Y29.659
N2400G01 X30.59 Y29.738
N2410G01 X30.631 Y29.879
N2420G01 X30.642 Y30.022
N2430G01 X30.629 Y30.133
N2440G01 X30.594 Y30.249
N2450G01 X30.543 Y30.344
N2460G01 X30.466 Y30.435
N2470G01 X30.465 Y30.434
N2480G01 X30.335 Y30.548
N2490G01 X30.256 Y30.59
N2500G01 X30.115 Y30.631
N2510G01 X29.972 Y30.642
N2520G01 X29.861 Y30.629
N2530G01 X29.745 Y30.594
N2540G01 X29.65 Y30.543
N2550G01 X29.559 Y30.466
N2560G01 X29.56 Y30.465
N2570G01 X29.446 Y30.335
N2580G01 X29.404 Y30.256
N2590G01 X29.363 Y30.115
N2600G01 X29.352 Y29.972
N2610G01 X29.365 Y29.861
N2620G01 X29.4 Y29.745
N2630G01 X29.451 Y29.65
N2640G01 X29.528 Y29.559
N2650G01 Z-8 F500
N2660G01 X29.529 Y29.56 F1000
N2670G01 X29.659 Y29.446
N2680G01 X29.738 Y29.404
N2690G01 X29.879 Y29.363
N2700G01 X30.022 Y29.352
N2710G01 X30.133 Y29.365
N2720G01 X30.249 Y29.4
N2730G01 X30.344 Y29.451
N2740G01 X30.435 Y29.528
N2750G01 X30.434 Y29.529
N2760G01 X30.548 Y29.659
N2770G01 X30.59 Y29.738
N2780G01 X30.631 Y29.879
N2790G01 X30.642 Y30.022
N2800G01 X30.629 Y30.133
N2810G01 X30.594 Y30.249
N2820G01 X30.543 Y30.344
N2830G01 X30.466 Y30.435
N2840G01 X30.465 Y30.434
N2850G01 X30.335 Y30.548
N2860G01 X30.256 Y30.59
N2870G01 X30.115 Y30.631
N2880G01 X29.972 Y30.642
N2890G01 X29.861 Y30.629
N2900G01 X29.745 Y30.594
N2910G01 X29.65 Y30.543
N2920G01 X29.559 Y30.466
N2930G01 X29.56 Y30.465
N2940G01 X29.446 Y30.335
N2950G01 X29.404 Y30.256
N2960G01 X29.363 Y30.115
N2970G01 X29.352 Y29.972
N2980G01 X29.365 Y29.861
N2990G01 X29.4 Y29.745
N3000G01 X29.451 Y29.65
N3010G01 X29.528 Y29.559
N3020 G00 Z9.999
N3030 M02
