(GCode created using the HeeksCNC Mach3 post processor)
(/home/user/git-repos/donation-box/designs/3D/blender/top panel/bolt-pocket-br-file.tap)
(G-code generated with BlenderCAM and NC library)
N10 G17 G21 G90
(Tool change)
N20G43H1
N30T1 M06
N40 G00 X0 Y0 Z9.999 S12000 M03
N50 G00 X319.361 Y29.924
N60G01 Z-1 F500
N70G01 X319.367 Y29.864 F1000
N80G01 X319.399 Y29.761
N90G01 X319.47 Y29.628
N100G01 X319.533 Y29.552
N110G01 X319.647 Y29.467
N120G01 X319.646 Y29.466
N130G01 X319.662 Y29.454
N140G01 X319.807 Y29.381
N150G01 X319.844 Y29.37
N160G01 X320.04 Y29.353
N170G01 X320.143 Y29.365
N180G01 X320.197 Y29.381
N190G01 X320.345 Y29.456
N200G01 X320.344 Y29.457
N210G01 X320.443 Y29.534
N220G01 X320.555 Y29.663
N230G01 X320.604 Y29.755
N240G01 X320.629 Y29.838
N250G01 X320.643 Y30.07
N260G01 X320.637 Y30.13
N270G01 X320.605 Y30.234
N280G01 X320.534 Y30.366
N290G01 X320.471 Y30.442
N300G01 X320.357 Y30.527
N310G01 X320.358 Y30.528
N320G01 X320.342 Y30.54
N330G01 X320.197 Y30.613
N340G01 X320.16 Y30.624
N350G01 X319.964 Y30.641
N360G01 X319.861 Y30.629
N370G01 X319.807 Y30.613
N380G01 X319.659 Y30.538
N390G01 X319.66 Y30.537
N400G01 X319.561 Y30.46
N410G01 X319.449 Y30.331
N420G01 X319.4 Y30.239
N430G01 X319.375 Y30.156
N440G01 X319.361 Y29.924
N450G01 Z-2 F500
N460G01 X319.367 Y29.864 F1000
N470G01 X319.399 Y29.761
N480G01 X319.47 Y29.628
N490G01 X319.533 Y29.552
N500G01 X319.647 Y29.467
N510G01 X319.646 Y29.466
N520G01 X319.662 Y29.454
N530G01 X319.807 Y29.381
N540G01 X319.844 Y29.37
N550G01 X320.04 Y29.353
N560G01 X320.143 Y29.365
N570G01 X320.197 Y29.381
N580G01 X320.345 Y29.456
N590G01 X320.344 Y29.457
N600G01 X320.443 Y29.534
N610G01 X320.555 Y29.663
N620G01 X320.604 Y29.755
N630G01 X320.629 Y29.838
N640G01 X320.643 Y30.07
N650G01 X320.637 Y30.13
N660G01 X320.605 Y30.234
N670G01 X320.534 Y30.366
N680G01 X320.471 Y30.442
N690G01 X320.357 Y30.527
N700G01 X320.358 Y30.528
N710G01 X320.342 Y30.54
N720G01 X320.197 Y30.613
N730G01 X320.16 Y30.624
N740G01 X319.964 Y30.641
N750G01 X319.861 Y30.629
N760G01 X319.807 Y30.613
N770G01 X319.659 Y30.538
N780G01 X319.66 Y30.537
N790G01 X319.561 Y30.46
N800G01 X319.449 Y30.331
N810G01 X319.4 Y30.239
N820G01 X319.375 Y30.156
N830G01 X319.361 Y29.924
N840G01 Z-3 F500
N850G01 X319.367 Y29.864 F1000
N860G01 X319.399 Y29.761
N870G01 X319.47 Y29.628
N880G01 X319.533 Y29.552
N890G01 X319.647 Y29.467
N900G01 X319.646 Y29.466
N910G01 X319.662 Y29.454
N920G01 X319.807 Y29.381
N930G01 X319.844 Y29.37
N940G01 X320.04 Y29.353
N950G01 X320.143 Y29.365
N960G01 X320.197 Y29.381
N970G01 X320.345 Y29.456
N980G01 X320.344 Y29.457
N990G01 X320.443 Y29.534
N1000G01 X320.555 Y29.663
N1010G01 X320.604 Y29.755
N1020G01 X320.629 Y29.838
N1030G01 X320.643 Y30.07
N1040G01 X320.637 Y30.13
N1050G01 X320.605 Y30.234
N1060G01 X320.534 Y30.366
N1070G01 X320.471 Y30.442
N1080G01 X320.357 Y30.527
N1090G01 X320.358 Y30.528
N1100G01 X320.342 Y30.54
N1110G01 X320.197 Y30.613
N1120G01 X320.16 Y30.624
N1130G01 X319.964 Y30.641
N1140G01 X319.861 Y30.629
N1150G01 X319.807 Y30.613
N1160G01 X319.659 Y30.538
N1170G01 X319.66 Y30.537
N1180G01 X319.561 Y30.46
N1190G01 X319.449 Y30.331
N1200G01 X319.4 Y30.239
N1210G01 X319.375 Y30.156
N1220G01 X319.361 Y29.924
N1230G01 Z-4 F500
N1240G01 X319.367 Y29.864 F1000
N1250G01 X319.399 Y29.761
N1260G01 X319.47 Y29.628
N1270G01 X319.533 Y29.552
N1280G01 X319.647 Y29.467
N1290G01 X319.646 Y29.466
N1300G01 X319.662 Y29.454
N1310G01 X319.807 Y29.381
N1320G01 X319.844 Y29.37
N1330G01 X320.04 Y29.353
N1340G01 X320.143 Y29.365
N1350G01 X320.197 Y29.381
N1360G01 X320.345 Y29.456
N1370G01 X320.344 Y29.457
N1380G01 X320.443 Y29.534
N1390G01 X320.555 Y29.663
N1400G01 X320.604 Y29.755
N1410G01 X320.629 Y29.838
N1420G01 X320.643 Y30.07
N1430G01 X320.637 Y30.13
N1440G01 X320.605 Y30.234
N1450G01 X320.534 Y30.366
N1460G01 X320.471 Y30.442
N1470G01 X320.357 Y30.527
N1480G01 X320.358 Y30.528
N1490G01 X320.342 Y30.54
N1500G01 X320.197 Y30.613
N1510G01 X320.16 Y30.624
N1520G01 X319.964 Y30.641
N1530G01 X319.861 Y30.629
N1540G01 X319.807 Y30.613
N1550G01 X319.659 Y30.538
N1560G01 X319.66 Y30.537
N1570G01 X319.561 Y30.46
N1580G01 X319.449 Y30.331
N1590G01 X319.4 Y30.239
N1600G01 X319.375 Y30.156
N1610G01 X319.361 Y29.924
N1620G01 Z-5 F500
N1630G01 X319.367 Y29.864 F1000
N1640G01 X319.399 Y29.761
N1650G01 X319.47 Y29.628
N1660G01 X319.533 Y29.552
N1670G01 X319.647 Y29.467
N1680G01 X319.646 Y29.466
N1690G01 X319.662 Y29.454
N1700G01 X319.807 Y29.381
N1710G01 X319.844 Y29.37
N1720G01 X320.04 Y29.353
N1730G01 X320.143 Y29.365
N1740G01 X320.197 Y29.381
N1750G01 X320.345 Y29.456
N1760G01 X320.344 Y29.457
N1770G01 X320.443 Y29.534
N1780G01 X320.555 Y29.663
N1790G01 X320.604 Y29.755
N1800G01 X320.629 Y29.838
N1810G01 X320.643 Y30.07
N1820G01 X320.637 Y30.13
N1830G01 X320.605 Y30.234
N1840G01 X320.534 Y30.366
N1850G01 X320.471 Y30.442
N1860G01 X320.357 Y30.527
N1870G01 X320.358 Y30.528
N1880G01 X320.342 Y30.54
N1890G01 X320.197 Y30.613
N1900G01 X320.16 Y30.624
N1910G01 X319.964 Y30.641
N1920G01 X319.861 Y30.629
N1930G01 X319.807 Y30.613
N1940G01 X319.659 Y30.538
N1950G01 X319.66 Y30.537
N1960G01 X319.561 Y30.46
N1970G01 X319.449 Y30.331
N1980G01 X319.4 Y30.239
N1990G01 X319.375 Y30.156
N2000G01 X319.361 Y29.924
N2010G01 Z-6 F500
N2020G01 X319.367 Y29.864 F1000
N2030G01 X319.399 Y29.761
N2040G01 X319.47 Y29.628
N2050G01 X319.533 Y29.552
N2060G01 X319.647 Y29.467
N2070G01 X319.646 Y29.466
N2080G01 X319.662 Y29.454
N2090G01 X319.807 Y29.381
N2100G01 X319.844 Y29.37
N2110G01 X320.04 Y29.353
N2120G01 X320.143 Y29.365
N2130G01 X320.197 Y29.381
N2140G01 X320.345 Y29.456
N2150G01 X320.344 Y29.457
N2160G01 X320.443 Y29.534
N2170G01 X320.555 Y29.663
N2180G01 X320.604 Y29.755
N2190G01 X320.629 Y29.838
N2200G01 X320.643 Y30.07
N2210G01 X320.637 Y30.13
N2220G01 X320.605 Y30.234
N2230G01 X320.534 Y30.366
N2240G01 X320.471 Y30.442
N2250G01 X320.357 Y30.527
N2260G01 X320.358 Y30.528
N2270G01 X320.342 Y30.54
N2280G01 X320.197 Y30.613
N2290G01 X320.16 Y30.624
N2300G01 X319.964 Y30.641
N2310G01 X319.861 Y30.629
N2320G01 X319.807 Y30.613
N2330G01 X319.659 Y30.538
N2340G01 X319.66 Y30.537
N2350G01 X319.561 Y30.46
N2360G01 X319.449 Y30.331
N2370G01 X319.4 Y30.239
N2380G01 X319.375 Y30.156
N2390G01 X319.361 Y29.924
N2400G01 Z-7 F500
N2410G01 X319.367 Y29.864 F1000
N2420G01 X319.399 Y29.761
N2430G01 X319.47 Y29.628
N2440G01 X319.533 Y29.552
N2450G01 X319.647 Y29.467
N2460G01 X319.646 Y29.466
N2470G01 X319.662 Y29.454
N2480G01 X319.807 Y29.381
N2490G01 X319.844 Y29.37
N2500G01 X320.04 Y29.353
N2510G01 X320.143 Y29.365
N2520G01 X320.197 Y29.381
N2530G01 X320.345 Y29.456
N2540G01 X320.344 Y29.457
N2550G01 X320.443 Y29.534
N2560G01 X320.555 Y29.663
N2570G01 X320.604 Y29.755
N2580G01 X320.629 Y29.838
N2590G01 X320.643 Y30.07
N2600G01 X320.637 Y30.13
N2610G01 X320.605 Y30.234
N2620G01 X320.534 Y30.366
N2630G01 X320.471 Y30.442
N2640G01 X320.357 Y30.527
N2650G01 X320.358 Y30.528
N2660G01 X320.342 Y30.54
N2670G01 X320.197 Y30.613
N2680G01 X320.16 Y30.624
N2690G01 X319.964 Y30.641
N2700G01 X319.861 Y30.629
N2710G01 X319.807 Y30.613
N2720G01 X319.659 Y30.538
N2730G01 X319.66 Y30.537
N2740G01 X319.561 Y30.46
N2750G01 X319.449 Y30.331
N2760G01 X319.4 Y30.239
N2770G01 X319.375 Y30.156
N2780G01 X319.361 Y29.924
N2790G01 Z-8 F500
N2800G01 X319.367 Y29.864 F1000
N2810G01 X319.399 Y29.761
N2820G01 X319.47 Y29.628
N2830G01 X319.533 Y29.552
N2840G01 X319.647 Y29.467
N2850G01 X319.646 Y29.466
N2860G01 X319.662 Y29.454
N2870G01 X319.807 Y29.381
N2880G01 X319.844 Y29.37
N2890G01 X320.04 Y29.353
N2900G01 X320.143 Y29.365
N2910G01 X320.197 Y29.381
N2920G01 X320.345 Y29.456
N2930G01 X320.344 Y29.457
N2940G01 X320.443 Y29.534
N2950G01 X320.555 Y29.663
N2960G01 X320.604 Y29.755
N2970G01 X320.629 Y29.838
N2980G01 X320.643 Y30.07
N2990G01 X320.637 Y30.13
N3000G01 X320.605 Y30.234
N3010G01 X320.534 Y30.366
N3020G01 X320.471 Y30.442
N3030G01 X320.357 Y30.527
N3040G01 X320.358 Y30.528
N3050G01 X320.342 Y30.54
N3060G01 X320.197 Y30.613
N3070G01 X320.16 Y30.624
N3080G01 X319.964 Y30.641
N3090G01 X319.861 Y30.629
N3100G01 X319.807 Y30.613
N3110G01 X319.659 Y30.538
N3120G01 X319.66 Y30.537
N3130G01 X319.561 Y30.46
N3140G01 X319.449 Y30.331
N3150G01 X319.4 Y30.239
N3160G01 X319.375 Y30.156
N3170G01 X319.361 Y29.924
N3180 G00 Z9.999
N3190 M02
