(GCode created using the HeeksCNC Mach3 post processor)
(/home/user/git-repos/donation-box/designs/3D/blender/top panel/bolt-pocket-tl-file.tap)
(G-code generated with BlenderCAM and NC library)
N10 G17 G21 G90
(Tool change)
N20G43H1
N30T1 M06
N40 G00 X0 Y0 Z9.999 S12000 M03
N50 G00 X29.838 Y219.375
N60G01 Z-1 F500
N70G01 X30.07 Y219.361 F1000
N80G01 X30.13 Y219.367
N90G01 X30.234 Y219.399
N100G01 X30.366 Y219.47
N110G01 X30.442 Y219.533
N120G01 X30.527 Y219.647
N130G01 X30.528 Y219.646
N140G01 X30.54 Y219.662
N150G01 X30.613 Y219.807
N160G01 X30.624 Y219.844
N170G01 X30.641 Y220.04
N180G01 X30.629 Y220.143
N190G01 X30.613 Y220.197
N200G01 X30.538 Y220.345
N210G01 X30.537 Y220.344
N220G01 X30.46 Y220.443
N230G01 X30.331 Y220.555
N240G01 X30.239 Y220.604
N250G01 X30.156 Y220.629
N260G01 X29.924 Y220.643
N270G01 X29.864 Y220.637
N280G01 X29.76 Y220.605
N290G01 X29.628 Y220.534
N300G01 X29.552 Y220.471
N310G01 X29.467 Y220.357
N320G01 X29.466 Y220.358
N330G01 X29.454 Y220.342
N340G01 X29.381 Y220.197
N350G01 X29.37 Y220.16
N360G01 X29.353 Y219.964
N370G01 X29.365 Y219.861
N380G01 X29.381 Y219.807
N390G01 X29.456 Y219.659
N400G01 X29.457 Y219.66
N410G01 X29.534 Y219.561
N420G01 X29.663 Y219.449
N430G01 X29.755 Y219.4
N440G01 X29.838 Y219.375
N450G01 Z-2 F500
N460G01 X30.07 Y219.361 F1000
N470G01 X30.13 Y219.367
N480G01 X30.234 Y219.399
N490G01 X30.366 Y219.47
N500G01 X30.442 Y219.533
N510G01 X30.527 Y219.647
N520G01 X30.528 Y219.646
N530G01 X30.54 Y219.662
N540G01 X30.613 Y219.807
N550G01 X30.624 Y219.844
N560G01 X30.641 Y220.04
N570G01 X30.629 Y220.143
N580G01 X30.613 Y220.197
N590G01 X30.538 Y220.345
N600G01 X30.537 Y220.344
N610G01 X30.46 Y220.443
N620G01 X30.331 Y220.555
N630G01 X30.239 Y220.604
N640G01 X30.156 Y220.629
N650G01 X29.924 Y220.643
N660G01 X29.864 Y220.637
N670G01 X29.76 Y220.605
N680G01 X29.628 Y220.534
N690G01 X29.552 Y220.471
N700G01 X29.467 Y220.357
N710G01 X29.466 Y220.358
N720G01 X29.454 Y220.342
N730G01 X29.381 Y220.197
N740G01 X29.37 Y220.16
N750G01 X29.353 Y219.964
N760G01 X29.365 Y219.861
N770G01 X29.381 Y219.807
N780G01 X29.456 Y219.659
N790G01 X29.457 Y219.66
N800G01 X29.534 Y219.561
N810G01 X29.663 Y219.449
N820G01 X29.755 Y219.4
N830G01 X29.838 Y219.375
N840G01 Z-3 F500
N850G01 X30.07 Y219.361 F1000
N860G01 X30.13 Y219.367
N870G01 X30.234 Y219.399
N880G01 X30.366 Y219.47
N890G01 X30.442 Y219.533
N900G01 X30.527 Y219.647
N910G01 X30.528 Y219.646
N920G01 X30.54 Y219.662
N930G01 X30.613 Y219.807
N940G01 X30.624 Y219.844
N950G01 X30.641 Y220.04
N960G01 X30.629 Y220.143
N970G01 X30.613 Y220.197
N980G01 X30.538 Y220.345
N990G01 X30.537 Y220.344
N1000G01 X30.46 Y220.443
N1010G01 X30.331 Y220.555
N1020G01 X30.239 Y220.604
N1030G01 X30.156 Y220.629
N1040G01 X29.924 Y220.643
N1050G01 X29.864 Y220.637
N1060G01 X29.76 Y220.605
N1070G01 X29.628 Y220.534
N1080G01 X29.552 Y220.471
N1090G01 X29.467 Y220.357
N1100G01 X29.466 Y220.358
N1110G01 X29.454 Y220.342
N1120G01 X29.381 Y220.197
N1130G01 X29.37 Y220.16
N1140G01 X29.353 Y219.964
N1150G01 X29.365 Y219.861
N1160G01 X29.381 Y219.807
N1170G01 X29.456 Y219.659
N1180G01 X29.457 Y219.66
N1190G01 X29.534 Y219.561
N1200G01 X29.663 Y219.449
N1210G01 X29.755 Y219.4
N1220G01 X29.838 Y219.375
N1230G01 Z-4 F500
N1240G01 X30.07 Y219.361 F1000
N1250G01 X30.13 Y219.367
N1260G01 X30.234 Y219.399
N1270G01 X30.366 Y219.47
N1280G01 X30.442 Y219.533
N1290G01 X30.527 Y219.647
N1300G01 X30.528 Y219.646
N1310G01 X30.54 Y219.662
N1320G01 X30.613 Y219.807
N1330G01 X30.624 Y219.844
N1340G01 X30.641 Y220.04
N1350G01 X30.629 Y220.143
N1360G01 X30.613 Y220.197
N1370G01 X30.538 Y220.345
N1380G01 X30.537 Y220.344
N1390G01 X30.46 Y220.443
N1400G01 X30.331 Y220.555
N1410G01 X30.239 Y220.604
N1420G01 X30.156 Y220.629
N1430G01 X29.924 Y220.643
N1440G01 X29.864 Y220.637
N1450G01 X29.76 Y220.605
N1460G01 X29.628 Y220.534
N1470G01 X29.552 Y220.471
N1480G01 X29.467 Y220.357
N1490G01 X29.466 Y220.358
N1500G01 X29.454 Y220.342
N1510G01 X29.381 Y220.197
N1520G01 X29.37 Y220.16
N1530G01 X29.353 Y219.964
N1540G01 X29.365 Y219.861
N1550G01 X29.381 Y219.807
N1560G01 X29.456 Y219.659
N1570G01 X29.457 Y219.66
N1580G01 X29.534 Y219.561
N1590G01 X29.663 Y219.449
N1600G01 X29.755 Y219.4
N1610G01 X29.838 Y219.375
N1620G01 Z-5 F500
N1630G01 X30.07 Y219.361 F1000
N1640G01 X30.13 Y219.367
N1650G01 X30.234 Y219.399
N1660G01 X30.366 Y219.47
N1670G01 X30.442 Y219.533
N1680G01 X30.527 Y219.647
N1690G01 X30.528 Y219.646
N1700G01 X30.54 Y219.662
N1710G01 X30.613 Y219.807
N1720G01 X30.624 Y219.844
N1730G01 X30.641 Y220.04
N1740G01 X30.629 Y220.143
N1750G01 X30.613 Y220.197
N1760G01 X30.538 Y220.345
N1770G01 X30.537 Y220.344
N1780G01 X30.46 Y220.443
N1790G01 X30.331 Y220.555
N1800G01 X30.239 Y220.604
N1810G01 X30.156 Y220.629
N1820G01 X29.924 Y220.643
N1830G01 X29.864 Y220.637
N1840G01 X29.76 Y220.605
N1850G01 X29.628 Y220.534
N1860G01 X29.552 Y220.471
N1870G01 X29.467 Y220.357
N1880G01 X29.466 Y220.358
N1890G01 X29.454 Y220.342
N1900G01 X29.381 Y220.197
N1910G01 X29.37 Y220.16
N1920G01 X29.353 Y219.964
N1930G01 X29.365 Y219.861
N1940G01 X29.381 Y219.807
N1950G01 X29.456 Y219.659
N1960G01 X29.457 Y219.66
N1970G01 X29.534 Y219.561
N1980G01 X29.663 Y219.449
N1990G01 X29.755 Y219.4
N2000G01 X29.838 Y219.375
N2010G01 Z-6 F500
N2020G01 X30.07 Y219.361 F1000
N2030G01 X30.13 Y219.367
N2040G01 X30.234 Y219.399
N2050G01 X30.366 Y219.47
N2060G01 X30.442 Y219.533
N2070G01 X30.527 Y219.647
N2080G01 X30.528 Y219.646
N2090G01 X30.54 Y219.662
N2100G01 X30.613 Y219.807
N2110G01 X30.624 Y219.844
N2120G01 X30.641 Y220.04
N2130G01 X30.629 Y220.143
N2140G01 X30.613 Y220.197
N2150G01 X30.538 Y220.345
N2160G01 X30.537 Y220.344
N2170G01 X30.46 Y220.443
N2180G01 X30.331 Y220.555
N2190G01 X30.239 Y220.604
N2200G01 X30.156 Y220.629
N2210G01 X29.924 Y220.643
N2220G01 X29.864 Y220.637
N2230G01 X29.76 Y220.605
N2240G01 X29.628 Y220.534
N2250G01 X29.552 Y220.471
N2260G01 X29.467 Y220.357
N2270G01 X29.466 Y220.358
N2280G01 X29.454 Y220.342
N2290G01 X29.381 Y220.197
N2300G01 X29.37 Y220.16
N2310G01 X29.353 Y219.964
N2320G01 X29.365 Y219.861
N2330G01 X29.381 Y219.807
N2340G01 X29.456 Y219.659
N2350G01 X29.457 Y219.66
N2360G01 X29.534 Y219.561
N2370G01 X29.663 Y219.449
N2380G01 X29.755 Y219.4
N2390G01 X29.838 Y219.375
N2400G01 Z-7 F500
N2410G01 X30.07 Y219.361 F1000
N2420G01 X30.13 Y219.367
N2430G01 X30.234 Y219.399
N2440G01 X30.366 Y219.47
N2450G01 X30.442 Y219.533
N2460G01 X30.527 Y219.647
N2470G01 X30.528 Y219.646
N2480G01 X30.54 Y219.662
N2490G01 X30.613 Y219.807
N2500G01 X30.624 Y219.844
N2510G01 X30.641 Y220.04
N2520G01 X30.629 Y220.143
N2530G01 X30.613 Y220.197
N2540G01 X30.538 Y220.345
N2550G01 X30.537 Y220.344
N2560G01 X30.46 Y220.443
N2570G01 X30.331 Y220.555
N2580G01 X30.239 Y220.604
N2590G01 X30.156 Y220.629
N2600G01 X29.924 Y220.643
N2610G01 X29.864 Y220.637
N2620G01 X29.76 Y220.605
N2630G01 X29.628 Y220.534
N2640G01 X29.552 Y220.471
N2650G01 X29.467 Y220.357
N2660G01 X29.466 Y220.358
N2670G01 X29.454 Y220.342
N2680G01 X29.381 Y220.197
N2690G01 X29.37 Y220.16
N2700G01 X29.353 Y219.964
N2710G01 X29.365 Y219.861
N2720G01 X29.381 Y219.807
N2730G01 X29.456 Y219.659
N2740G01 X29.457 Y219.66
N2750G01 X29.534 Y219.561
N2760G01 X29.663 Y219.449
N2770G01 X29.755 Y219.4
N2780G01 X29.838 Y219.375
N2790G01 Z-8 F500
N2800G01 X30.07 Y219.361 F1000
N2810G01 X30.13 Y219.367
N2820G01 X30.234 Y219.399
N2830G01 X30.366 Y219.47
N2840G01 X30.442 Y219.533
N2850G01 X30.527 Y219.647
N2860G01 X30.528 Y219.646
N2870G01 X30.54 Y219.662
N2880G01 X30.613 Y219.807
N2890G01 X30.624 Y219.844
N2900G01 X30.641 Y220.04
N2910G01 X30.629 Y220.143
N2920G01 X30.613 Y220.197
N2930G01 X30.538 Y220.345
N2940G01 X30.537 Y220.344
N2950G01 X30.46 Y220.443
N2960G01 X30.331 Y220.555
N2970G01 X30.239 Y220.604
N2980G01 X30.156 Y220.629
N2990G01 X29.924 Y220.643
N3000G01 X29.864 Y220.637
N3010G01 X29.76 Y220.605
N3020G01 X29.628 Y220.534
N3030G01 X29.552 Y220.471
N3040G01 X29.467 Y220.357
N3050G01 X29.466 Y220.358
N3060G01 X29.454 Y220.342
N3070G01 X29.381 Y220.197
N3080G01 X29.37 Y220.16
N3090G01 X29.353 Y219.964
N3100G01 X29.365 Y219.861
N3110G01 X29.381 Y219.807
N3120G01 X29.456 Y219.659
N3130G01 X29.457 Y219.66
N3140G01 X29.534 Y219.561
N3150G01 X29.663 Y219.449
N3160G01 X29.755 Y219.4
N3170G01 X29.838 Y219.375
N3180 G00 Z9.999
N3190 M02
