(GCode created using the HeeksCNC Mach3 post processor)
(/home/user/git-repos/donation-box/designs/3D/blender/top panel/bolt-pocket-tr-file.tap)
(G-code generated with BlenderCAM and NC library)
N10 G17 G21 G90
(Tool change)
N20G43H1
N30T1 M06
N40 G00 X0 Y0 Z9.999 S12000 M03
N50 G00 X319.461 Y219.649
N60G01 Z-1 F500
N70G01 X319.532 Y219.567 F1000
N80G01 X319.553 Y219.551
N90G01 X319.596 Y219.512
N100G01 X319.597 Y219.513
N110G01 X319.664 Y219.454
N120G01 X319.764 Y219.401
N130G01 X319.874 Y219.367
N140G01 X320.005 Y219.354
N150G01 X320.128 Y219.367
N160G01 X320.24 Y219.401
N170G01 X320.355 Y219.461
N180G01 X320.437 Y219.532
N190G01 X320.453 Y219.553
N200G01 X320.55 Y219.664
N210G01 X320.603 Y219.764
N220G01 X320.637 Y219.874
N230G01 X320.65 Y220.005
N240G01 X320.637 Y220.128
N250G01 X320.603 Y220.24
N260G01 X320.543 Y220.355
N270G01 X320.472 Y220.437
N280G01 X320.451 Y220.453
N290G01 X320.408 Y220.492
N300G01 X320.407 Y220.491
N310G01 X320.34 Y220.55
N320G01 X320.24 Y220.603
N330G01 X320.13 Y220.637
N340G01 X319.999 Y220.65
N350G01 X319.876 Y220.637
N360G01 X319.764 Y220.603
N370G01 X319.649 Y220.543
N380G01 X319.567 Y220.472
N390G01 X319.551 Y220.451
N400G01 X319.454 Y220.34
N410G01 X319.401 Y220.24
N420G01 X319.366 Y220.128
N430G01 X319.357 Y220.037
N440G01 Y219.967
N450G01 X319.366 Y219.876
N460G01 X319.401 Y219.764
N470G01 X319.461 Y219.649
N480G01 Z-2 F500
N490G01 X319.532 Y219.567 F1000
N500G01 X319.553 Y219.551
N510G01 X319.596 Y219.512
N520G01 X319.597 Y219.513
N530G01 X319.664 Y219.454
N540G01 X319.764 Y219.401
N550G01 X319.874 Y219.367
N560G01 X320.005 Y219.354
N570G01 X320.128 Y219.367
N580G01 X320.24 Y219.401
N590G01 X320.355 Y219.461
N600G01 X320.437 Y219.532
N610G01 X320.453 Y219.553
N620G01 X320.55 Y219.664
N630G01 X320.603 Y219.764
N640G01 X320.637 Y219.874
N650G01 X320.65 Y220.005
N660G01 X320.637 Y220.128
N670G01 X320.603 Y220.24
N680G01 X320.543 Y220.355
N690G01 X320.472 Y220.437
N700G01 X320.451 Y220.453
N710G01 X320.408 Y220.492
N720G01 X320.407 Y220.491
N730G01 X320.34 Y220.55
N740G01 X320.24 Y220.603
N750G01 X320.13 Y220.637
N760G01 X319.999 Y220.65
N770G01 X319.876 Y220.637
N780G01 X319.764 Y220.603
N790G01 X319.649 Y220.543
N800G01 X319.567 Y220.472
N810G01 X319.551 Y220.451
N820G01 X319.454 Y220.34
N830G01 X319.401 Y220.24
N840G01 X319.366 Y220.128
N850G01 X319.357 Y220.037
N860G01 Y219.967
N870G01 X319.366 Y219.876
N880G01 X319.401 Y219.764
N890G01 X319.461 Y219.649
N900G01 Z-3 F500
N910G01 X319.532 Y219.567 F1000
N920G01 X319.553 Y219.551
N930G01 X319.596 Y219.512
N940G01 X319.597 Y219.513
N950G01 X319.664 Y219.454
N960G01 X319.764 Y219.401
N970G01 X319.874 Y219.367
N980G01 X320.005 Y219.354
N990G01 X320.128 Y219.367
N1000G01 X320.24 Y219.401
N1010G01 X320.355 Y219.461
N1020G01 X320.437 Y219.532
N1030G01 X320.453 Y219.553
N1040G01 X320.55 Y219.664
N1050G01 X320.603 Y219.764
N1060G01 X320.637 Y219.874
N1070G01 X320.65 Y220.005
N1080G01 X320.637 Y220.128
N1090G01 X320.603 Y220.24
N1100G01 X320.543 Y220.355
N1110G01 X320.472 Y220.437
N1120G01 X320.451 Y220.453
N1130G01 X320.408 Y220.492
N1140G01 X320.407 Y220.491
N1150G01 X320.34 Y220.55
N1160G01 X320.24 Y220.603
N1170G01 X320.13 Y220.637
N1180G01 X319.999 Y220.65
N1190G01 X319.876 Y220.637
N1200G01 X319.764 Y220.603
N1210G01 X319.649 Y220.543
N1220G01 X319.567 Y220.472
N1230G01 X319.551 Y220.451
N1240G01 X319.454 Y220.34
N1250G01 X319.401 Y220.24
N1260G01 X319.366 Y220.128
N1270G01 X319.357 Y220.037
N1280G01 Y219.967
N1290G01 X319.366 Y219.876
N1300G01 X319.401 Y219.764
N1310G01 X319.461 Y219.649
N1320G01 Z-4 F500
N1330G01 X319.532 Y219.567 F1000
N1340G01 X319.553 Y219.551
N1350G01 X319.596 Y219.512
N1360G01 X319.597 Y219.513
N1370G01 X319.664 Y219.454
N1380G01 X319.764 Y219.401
N1390G01 X319.874 Y219.367
N1400G01 X320.005 Y219.354
N1410G01 X320.128 Y219.367
N1420G01 X320.24 Y219.401
N1430G01 X320.355 Y219.461
N1440G01 X320.437 Y219.532
N1450G01 X320.453 Y219.553
N1460G01 X320.55 Y219.664
N1470G01 X320.603 Y219.764
N1480G01 X320.637 Y219.874
N1490G01 X320.65 Y220.005
N1500G01 X320.637 Y220.128
N1510G01 X320.603 Y220.24
N1520G01 X320.543 Y220.355
N1530G01 X320.472 Y220.437
N1540G01 X320.451 Y220.453
N1550G01 X320.408 Y220.492
N1560G01 X320.407 Y220.491
N1570G01 X320.34 Y220.55
N1580G01 X320.24 Y220.603
N1590G01 X320.13 Y220.637
N1600G01 X319.999 Y220.65
N1610G01 X319.876 Y220.637
N1620G01 X319.764 Y220.603
N1630G01 X319.649 Y220.543
N1640G01 X319.567 Y220.472
N1650G01 X319.551 Y220.451
N1660G01 X319.454 Y220.34
N1670G01 X319.401 Y220.24
N1680G01 X319.366 Y220.128
N1690G01 X319.357 Y220.037
N1700G01 Y219.967
N1710G01 X319.366 Y219.876
N1720G01 X319.401 Y219.764
N1730G01 X319.461 Y219.649
N1740G01 Z-5 F500
N1750G01 X319.532 Y219.567 F1000
N1760G01 X319.553 Y219.551
N1770G01 X319.596 Y219.512
N1780G01 X319.597 Y219.513
N1790G01 X319.664 Y219.454
N1800G01 X319.764 Y219.401
N1810G01 X319.874 Y219.367
N1820G01 X320.005 Y219.354
N1830G01 X320.128 Y219.367
N1840G01 X320.24 Y219.401
N1850G01 X320.355 Y219.461
N1860G01 X320.437 Y219.532
N1870G01 X320.453 Y219.553
N1880G01 X320.55 Y219.664
N1890G01 X320.603 Y219.764
N1900G01 X320.637 Y219.874
N1910G01 X320.65 Y220.005
N1920G01 X320.637 Y220.128
N1930G01 X320.603 Y220.24
N1940G01 X320.543 Y220.355
N1950G01 X320.472 Y220.437
N1960G01 X320.451 Y220.453
N1970G01 X320.408 Y220.492
N1980G01 X320.407 Y220.491
N1990G01 X320.34 Y220.55
N2000G01 X320.24 Y220.603
N2010G01 X320.13 Y220.637
N2020G01 X319.999 Y220.65
N2030G01 X319.876 Y220.637
N2040G01 X319.764 Y220.603
N2050G01 X319.649 Y220.543
N2060G01 X319.567 Y220.472
N2070G01 X319.551 Y220.451
N2080G01 X319.454 Y220.34
N2090G01 X319.401 Y220.24
N2100G01 X319.366 Y220.128
N2110G01 X319.357 Y220.037
N2120G01 Y219.967
N2130G01 X319.366 Y219.876
N2140G01 X319.401 Y219.764
N2150G01 X319.461 Y219.649
N2160G01 Z-6 F500
N2170G01 X319.532 Y219.567 F1000
N2180G01 X319.553 Y219.551
N2190G01 X319.596 Y219.512
N2200G01 X319.597 Y219.513
N2210G01 X319.664 Y219.454
N2220G01 X319.764 Y219.401
N2230G01 X319.874 Y219.367
N2240G01 X320.005 Y219.354
N2250G01 X320.128 Y219.367
N2260G01 X320.24 Y219.401
N2270G01 X320.355 Y219.461
N2280G01 X320.437 Y219.532
N2290G01 X320.453 Y219.553
N2300G01 X320.55 Y219.664
N2310G01 X320.603 Y219.764
N2320G01 X320.637 Y219.874
N2330G01 X320.65 Y220.005
N2340G01 X320.637 Y220.128
N2350G01 X320.603 Y220.24
N2360G01 X320.543 Y220.355
N2370G01 X320.472 Y220.437
N2380G01 X320.451 Y220.453
N2390G01 X320.408 Y220.492
N2400G01 X320.407 Y220.491
N2410G01 X320.34 Y220.55
N2420G01 X320.24 Y220.603
N2430G01 X320.13 Y220.637
N2440G01 X319.999 Y220.65
N2450G01 X319.876 Y220.637
N2460G01 X319.764 Y220.603
N2470G01 X319.649 Y220.543
N2480G01 X319.567 Y220.472
N2490G01 X319.551 Y220.451
N2500G01 X319.454 Y220.34
N2510G01 X319.401 Y220.24
N2520G01 X319.366 Y220.128
N2530G01 X319.357 Y220.037
N2540G01 Y219.967
N2550G01 X319.366 Y219.876
N2560G01 X319.401 Y219.764
N2570G01 X319.461 Y219.649
N2580G01 Z-7 F500
N2590G01 X319.532 Y219.567 F1000
N2600G01 X319.553 Y219.551
N2610G01 X319.596 Y219.512
N2620G01 X319.597 Y219.513
N2630G01 X319.664 Y219.454
N2640G01 X319.764 Y219.401
N2650G01 X319.874 Y219.367
N2660G01 X320.005 Y219.354
N2670G01 X320.128 Y219.367
N2680G01 X320.24 Y219.401
N2690G01 X320.355 Y219.461
N2700G01 X320.437 Y219.532
N2710G01 X320.453 Y219.553
N2720G01 X320.55 Y219.664
N2730G01 X320.603 Y219.764
N2740G01 X320.637 Y219.874
N2750G01 X320.65 Y220.005
N2760G01 X320.637 Y220.128
N2770G01 X320.603 Y220.24
N2780G01 X320.543 Y220.355
N2790G01 X320.472 Y220.437
N2800G01 X320.451 Y220.453
N2810G01 X320.408 Y220.492
N2820G01 X320.407 Y220.491
N2830G01 X320.34 Y220.55
N2840G01 X320.24 Y220.603
N2850G01 X320.13 Y220.637
N2860G01 X319.999 Y220.65
N2870G01 X319.876 Y220.637
N2880G01 X319.764 Y220.603
N2890G01 X319.649 Y220.543
N2900G01 X319.567 Y220.472
N2910G01 X319.551 Y220.451
N2920G01 X319.454 Y220.34
N2930G01 X319.401 Y220.24
N2940G01 X319.366 Y220.128
N2950G01 X319.357 Y220.037
N2960G01 Y219.967
N2970G01 X319.366 Y219.876
N2980G01 X319.401 Y219.764
N2990G01 X319.461 Y219.649
N3000G01 Z-8 F500
N3010G01 X319.532 Y219.567 F1000
N3020G01 X319.553 Y219.551
N3030G01 X319.596 Y219.512
N3040G01 X319.597 Y219.513
N3050G01 X319.664 Y219.454
N3060G01 X319.764 Y219.401
N3070G01 X319.874 Y219.367
N3080G01 X320.005 Y219.354
N3090G01 X320.128 Y219.367
N3100G01 X320.24 Y219.401
N3110G01 X320.355 Y219.461
N3120G01 X320.437 Y219.532
N3130G01 X320.453 Y219.553
N3140G01 X320.55 Y219.664
N3150G01 X320.603 Y219.764
N3160G01 X320.637 Y219.874
N3170G01 X320.65 Y220.005
N3180G01 X320.637 Y220.128
N3190G01 X320.603 Y220.24
N3200G01 X320.543 Y220.355
N3210G01 X320.472 Y220.437
N3220G01 X320.451 Y220.453
N3230G01 X320.408 Y220.492
N3240G01 X320.407 Y220.491
N3250G01 X320.34 Y220.55
N3260G01 X320.24 Y220.603
N3270G01 X320.13 Y220.637
N3280G01 X319.999 Y220.65
N3290G01 X319.876 Y220.637
N3300G01 X319.764 Y220.603
N3310G01 X319.649 Y220.543
N3320G01 X319.567 Y220.472
N3330G01 X319.551 Y220.451
N3340G01 X319.454 Y220.34
N3350G01 X319.401 Y220.24
N3360G01 X319.366 Y220.128
N3370G01 X319.357 Y220.037
N3380G01 Y219.967
N3390G01 X319.366 Y219.876
N3400G01 X319.401 Y219.764
N3410G01 X319.461 Y219.649
N3420 G00 Z9.999
N3430 M02
