(GCode created using the HeeksCNC Mach3 post processor)
(/home/user/git-repos/dkoukoul/donation-box/designs/3D/blender/top panel/clamp-cutout-file.tap)
(G-code generated with BlenderCAM and NC library)
N10 G17 G21 G90
(Tool change)
N20G43H1
N30T1 M06
N40 G00 X0 Y0 Z9.999 S12000 M03
N50 G00 X29.189 Y29.189
N60G01 Z-1 F500
N70G01 X29.3 Y29.091 F1000
N80G01 X29.423 Y29.008
N90G01 X29.555 Y28.942
N100G01 X29.696 Y28.893
N110G01 X29.845 Y28.862
N120G01 X30.003 Y28.852
N130G01 X30.161 Y28.862
N140G01 X30.309 Y28.893
N150G01 X30.448 Y28.941
N160G01 X30.579 Y29.007
N170G01 X30.701 Y29.089
N180G01 X30.811 Y29.187
N190G01 X30.908 Y29.298
N200G01 X30.99 Y29.42
N210G01 X31.056 Y29.553
N220G01 X31.105 Y29.694
N230G01 X31.135 Y29.844
N240G01 X31.146 Y30.003
N250G01 X31.136 Y30.162
N260G01 X31.105 Y30.311
N270G01 X31.057 Y30.451
N280G01 X30.991 Y30.582
N290G01 X30.909 Y30.703
N300G01 X30.813 Y30.813
N310G01 X30.703 Y30.909
N320G01 X30.582 Y30.991
N330G01 X30.451 Y31.057
N340G01 X30.311 Y31.105
N350G01 X30.162 Y31.135
N360G01 X30.003 Y31.146
N370G01 X29.844 Y31.135
N380G01 X29.694 Y31.105
N390G01 X29.553 Y31.056
N400G01 X29.42 Y30.99
N410G01 X29.298 Y30.908
N420G01 X29.187 Y30.811
N430G01 X29.089 Y30.701
N440G01 X29.007 Y30.579
N450G01 X28.941 Y30.448
N460G01 X28.893 Y30.309
N470G01 X28.862 Y30.161
N480G01 X28.852 Y30.003
N490G01 X28.862 Y29.845
N500G01 X28.893 Y29.696
N510G01 X28.942 Y29.555
N520G01 X29.008 Y29.423
N530G01 X29.091 Y29.3
N540G01 X29.189 Y29.189
N550 G00 Z9.999
N560 G00 X318.853 Y30.003
N570G01 Z-1 F500
N580G01 X318.863 Y29.844 F1000
N590G01 X318.894 Y29.694
N600G01 X318.942 Y29.553
N610G01 X319.009 Y29.42
N620G01 X319.091 Y29.298
N630G01 X319.188 Y29.187
N640G01 X319.298 Y29.089
N650G01 X319.419 Y29.007
N660G01 X319.55 Y28.941
N670G01 X319.69 Y28.893
N680G01 X319.838 Y28.862
N690G01 X319.995 Y28.852
N700G01 X320.154 Y28.862
N710G01 X320.302 Y28.893
N720G01 X320.443 Y28.942
N730G01 X320.575 Y29.008
N740G01 X320.698 Y29.091
N750G01 X320.81 Y29.189
N760G01 X320.908 Y29.3
N770G01 X320.991 Y29.423
N780G01 X321.057 Y29.556
N790G01 X321.106 Y29.696
N800G01 X321.136 Y29.845
N810G01 X321.147 Y30.003
N820G01 X321.136 Y30.161
N830G01 X321.106 Y30.309
N840G01 X321.058 Y30.448
N850G01 X320.992 Y30.579
N860G01 X320.909 Y30.701
N870G01 X320.812 Y30.811
N880G01 X320.701 Y30.908
N890G01 X320.579 Y30.99
N900G01 X320.446 Y31.056
N910G01 X320.305 Y31.105
N920G01 X320.155 Y31.135
N930G01 X319.995 Y31.146
N940G01 X319.836 Y31.135
N950G01 X319.687 Y31.105
N960G01 X319.547 Y31.057
N970G01 X319.416 Y30.991
N980G01 X319.295 Y30.91
N990G01 X319.186 Y30.813
N1000G01 X319.089 Y30.703
N1010G01 X319.008 Y30.582
N1020G01 X318.942 Y30.451
N1030G01 X318.893 Y30.311
N1040G01 X318.863 Y30.162
N1050G01 X318.853 Y30.003
N1060 G00 Z9.999
N1070 G00 X319.995 Y218.858
N1080G01 Z-1 F500
N1090G01 X320.155 Y218.868 F1000
N1100G01 X320.304 Y218.899
N1110G01 X320.445 Y218.948
N1120G01 X320.578 Y219.014
N1130G01 X320.701 Y219.096
N1140G01 X320.811 Y219.194
N1150G01 X320.909 Y219.304
N1160G01 X320.992 Y219.426
N1170G01 X321.058 Y219.557
N1180G01 X321.106 Y219.696
N1190G01 X321.136 Y219.844
N1200G01 X321.147 Y220.001
N1210G01 X321.136 Y220.158
N1220G01 X321.106 Y220.305
N1230G01 X321.058 Y220.444
N1240G01 X320.992 Y220.575
N1250G01 X320.909 Y220.697
N1260G01 X320.812 Y220.807
N1270G01 X320.7 Y220.905
N1280G01 X320.578 Y220.987
N1290G01 X320.445 Y221.053
N1300G01 X320.304 Y221.102
N1310G01 X320.154 Y221.133
N1320G01 X319.995 Y221.143
N1330G01 X319.837 Y221.133
N1340G01 X319.688 Y221.102
N1350G01 X319.548 Y221.054
N1360G01 X319.417 Y220.988
N1370G01 X319.296 Y220.906
N1380G01 X319.186 Y220.81
N1390G01 X319.089 Y220.7
N1400G01 X319.008 Y220.578
N1410G01 X318.942 Y220.447
N1420G01 X318.893 Y220.307
N1430G01 X318.863 Y220.159
N1440G01 X318.853 Y220.001
N1450G01 X318.863 Y219.842
N1460G01 X318.893 Y219.694
N1470G01 X318.942 Y219.554
N1480G01 X319.008 Y219.423
N1490G01 X319.089 Y219.302
N1500G01 X319.186 Y219.191
N1510G01 X319.296 Y219.095
N1520G01 X319.417 Y219.013
N1530G01 X319.548 Y218.947
N1540G01 X319.688 Y218.899
N1550G01 X319.837 Y218.868
N1560G01 X319.995 Y218.858
N1570 G00 Z9.999
N1580 G00 X31.146 Y220.001
N1590G01 Z-1 F500
N1600G01 X31.136 Y220.159 F1000
N1610G01 X31.105 Y220.307
N1620G01 X31.057 Y220.447
N1630G01 X30.991 Y220.578
N1640G01 X30.909 Y220.7
N1650G01 X30.813 Y220.81
N1660G01 X30.703 Y220.906
N1670G01 X30.582 Y220.988
N1680G01 X30.45 Y221.054
N1690G01 X30.311 Y221.102
N1700G01 X30.162 Y221.133
N1710G01 X30.003 Y221.143
N1720G01 X29.844 Y221.133
N1730G01 X29.695 Y221.102
N1740G01 X29.553 Y221.053
N1750G01 X29.421 Y220.987
N1760G01 X29.298 Y220.905
N1770G01 X29.187 Y220.807
N1780G01 X29.09 Y220.697
N1790G01 X29.007 Y220.575
N1800G01 X28.941 Y220.444
N1810G01 X28.892 Y220.305
N1820G01 X28.862 Y220.157
N1830G01 X28.852 Y220.001
N1840G01 X28.862 Y219.844
N1850G01 X28.892 Y219.696
N1860G01 X28.941 Y219.557
N1870G01 X29.007 Y219.426
N1880G01 X29.089 Y219.304
N1890G01 X29.187 Y219.194
N1900G01 X29.298 Y219.096
N1910G01 X29.421 Y219.014
N1920G01 X29.553 Y218.948
N1930G01 X29.695 Y218.899
N1940G01 X29.844 Y218.868
N1950G01 X30.003 Y218.858
N1960G01 X30.162 Y218.868
N1970G01 X30.31 Y218.899
N1980G01 X30.45 Y218.947
N1990G01 X30.582 Y219.013
N2000G01 X30.703 Y219.095
N2010G01 X30.813 Y219.191
N2020G01 X30.909 Y219.301
N2030G01 X30.991 Y219.423
N2040G01 X31.057 Y219.554
N2050G01 X31.105 Y219.694
N2060G01 X31.136 Y219.842
N2070G01 X31.146 Y220.001
N2080 G00 Z9.999
N2090 G00 X10.001 Y241.353
N2100G01 Z-1 F500
N2110G01 X339.998 F1000
N2120G01 X340.13 Y241.347
N2130G01 X340.261 Y241.327
N2140G01 X340.39 Y241.295
N2150G01 X340.515 Y241.25
N2160G01 X340.634 Y241.194
N2170G01 X340.748 Y241.126
N2180G01 X340.854 Y241.047
N2190G01 X340.953 Y240.958
N2200G01 X341.041 Y240.859
N2210G01 X341.12 Y240.753
N2220G01 X341.189 Y240.639
N2230G01 X341.245 Y240.52
N2240G01 X341.29 Y240.395
N2250G01 X341.322 Y240.266
N2260G01 X341.341 Y240.135
N2270G01 X341.348 Y240.003
N2280G01 X341.348 Y204.999
N2290G01 X341.341 Y204.866
N2300G01 X341.322 Y204.735
N2310G01 X341.29 Y204.607
N2320G01 X341.245 Y204.482
N2330G01 X341.189 Y204.362
N2340G01 X341.12 Y204.249
N2350G01 X341.041 Y204.142
N2360G01 X340.953 Y204.044
N2370G01 X340.854 Y203.955
N2380G01 X340.748 Y203.876
N2390G01 X340.634 Y203.808
N2400G01 X340.515 Y203.751
N2410G01 X340.39 Y203.707
N2420G01 X340.261 Y203.675
N2430G01 X340.13 Y203.655
N2440G01 X339.998 Y203.649
N2450G01 X234.148
N2460G01 X227.18 Y203.277
N2470G01 X221.18 Y202.205
N2480G01 X216.087 Y200.492
N2490G01 X211.867 Y198.197
N2500G01 X208.474 Y195.373
N2510G01 X205.856 Y192.056
N2520G01 X203.972 Y188.269
N2530G01 X202.798 Y184.03
N2540G01 X202.322 Y179.369
N2550G01 X202.535 Y174.327
N2560G01 X203.424 Y168.952
N2570G01 X204.975 Y163.295
N2580G01 X207.168 Y157.407
N2590G01 X209.982 Y151.341
N2600G01 X213.395 Y145.146
N2610G01 X217.384 Y138.872
N2620G01 X221.925 Y132.568
N2630G01 X226.995 Y126.283
N2640G01 X232.569 Y120.063
N2650G01 X238.625 Y113.958
N2660G01 X245.138 Y108.014
N2670G01 X252.084 Y102.28
N2680G01 X259.439 Y96.801
N2690G01 X267.18 Y91.625
N2700G01 X275.281 Y86.8
N2710G01 X283.719 Y82.37
N2720G01 X292.471 Y78.384
N2730G01 X301.511 Y74.887
N2740G01 X310.818 Y71.926
N2750G01 X320.366 Y69.546
N2760G01 X330.133 Y67.795
N2770G01 X340.143 Y66.711
N2780G01 X340.261 Y66.693
N2790G01 X340.39 Y66.661
N2800G01 X340.515 Y66.616
N2810G01 X340.634 Y66.56
N2820G01 X340.748 Y66.492
N2830G01 X340.854 Y66.413
N2840G01 X340.953 Y66.324
N2850G01 X341.041 Y66.226
N2860G01 X341.12 Y66.119
N2870G01 X341.189 Y66.006
N2880G01 X341.245 Y65.886
N2890G01 X341.29 Y65.761
N2900G01 X341.322 Y65.633
N2910G01 X341.341 Y65.502
N2920G01 X341.348 Y65.369
N2930G01 Y10.001
N2940G01 X341.341 Y9.868
N2950G01 X341.322 Y9.737
N2960G01 X341.29 Y9.609
N2970G01 X341.245 Y9.484
N2980G01 X341.189 Y9.364
N2990G01 X341.12 Y9.251
N3000G01 X341.041 Y9.144
N3010G01 X340.953 Y9.046
N3020G01 X340.854 Y8.957
N3030G01 X340.748 Y8.878
N3040G01 X340.634 Y8.81
N3050G01 X340.515 Y8.754
N3060G01 X340.39 Y8.709
N3070G01 X340.261 Y8.677
N3080G01 X340.13 Y8.657
N3090G01 X339.998 Y8.651
N3100G01 X9.868 Y8.657
N3110G01 X9.737 Y8.677
N3120G01 X9.609 Y8.709
N3130G01 X9.484 Y8.754
N3140G01 X9.364 Y8.81
N3150G01 X9.251 Y8.878
N3160G01 X9.144 Y8.957
N3170G01 X9.046 Y9.046
N3180G01 X8.957 Y9.144
N3190G01 X8.878 Y9.251
N3200G01 X8.81 Y9.364
N3210G01 X8.754 Y9.484
N3220G01 X8.709 Y9.609
N3230G01 X8.677 Y9.737
N3240G01 X8.657 Y9.868
N3250G01 X8.651 Y10.001
N3260G01 X8.651 Y44.996
N3270G01 X8.657 Y45.129
N3280G01 X8.677 Y45.26
N3290G01 X8.709 Y45.388
N3300G01 X8.754 Y45.513
N3310G01 X8.81 Y45.633
N3320G01 X8.878 Y45.746
N3330G01 X8.957 Y45.853
N3340G01 X9.046 Y45.951
N3350G01 X9.144 Y46.04
N3360G01 X9.251 Y46.119
N3370G01 X9.364 Y46.187
N3380G01 X9.484 Y46.244
N3390G01 X9.609 Y46.288
N3400G01 X9.737 Y46.32
N3410G01 X9.868 Y46.34
N3420G01 X10.001 Y46.346
N3430G01 X115.851
N3440G01 X122.819 Y46.718
N3450G01 X128.819 Y47.79
N3460G01 X133.911 Y49.503
N3470G01 X138.131 Y51.798
N3480G01 X141.525 Y54.622
N3490G01 X144.142 Y57.939
N3500G01 X146.026 Y61.726
N3510G01 X147.2 Y65.965
N3520G01 X147.676 Y70.626
N3530G01 X147.464 Y75.668
N3540G01 X146.574 Y81.043
N3550G01 X145.024 Y86.7
N3560G01 X142.831 Y92.588
N3570G01 X140.017 Y98.654
N3580G01 X136.604 Y104.849
N3590G01 X132.615 Y111.123
N3600G01 X128.074 Y117.427
N3610G01 X123.004 Y123.712
N3620G01 X117.429 Y129.932
N3630G01 X111.373 Y136.037
N3640G01 X104.86 Y141.981
N3650G01 X97.915 Y147.715
N3660G01 X90.559 Y153.194
N3670G01 X82.819 Y158.37
N3680G01 X74.718 Y163.195
N3690G01 X66.28 Y167.625
N3700G01 X57.528 Y171.611
N3710G01 X48.487 Y175.108
N3720G01 X39.181 Y178.069
N3730G01 X29.633 Y180.449
N3740G01 X19.866 Y182.2
N3750G01 X9.856 Y183.284
N3760G01 X9.737 Y183.302
N3770G01 X9.609 Y183.334
N3780G01 X9.484 Y183.379
N3790G01 X9.364 Y183.435
N3800G01 X9.251 Y183.503
N3810G01 X9.144 Y183.582
N3820G01 X9.046 Y183.671
N3830G01 X8.957 Y183.769
N3840G01 X8.878 Y183.876
N3850G01 X8.81 Y183.989
N3860G01 X8.754 Y184.109
N3870G01 X8.709 Y184.234
N3880G01 X8.677 Y184.362
N3890G01 X8.657 Y184.493
N3900G01 X8.651 Y184.626
N3910G01 X8.651 Y240.003
N3920G01 X8.657 Y240.135
N3930G01 X8.677 Y240.266
N3940G01 X8.709 Y240.395
N3950G01 X8.754 Y240.52
N3960G01 X8.81 Y240.639
N3970G01 X8.878 Y240.753
N3980G01 X8.957 Y240.859
N3990G01 X9.046 Y240.958
N4000G01 X9.144 Y241.047
N4010G01 X9.251 Y241.126
N4020G01 X9.364 Y241.194
N4030G01 X9.484 Y241.25
N4040G01 X9.609 Y241.295
N4050G01 X9.737 Y241.327
N4060G01 X9.868 Y241.347
N4070G01 X10.001 Y241.353
N4080 G00 Z9.999
N4090 G00 X29.189 Y29.189
N4100G01 Z-2 F500
N4110G01 X29.3 Y29.091 F1000
N4120G01 X29.423 Y29.008
N4130G01 X29.555 Y28.942
N4140G01 X29.696 Y28.893
N4150G01 X29.845 Y28.862
N4160G01 X30.003 Y28.852
N4170G01 X30.161 Y28.862
N4180G01 X30.309 Y28.893
N4190G01 X30.448 Y28.941
N4200G01 X30.579 Y29.007
N4210G01 X30.701 Y29.089
N4220G01 X30.811 Y29.187
N4230G01 X30.908 Y29.298
N4240G01 X30.99 Y29.42
N4250G01 X31.056 Y29.553
N4260G01 X31.105 Y29.694
N4270G01 X31.135 Y29.844
N4280G01 X31.146 Y30.003
N4290G01 X31.136 Y30.162
N4300G01 X31.105 Y30.311
N4310G01 X31.057 Y30.451
N4320G01 X30.991 Y30.582
N4330G01 X30.909 Y30.703
N4340G01 X30.813 Y30.813
N4350G01 X30.703 Y30.909
N4360G01 X30.582 Y30.991
N4370G01 X30.451 Y31.057
N4380G01 X30.311 Y31.105
N4390G01 X30.162 Y31.135
N4400G01 X30.003 Y31.146
N4410G01 X29.844 Y31.135
N4420G01 X29.694 Y31.105
N4430G01 X29.553 Y31.056
N4440G01 X29.42 Y30.99
N4450G01 X29.298 Y30.908
N4460G01 X29.187 Y30.811
N4470G01 X29.089 Y30.701
N4480G01 X29.007 Y30.579
N4490G01 X28.941 Y30.448
N4500G01 X28.893 Y30.309
N4510G01 X28.862 Y30.161
N4520G01 X28.852 Y30.003
N4530G01 X28.862 Y29.845
N4540G01 X28.893 Y29.696
N4550G01 X28.942 Y29.555
N4560G01 X29.008 Y29.423
N4570G01 X29.091 Y29.3
N4580G01 X29.189 Y29.189
N4590 G00 Z9.999
N4600 G00 X318.853 Y30.003
N4610G01 Z-2 F500
N4620G01 X318.863 Y29.844 F1000
N4630G01 X318.894 Y29.694
N4640G01 X318.942 Y29.553
N4650G01 X319.009 Y29.42
N4660G01 X319.091 Y29.298
N4670G01 X319.188 Y29.187
N4680G01 X319.298 Y29.089
N4690G01 X319.419 Y29.007
N4700G01 X319.55 Y28.941
N4710G01 X319.69 Y28.893
N4720G01 X319.838 Y28.862
N4730G01 X319.995 Y28.852
N4740G01 X320.154 Y28.862
N4750G01 X320.302 Y28.893
N4760G01 X320.443 Y28.942
N4770G01 X320.575 Y29.008
N4780G01 X320.698 Y29.091
N4790G01 X320.81 Y29.189
N4800G01 X320.908 Y29.3
N4810G01 X320.991 Y29.423
N4820G01 X321.057 Y29.556
N4830G01 X321.106 Y29.696
N4840G01 X321.136 Y29.845
N4850G01 X321.147 Y30.003
N4860G01 X321.136 Y30.161
N4870G01 X321.106 Y30.309
N4880G01 X321.058 Y30.448
N4890G01 X320.992 Y30.579
N4900G01 X320.909 Y30.701
N4910G01 X320.812 Y30.811
N4920G01 X320.701 Y30.908
N4930G01 X320.579 Y30.99
N4940G01 X320.446 Y31.056
N4950G01 X320.305 Y31.105
N4960G01 X320.155 Y31.135
N4970G01 X319.995 Y31.146
N4980G01 X319.836 Y31.135
N4990G01 X319.687 Y31.105
N5000G01 X319.547 Y31.057
N5010G01 X319.416 Y30.991
N5020G01 X319.295 Y30.91
N5030G01 X319.186 Y30.813
N5040G01 X319.089 Y30.703
N5050G01 X319.008 Y30.582
N5060G01 X318.942 Y30.451
N5070G01 X318.893 Y30.311
N5080G01 X318.863 Y30.162
N5090G01 X318.853 Y30.003
N5100 G00 Z9.999
N5110 G00 X319.995 Y218.858
N5120G01 Z-2 F500
N5130G01 X320.155 Y218.868 F1000
N5140G01 X320.304 Y218.899
N5150G01 X320.445 Y218.948
N5160G01 X320.578 Y219.014
N5170G01 X320.701 Y219.096
N5180G01 X320.811 Y219.194
N5190G01 X320.909 Y219.304
N5200G01 X320.992 Y219.426
N5210G01 X321.058 Y219.557
N5220G01 X321.106 Y219.696
N5230G01 X321.136 Y219.844
N5240G01 X321.147 Y220.001
N5250G01 X321.136 Y220.158
N5260G01 X321.106 Y220.305
N5270G01 X321.058 Y220.444
N5280G01 X320.992 Y220.575
N5290G01 X320.909 Y220.697
N5300G01 X320.812 Y220.807
N5310G01 X320.7 Y220.905
N5320G01 X320.578 Y220.987
N5330G01 X320.445 Y221.053
N5340G01 X320.304 Y221.102
N5350G01 X320.154 Y221.133
N5360G01 X319.995 Y221.143
N5370G01 X319.837 Y221.133
N5380G01 X319.688 Y221.102
N5390G01 X319.548 Y221.054
N5400G01 X319.417 Y220.988
N5410G01 X319.296 Y220.906
N5420G01 X319.186 Y220.81
N5430G01 X319.089 Y220.7
N5440G01 X319.008 Y220.578
N5450G01 X318.942 Y220.447
N5460G01 X318.893 Y220.307
N5470G01 X318.863 Y220.159
N5480G01 X318.853 Y220.001
N5490G01 X318.863 Y219.842
N5500G01 X318.893 Y219.694
N5510G01 X318.942 Y219.554
N5520G01 X319.008 Y219.423
N5530G01 X319.089 Y219.302
N5540G01 X319.186 Y219.191
N5550G01 X319.296 Y219.095
N5560G01 X319.417 Y219.013
N5570G01 X319.548 Y218.947
N5580G01 X319.688 Y218.899
N5590G01 X319.837 Y218.868
N5600G01 X319.995 Y218.858
N5610 G00 Z9.999
N5620 G00 X31.146 Y220.001
N5630G01 Z-2 F500
N5640G01 X31.136 Y220.159 F1000
N5650G01 X31.105 Y220.307
N5660G01 X31.057 Y220.447
N5670G01 X30.991 Y220.578
N5680G01 X30.909 Y220.7
N5690G01 X30.813 Y220.81
N5700G01 X30.703 Y220.906
N5710G01 X30.582 Y220.988
N5720G01 X30.45 Y221.054
N5730G01 X30.311 Y221.102
N5740G01 X30.162 Y221.133
N5750G01 X30.003 Y221.143
N5760G01 X29.844 Y221.133
N5770G01 X29.695 Y221.102
N5780G01 X29.553 Y221.053
N5790G01 X29.421 Y220.987
N5800G01 X29.298 Y220.905
N5810G01 X29.187 Y220.807
N5820G01 X29.09 Y220.697
N5830G01 X29.007 Y220.575
N5840G01 X28.941 Y220.444
N5850G01 X28.892 Y220.305
N5860G01 X28.862 Y220.157
N5870G01 X28.852 Y220.001
N5880G01 X28.862 Y219.844
N5890G01 X28.892 Y219.696
N5900G01 X28.941 Y219.557
N5910G01 X29.007 Y219.426
N5920G01 X29.089 Y219.304
N5930G01 X29.187 Y219.194
N5940G01 X29.298 Y219.096
N5950G01 X29.421 Y219.014
N5960G01 X29.553 Y218.948
N5970G01 X29.695 Y218.899
N5980G01 X29.844 Y218.868
N5990G01 X30.003 Y218.858
N6000G01 X30.162 Y218.868
N6010G01 X30.31 Y218.899
N6020G01 X30.45 Y218.947
N6030G01 X30.582 Y219.013
N6040G01 X30.703 Y219.095
N6050G01 X30.813 Y219.191
N6060G01 X30.909 Y219.301
N6070G01 X30.991 Y219.423
N6080G01 X31.057 Y219.554
N6090G01 X31.105 Y219.694
N6100G01 X31.136 Y219.842
N6110G01 X31.146 Y220.001
N6120 G00 Z9.999
N6130 G00 X10.001 Y241.353
N6140G01 Z-2 F500
N6150G01 X339.998 F1000
N6160G01 X340.13 Y241.347
N6170G01 X340.261 Y241.327
N6180G01 X340.39 Y241.295
N6190G01 X340.515 Y241.25
N6200G01 X340.634 Y241.194
N6210G01 X340.748 Y241.126
N6220G01 X340.854 Y241.047
N6230G01 X340.953 Y240.958
N6240G01 X341.041 Y240.859
N6250G01 X341.12 Y240.753
N6260G01 X341.189 Y240.639
N6270G01 X341.245 Y240.52
N6280G01 X341.29 Y240.395
N6290G01 X341.322 Y240.266
N6300G01 X341.341 Y240.135
N6310G01 X341.348 Y240.003
N6320G01 X341.348 Y204.999
N6330G01 X341.341 Y204.866
N6340G01 X341.322 Y204.735
N6350G01 X341.29 Y204.607
N6360G01 X341.245 Y204.482
N6370G01 X341.189 Y204.362
N6380G01 X341.12 Y204.249
N6390G01 X341.041 Y204.142
N6400G01 X340.953 Y204.044
N6410G01 X340.854 Y203.955
N6420G01 X340.748 Y203.876
N6430G01 X340.634 Y203.808
N6440G01 X340.515 Y203.751
N6450G01 X340.39 Y203.707
N6460G01 X340.261 Y203.675
N6470G01 X340.13 Y203.655
N6480G01 X339.998 Y203.649
N6490G01 X234.148
N6500G01 X227.18 Y203.277
N6510G01 X221.18 Y202.205
N6520G01 X216.087 Y200.492
N6530G01 X211.867 Y198.197
N6540G01 X208.474 Y195.373
N6550G01 X205.856 Y192.056
N6560G01 X203.972 Y188.269
N6570G01 X202.798 Y184.03
N6580G01 X202.322 Y179.369
N6590G01 X202.535 Y174.327
N6600G01 X203.424 Y168.952
N6610G01 X204.975 Y163.295
N6620G01 X207.168 Y157.407
N6630G01 X209.982 Y151.341
N6640G01 X213.395 Y145.146
N6650G01 X217.384 Y138.872
N6660G01 X221.925 Y132.568
N6670G01 X226.995 Y126.283
N6680G01 X232.569 Y120.063
N6690G01 X238.625 Y113.958
N6700G01 X245.138 Y108.014
N6710G01 X252.084 Y102.28
N6720G01 X259.439 Y96.801
N6730G01 X267.18 Y91.625
N6740G01 X275.281 Y86.8
N6750G01 X283.719 Y82.37
N6760G01 X292.471 Y78.384
N6770G01 X301.511 Y74.887
N6780G01 X310.818 Y71.926
N6790G01 X320.366 Y69.546
N6800G01 X330.133 Y67.795
N6810G01 X340.143 Y66.711
N6820G01 X340.261 Y66.693
N6830G01 X340.39 Y66.661
N6840G01 X340.515 Y66.616
N6850G01 X340.634 Y66.56
N6860G01 X340.748 Y66.492
N6870G01 X340.854 Y66.413
N6880G01 X340.953 Y66.324
N6890G01 X341.041 Y66.226
N6900G01 X341.12 Y66.119
N6910G01 X341.189 Y66.006
N6920G01 X341.245 Y65.886
N6930G01 X341.29 Y65.761
N6940G01 X341.322 Y65.633
N6950G01 X341.341 Y65.502
N6960G01 X341.348 Y65.369
N6970G01 Y10.001
N6980G01 X341.341 Y9.868
N6990G01 X341.322 Y9.737
N7000G01 X341.29 Y9.609
N7010G01 X341.245 Y9.484
N7020G01 X341.189 Y9.364
N7030G01 X341.12 Y9.251
N7040G01 X341.041 Y9.144
N7050G01 X340.953 Y9.046
N7060G01 X340.854 Y8.957
N7070G01 X340.748 Y8.878
N7080G01 X340.634 Y8.81
N7090G01 X340.515 Y8.754
N7100G01 X340.39 Y8.709
N7110G01 X340.261 Y8.677
N7120G01 X340.13 Y8.657
N7130G01 X339.998 Y8.651
N7140G01 X9.868 Y8.657
N7150G01 X9.737 Y8.677
N7160G01 X9.609 Y8.709
N7170G01 X9.484 Y8.754
N7180G01 X9.364 Y8.81
N7190G01 X9.251 Y8.878
N7200G01 X9.144 Y8.957
N7210G01 X9.046 Y9.046
N7220G01 X8.957 Y9.144
N7230G01 X8.878 Y9.251
N7240G01 X8.81 Y9.364
N7250G01 X8.754 Y9.484
N7260G01 X8.709 Y9.609
N7270G01 X8.677 Y9.737
N7280G01 X8.657 Y9.868
N7290G01 X8.651 Y10.001
N7300G01 X8.651 Y44.996
N7310G01 X8.657 Y45.129
N7320G01 X8.677 Y45.26
N7330G01 X8.709 Y45.388
N7340G01 X8.754 Y45.513
N7350G01 X8.81 Y45.633
N7360G01 X8.878 Y45.746
N7370G01 X8.957 Y45.853
N7380G01 X9.046 Y45.951
N7390G01 X9.144 Y46.04
N7400G01 X9.251 Y46.119
N7410G01 X9.364 Y46.187
N7420G01 X9.484 Y46.244
N7430G01 X9.609 Y46.288
N7440G01 X9.737 Y46.32
N7450G01 X9.868 Y46.34
N7460G01 X10.001 Y46.346
N7470G01 X115.851
N7480G01 X122.819 Y46.718
N7490G01 X128.819 Y47.79
N7500G01 X133.911 Y49.503
N7510G01 X138.131 Y51.798
N7520G01 X141.525 Y54.622
N7530G01 X144.142 Y57.939
N7540G01 X146.026 Y61.726
N7550G01 X147.2 Y65.965
N7560G01 X147.676 Y70.626
N7570G01 X147.464 Y75.668
N7580G01 X146.574 Y81.043
N7590G01 X145.024 Y86.7
N7600G01 X142.831 Y92.588
N7610G01 X140.017 Y98.654
N7620G01 X136.604 Y104.849
N7630G01 X132.615 Y111.123
N7640G01 X128.074 Y117.427
N7650G01 X123.004 Y123.712
N7660G01 X117.429 Y129.932
N7670G01 X111.373 Y136.037
N7680G01 X104.86 Y141.981
N7690G01 X97.915 Y147.715
N7700G01 X90.559 Y153.194
N7710G01 X82.819 Y158.37
N7720G01 X74.718 Y163.195
N7730G01 X66.28 Y167.625
N7740G01 X57.528 Y171.611
N7750G01 X48.487 Y175.108
N7760G01 X39.181 Y178.069
N7770G01 X29.633 Y180.449
N7780G01 X19.866 Y182.2
N7790G01 X9.856 Y183.284
N7800G01 X9.737 Y183.302
N7810G01 X9.609 Y183.334
N7820G01 X9.484 Y183.379
N7830G01 X9.364 Y183.435
N7840G01 X9.251 Y183.503
N7850G01 X9.144 Y183.582
N7860G01 X9.046 Y183.671
N7870G01 X8.957 Y183.769
N7880G01 X8.878 Y183.876
N7890G01 X8.81 Y183.989
N7900G01 X8.754 Y184.109
N7910G01 X8.709 Y184.234
N7920G01 X8.677 Y184.362
N7930G01 X8.657 Y184.493
N7940G01 X8.651 Y184.626
N7950G01 X8.651 Y240.003
N7960G01 X8.657 Y240.135
N7970G01 X8.677 Y240.266
N7980G01 X8.709 Y240.395
N7990G01 X8.754 Y240.52
N8000G01 X8.81 Y240.639
N8010G01 X8.878 Y240.753
N8020G01 X8.957 Y240.859
N8030G01 X9.046 Y240.958
N8040G01 X9.144 Y241.047
N8050G01 X9.251 Y241.126
N8060G01 X9.364 Y241.194
N8070G01 X9.484 Y241.25
N8080G01 X9.609 Y241.295
N8090G01 X9.737 Y241.327
N8100G01 X9.868 Y241.347
N8110G01 X10.001 Y241.353
N8120 G00 Z9.999
N8130 G00 X29.189 Y29.189
N8140G01 Z-3 F500
N8150G01 X29.3 Y29.091 F1000
N8160G01 X29.423 Y29.008
N8170G01 X29.555 Y28.942
N8180G01 X29.696 Y28.893
N8190G01 X29.845 Y28.862
N8200G01 X30.003 Y28.852
N8210G01 X30.161 Y28.862
N8220G01 X30.309 Y28.893
N8230G01 X30.448 Y28.941
N8240G01 X30.579 Y29.007
N8250G01 X30.701 Y29.089
N8260G01 X30.811 Y29.187
N8270G01 X30.908 Y29.298
N8280G01 X30.99 Y29.42
N8290G01 X31.056 Y29.553
N8300G01 X31.105 Y29.694
N8310G01 X31.135 Y29.844
N8320G01 X31.146 Y30.003
N8330G01 X31.136 Y30.162
N8340G01 X31.105 Y30.311
N8350G01 X31.057 Y30.451
N8360G01 X30.991 Y30.582
N8370G01 X30.909 Y30.703
N8380G01 X30.813 Y30.813
N8390G01 X30.703 Y30.909
N8400G01 X30.582 Y30.991
N8410G01 X30.451 Y31.057
N8420G01 X30.311 Y31.105
N8430G01 X30.162 Y31.135
N8440G01 X30.003 Y31.146
N8450G01 X29.844 Y31.135
N8460G01 X29.694 Y31.105
N8470G01 X29.553 Y31.056
N8480G01 X29.42 Y30.99
N8490G01 X29.298 Y30.908
N8500G01 X29.187 Y30.811
N8510G01 X29.089 Y30.701
N8520G01 X29.007 Y30.579
N8530G01 X28.941 Y30.448
N8540G01 X28.893 Y30.309
N8550G01 X28.862 Y30.161
N8560G01 X28.852 Y30.003
N8570G01 X28.862 Y29.845
N8580G01 X28.893 Y29.696
N8590G01 X28.942 Y29.555
N8600G01 X29.008 Y29.423
N8610G01 X29.091 Y29.3
N8620G01 X29.189 Y29.189
N8630 G00 Z9.999
N8640 G00 X318.853 Y30.003
N8650G01 Z-3 F500
N8660G01 X318.863 Y29.844 F1000
N8670G01 X318.894 Y29.694
N8680G01 X318.942 Y29.553
N8690G01 X319.009 Y29.42
N8700G01 X319.091 Y29.298
N8710G01 X319.188 Y29.187
N8720G01 X319.298 Y29.089
N8730G01 X319.419 Y29.007
N8740G01 X319.55 Y28.941
N8750G01 X319.69 Y28.893
N8760G01 X319.838 Y28.862
N8770G01 X319.995 Y28.852
N8780G01 X320.154 Y28.862
N8790G01 X320.302 Y28.893
N8800G01 X320.443 Y28.942
N8810G01 X320.575 Y29.008
N8820G01 X320.698 Y29.091
N8830G01 X320.81 Y29.189
N8840G01 X320.908 Y29.3
N8850G01 X320.991 Y29.423
N8860G01 X321.057 Y29.556
N8870G01 X321.106 Y29.696
N8880G01 X321.136 Y29.845
N8890G01 X321.147 Y30.003
N8900G01 X321.136 Y30.161
N8910G01 X321.106 Y30.309
N8920G01 X321.058 Y30.448
N8930G01 X320.992 Y30.579
N8940G01 X320.909 Y30.701
N8950G01 X320.812 Y30.811
N8960G01 X320.701 Y30.908
N8970G01 X320.579 Y30.99
N8980G01 X320.446 Y31.056
N8990G01 X320.305 Y31.105
N9000G01 X320.155 Y31.135
N9010G01 X319.995 Y31.146
N9020G01 X319.836 Y31.135
N9030G01 X319.687 Y31.105
N9040G01 X319.547 Y31.057
N9050G01 X319.416 Y30.991
N9060G01 X319.295 Y30.91
N9070G01 X319.186 Y30.813
N9080G01 X319.089 Y30.703
N9090G01 X319.008 Y30.582
N9100G01 X318.942 Y30.451
N9110G01 X318.893 Y30.311
N9120G01 X318.863 Y30.162
N9130G01 X318.853 Y30.003
N9140 G00 Z9.999
N9150 G00 X319.995 Y218.858
N9160G01 Z-3 F500
N9170G01 X320.155 Y218.868 F1000
N9180G01 X320.304 Y218.899
N9190G01 X320.445 Y218.948
N9200G01 X320.578 Y219.014
N9210G01 X320.701 Y219.096
N9220G01 X320.811 Y219.194
N9230G01 X320.909 Y219.304
N9240G01 X320.992 Y219.426
N9250G01 X321.058 Y219.557
N9260G01 X321.106 Y219.696
N9270G01 X321.136 Y219.844
N9280G01 X321.147 Y220.001
N9290G01 X321.136 Y220.158
N9300G01 X321.106 Y220.305
N9310G01 X321.058 Y220.444
N9320G01 X320.992 Y220.575
N9330G01 X320.909 Y220.697
N9340G01 X320.812 Y220.807
N9350G01 X320.7 Y220.905
N9360G01 X320.578 Y220.987
N9370G01 X320.445 Y221.053
N9380G01 X320.304 Y221.102
N9390G01 X320.154 Y221.133
N9400G01 X319.995 Y221.143
N9410G01 X319.837 Y221.133
N9420G01 X319.688 Y221.102
N9430G01 X319.548 Y221.054
N9440G01 X319.417 Y220.988
N9450G01 X319.296 Y220.906
N9460G01 X319.186 Y220.81
N9470G01 X319.089 Y220.7
N9480G01 X319.008 Y220.578
N9490G01 X318.942 Y220.447
N9500G01 X318.893 Y220.307
N9510G01 X318.863 Y220.159
N9520G01 X318.853 Y220.001
N9530G01 X318.863 Y219.842
N9540G01 X318.893 Y219.694
N9550G01 X318.942 Y219.554
N9560G01 X319.008 Y219.423
N9570G01 X319.089 Y219.302
N9580G01 X319.186 Y219.191
N9590G01 X319.296 Y219.095
N9600G01 X319.417 Y219.013
N9610G01 X319.548 Y218.947
N9620G01 X319.688 Y218.899
N9630G01 X319.837 Y218.868
N9640G01 X319.995 Y218.858
N9650 G00 Z9.999
N9660 G00 X31.146 Y220.001
N9670G01 Z-3 F500
N9680G01 X31.136 Y220.159 F1000
N9690G01 X31.105 Y220.307
N9700G01 X31.057 Y220.447
N9710G01 X30.991 Y220.578
N9720G01 X30.909 Y220.7
N9730G01 X30.813 Y220.81
N9740G01 X30.703 Y220.906
N9750G01 X30.582 Y220.988
N9760G01 X30.45 Y221.054
N9770G01 X30.311 Y221.102
N9780G01 X30.162 Y221.133
N9790G01 X30.003 Y221.143
N9800G01 X29.844 Y221.133
N9810G01 X29.695 Y221.102
N9820G01 X29.553 Y221.053
N9830G01 X29.421 Y220.987
N9840G01 X29.298 Y220.905
N9850G01 X29.187 Y220.807
N9860G01 X29.09 Y220.697
N9870G01 X29.007 Y220.575
N9880G01 X28.941 Y220.444
N9890G01 X28.892 Y220.305
N9900G01 X28.862 Y220.157
N9910G01 X28.852 Y220.001
N9920G01 X28.862 Y219.844
N9930G01 X28.892 Y219.696
N9940G01 X28.941 Y219.557
N9950G01 X29.007 Y219.426
N9960G01 X29.089 Y219.304
N9970G01 X29.187 Y219.194
N9980G01 X29.298 Y219.096
N9990G01 X29.421 Y219.014
N10000G01 X29.553 Y218.948
N10010G01 X29.695 Y218.899
N10020G01 X29.844 Y218.868
N10030G01 X30.003 Y218.858
N10040G01 X30.162 Y218.868
N10050G01 X30.31 Y218.899
N10060G01 X30.45 Y218.947
N10070G01 X30.582 Y219.013
N10080G01 X30.703 Y219.095
N10090G01 X30.813 Y219.191
N10100G01 X30.909 Y219.301
N10110G01 X30.991 Y219.423
N10120G01 X31.057 Y219.554
N10130G01 X31.105 Y219.694
N10140G01 X31.136 Y219.842
N10150G01 X31.146 Y220.001
N10160 G00 Z9.999
N10170 G00 X10.001 Y241.353
N10180G01 Z-3 F500
N10190G01 X339.998 F1000
N10200G01 X340.13 Y241.347
N10210G01 X340.261 Y241.327
N10220G01 X340.39 Y241.295
N10230G01 X340.515 Y241.25
N10240G01 X340.634 Y241.194
N10250G01 X340.748 Y241.126
N10260G01 X340.854 Y241.047
N10270G01 X340.953 Y240.958
N10280G01 X341.041 Y240.859
N10290G01 X341.12 Y240.753
N10300G01 X341.189 Y240.639
N10310G01 X341.245 Y240.52
N10320G01 X341.29 Y240.395
N10330G01 X341.322 Y240.266
N10340G01 X341.341 Y240.135
N10350G01 X341.348 Y240.003
N10360G01 X341.348 Y204.999
N10370G01 X341.341 Y204.866
N10380G01 X341.322 Y204.735
N10390G01 X341.29 Y204.607
N10400G01 X341.245 Y204.482
N10410G01 X341.189 Y204.362
N10420G01 X341.12 Y204.249
N10430G01 X341.041 Y204.142
N10440G01 X340.953 Y204.044
N10450G01 X340.854 Y203.955
N10460G01 X340.748 Y203.876
N10470G01 X340.634 Y203.808
N10480G01 X340.515 Y203.751
N10490G01 X340.39 Y203.707
N10500G01 X340.261 Y203.675
N10510G01 X340.13 Y203.655
N10520G01 X339.998 Y203.649
N10530G01 X234.148
N10540G01 X227.18 Y203.277
N10550G01 X221.18 Y202.205
N10560G01 X216.087 Y200.492
N10570G01 X211.867 Y198.197
N10580G01 X208.474 Y195.373
N10590G01 X205.856 Y192.056
N10600G01 X203.972 Y188.269
N10610G01 X202.798 Y184.03
N10620G01 X202.322 Y179.369
N10630G01 X202.535 Y174.327
N10640G01 X203.424 Y168.952
N10650G01 X204.975 Y163.295
N10660G01 X207.168 Y157.407
N10670G01 X209.982 Y151.341
N10680G01 X213.395 Y145.146
N10690G01 X217.384 Y138.872
N10700G01 X221.925 Y132.568
N10710G01 X226.995 Y126.283
N10720G01 X232.569 Y120.063
N10730G01 X238.625 Y113.958
N10740G01 X245.138 Y108.014
N10750G01 X252.084 Y102.28
N10760G01 X259.439 Y96.801
N10770G01 X267.18 Y91.625
N10780G01 X275.281 Y86.8
N10790G01 X283.719 Y82.37
N10800G01 X292.471 Y78.384
N10810G01 X301.511 Y74.887
N10820G01 X310.818 Y71.926
N10830G01 X320.366 Y69.546
N10840G01 X330.133 Y67.795
N10850G01 X340.143 Y66.711
N10860G01 X340.261 Y66.693
N10870G01 X340.39 Y66.661
N10880G01 X340.515 Y66.616
N10890G01 X340.634 Y66.56
N10900G01 X340.748 Y66.492
N10910G01 X340.854 Y66.413
N10920G01 X340.953 Y66.324
N10930G01 X341.041 Y66.226
N10940G01 X341.12 Y66.119
N10950G01 X341.189 Y66.006
N10960G01 X341.245 Y65.886
N10970G01 X341.29 Y65.761
N10980G01 X341.322 Y65.633
N10990G01 X341.341 Y65.502
N11000G01 X341.348 Y65.369
N11010G01 Y10.001
N11020G01 X341.341 Y9.868
N11030G01 X341.322 Y9.737
N11040G01 X341.29 Y9.609
N11050G01 X341.245 Y9.484
N11060G01 X341.189 Y9.364
N11070G01 X341.12 Y9.251
N11080G01 X341.041 Y9.144
N11090G01 X340.953 Y9.046
N11100G01 X340.854 Y8.957
N11110G01 X340.748 Y8.878
N11120G01 X340.634 Y8.81
N11130G01 X340.515 Y8.754
N11140G01 X340.39 Y8.709
N11150G01 X340.261 Y8.677
N11160G01 X340.13 Y8.657
N11170G01 X339.998 Y8.651
N11180G01 X9.868 Y8.657
N11190G01 X9.737 Y8.677
N11200G01 X9.609 Y8.709
N11210G01 X9.484 Y8.754
N11220G01 X9.364 Y8.81
N11230G01 X9.251 Y8.878
N11240G01 X9.144 Y8.957
N11250G01 X9.046 Y9.046
N11260G01 X8.957 Y9.144
N11270G01 X8.878 Y9.251
N11280G01 X8.81 Y9.364
N11290G01 X8.754 Y9.484
N11300G01 X8.709 Y9.609
N11310G01 X8.677 Y9.737
N11320G01 X8.657 Y9.868
N11330G01 X8.651 Y10.001
N11340G01 X8.651 Y44.996
N11350G01 X8.657 Y45.129
N11360G01 X8.677 Y45.26
N11370G01 X8.709 Y45.388
N11380G01 X8.754 Y45.513
N11390G01 X8.81 Y45.633
N11400G01 X8.878 Y45.746
N11410G01 X8.957 Y45.853
N11420G01 X9.046 Y45.951
N11430G01 X9.144 Y46.04
N11440G01 X9.251 Y46.119
N11450G01 X9.364 Y46.187
N11460G01 X9.484 Y46.244
N11470G01 X9.609 Y46.288
N11480G01 X9.737 Y46.32
N11490G01 X9.868 Y46.34
N11500G01 X10.001 Y46.346
N11510G01 X115.851
N11520G01 X122.819 Y46.718
N11530G01 X128.819 Y47.79
N11540G01 X133.911 Y49.503
N11550G01 X138.131 Y51.798
N11560G01 X141.525 Y54.622
N11570G01 X144.142 Y57.939
N11580G01 X146.026 Y61.726
N11590G01 X147.2 Y65.965
N11600G01 X147.676 Y70.626
N11610G01 X147.464 Y75.668
N11620G01 X146.574 Y81.043
N11630G01 X145.024 Y86.7
N11640G01 X142.831 Y92.588
N11650G01 X140.017 Y98.654
N11660G01 X136.604 Y104.849
N11670G01 X132.615 Y111.123
N11680G01 X128.074 Y117.427
N11690G01 X123.004 Y123.712
N11700G01 X117.429 Y129.932
N11710G01 X111.373 Y136.037
N11720G01 X104.86 Y141.981
N11730G01 X97.915 Y147.715
N11740G01 X90.559 Y153.194
N11750G01 X82.819 Y158.37
N11760G01 X74.718 Y163.195
N11770G01 X66.28 Y167.625
N11780G01 X57.528 Y171.611
N11790G01 X48.487 Y175.108
N11800G01 X39.181 Y178.069
N11810G01 X29.633 Y180.449
N11820G01 X19.866 Y182.2
N11830G01 X9.856 Y183.284
N11840G01 X9.737 Y183.302
N11850G01 X9.609 Y183.334
N11860G01 X9.484 Y183.379
N11870G01 X9.364 Y183.435
N11880G01 X9.251 Y183.503
N11890G01 X9.144 Y183.582
N11900G01 X9.046 Y183.671
N11910G01 X8.957 Y183.769
N11920G01 X8.878 Y183.876
N11930G01 X8.81 Y183.989
N11940G01 X8.754 Y184.109
N11950G01 X8.709 Y184.234
N11960G01 X8.677 Y184.362
N11970G01 X8.657 Y184.493
N11980G01 X8.651 Y184.626
N11990G01 X8.651 Y240.003
N12000G01 X8.657 Y240.135
N12010G01 X8.677 Y240.266
N12020G01 X8.709 Y240.395
N12030G01 X8.754 Y240.52
N12040G01 X8.81 Y240.639
N12050G01 X8.878 Y240.753
N12060G01 X8.957 Y240.859
N12070G01 X9.046 Y240.958
N12080G01 X9.144 Y241.047
N12090G01 X9.251 Y241.126
N12100G01 X9.364 Y241.194
N12110G01 X9.484 Y241.25
N12120G01 X9.609 Y241.295
N12130G01 X9.737 Y241.327
N12140G01 X9.868 Y241.347
N12150G01 X10.001 Y241.353
N12160 G00 Z9.999
N12170 G00 X29.189 Y29.189
N12180G01 Z-4 F500
N12190G01 X29.3 Y29.091 F1000
N12200G01 X29.423 Y29.008
N12210G01 X29.555 Y28.942
N12220G01 X29.696 Y28.893
N12230G01 X29.845 Y28.862
N12240G01 X30.003 Y28.852
N12250G01 X30.161 Y28.862
N12260G01 X30.309 Y28.893
N12270G01 X30.448 Y28.941
N12280G01 X30.579 Y29.007
N12290G01 X30.701 Y29.089
N12300G01 X30.811 Y29.187
N12310G01 X30.908 Y29.298
N12320G01 X30.99 Y29.42
N12330G01 X31.056 Y29.553
N12340G01 X31.105 Y29.694
N12350G01 X31.135 Y29.844
N12360G01 X31.146 Y30.003
N12370G01 X31.136 Y30.162
N12380G01 X31.105 Y30.311
N12390G01 X31.057 Y30.451
N12400G01 X30.991 Y30.582
N12410G01 X30.909 Y30.703
N12420G01 X30.813 Y30.813
N12430G01 X30.703 Y30.909
N12440G01 X30.582 Y30.991
N12450G01 X30.451 Y31.057
N12460G01 X30.311 Y31.105
N12470G01 X30.162 Y31.135
N12480G01 X30.003 Y31.146
N12490G01 X29.844 Y31.135
N12500G01 X29.694 Y31.105
N12510G01 X29.553 Y31.056
N12520G01 X29.42 Y30.99
N12530G01 X29.298 Y30.908
N12540G01 X29.187 Y30.811
N12550G01 X29.089 Y30.701
N12560G01 X29.007 Y30.579
N12570G01 X28.941 Y30.448
N12580G01 X28.893 Y30.309
N12590G01 X28.862 Y30.161
N12600G01 X28.852 Y30.003
N12610G01 X28.862 Y29.845
N12620G01 X28.893 Y29.696
N12630G01 X28.942 Y29.555
N12640G01 X29.008 Y29.423
N12650G01 X29.091 Y29.3
N12660G01 X29.189 Y29.189
N12670 G00 Z9.999
N12680 G00 X318.853 Y30.003
N12690G01 Z-4 F500
N12700G01 X318.863 Y29.844 F1000
N12710G01 X318.894 Y29.694
N12720G01 X318.942 Y29.553
N12730G01 X319.009 Y29.42
N12740G01 X319.091 Y29.298
N12750G01 X319.188 Y29.187
N12760G01 X319.298 Y29.089
N12770G01 X319.419 Y29.007
N12780G01 X319.55 Y28.941
N12790G01 X319.69 Y28.893
N12800G01 X319.838 Y28.862
N12810G01 X319.995 Y28.852
N12820G01 X320.154 Y28.862
N12830G01 X320.302 Y28.893
N12840G01 X320.443 Y28.942
N12850G01 X320.575 Y29.008
N12860G01 X320.698 Y29.091
N12870G01 X320.81 Y29.189
N12880G01 X320.908 Y29.3
N12890G01 X320.991 Y29.423
N12900G01 X321.057 Y29.556
N12910G01 X321.106 Y29.696
N12920G01 X321.136 Y29.845
N12930G01 X321.147 Y30.003
N12940G01 X321.136 Y30.161
N12950G01 X321.106 Y30.309
N12960G01 X321.058 Y30.448
N12970G01 X320.992 Y30.579
N12980G01 X320.909 Y30.701
N12990G01 X320.812 Y30.811
N13000G01 X320.701 Y30.908
N13010G01 X320.579 Y30.99
N13020G01 X320.446 Y31.056
N13030G01 X320.305 Y31.105
N13040G01 X320.155 Y31.135
N13050G01 X319.995 Y31.146
N13060G01 X319.836 Y31.135
N13070G01 X319.687 Y31.105
N13080G01 X319.547 Y31.057
N13090G01 X319.416 Y30.991
N13100G01 X319.295 Y30.91
N13110G01 X319.186 Y30.813
N13120G01 X319.089 Y30.703
N13130G01 X319.008 Y30.582
N13140G01 X318.942 Y30.451
N13150G01 X318.893 Y30.311
N13160G01 X318.863 Y30.162
N13170G01 X318.853 Y30.003
N13180 G00 Z9.999
N13190 G00 X319.995 Y218.858
N13200G01 Z-4 F500
N13210G01 X320.155 Y218.868 F1000
N13220G01 X320.304 Y218.899
N13230G01 X320.445 Y218.948
N13240G01 X320.578 Y219.014
N13250G01 X320.701 Y219.096
N13260G01 X320.811 Y219.194
N13270G01 X320.909 Y219.304
N13280G01 X320.992 Y219.426
N13290G01 X321.058 Y219.557
N13300G01 X321.106 Y219.696
N13310G01 X321.136 Y219.844
N13320G01 X321.147 Y220.001
N13330G01 X321.136 Y220.158
N13340G01 X321.106 Y220.305
N13350G01 X321.058 Y220.444
N13360G01 X320.992 Y220.575
N13370G01 X320.909 Y220.697
N13380G01 X320.812 Y220.807
N13390G01 X320.7 Y220.905
N13400G01 X320.578 Y220.987
N13410G01 X320.445 Y221.053
N13420G01 X320.304 Y221.102
N13430G01 X320.154 Y221.133
N13440G01 X319.995 Y221.143
N13450G01 X319.837 Y221.133
N13460G01 X319.688 Y221.102
N13470G01 X319.548 Y221.054
N13480G01 X319.417 Y220.988
N13490G01 X319.296 Y220.906
N13500G01 X319.186 Y220.81
N13510G01 X319.089 Y220.7
N13520G01 X319.008 Y220.578
N13530G01 X318.942 Y220.447
N13540G01 X318.893 Y220.307
N13550G01 X318.863 Y220.159
N13560G01 X318.853 Y220.001
N13570G01 X318.863 Y219.842
N13580G01 X318.893 Y219.694
N13590G01 X318.942 Y219.554
N13600G01 X319.008 Y219.423
N13610G01 X319.089 Y219.302
N13620G01 X319.186 Y219.191
N13630G01 X319.296 Y219.095
N13640G01 X319.417 Y219.013
N13650G01 X319.548 Y218.947
N13660G01 X319.688 Y218.899
N13670G01 X319.837 Y218.868
N13680G01 X319.995 Y218.858
N13690 G00 Z9.999
N13700 G00 X31.146 Y220.001
N13710G01 Z-4 F500
N13720G01 X31.136 Y220.159 F1000
N13730G01 X31.105 Y220.307
N13740G01 X31.057 Y220.447
N13750G01 X30.991 Y220.578
N13760G01 X30.909 Y220.7
N13770G01 X30.813 Y220.81
N13780G01 X30.703 Y220.906
N13790G01 X30.582 Y220.988
N13800G01 X30.45 Y221.054
N13810G01 X30.311 Y221.102
N13820G01 X30.162 Y221.133
N13830G01 X30.003 Y221.143
N13840G01 X29.844 Y221.133
N13850G01 X29.695 Y221.102
N13860G01 X29.553 Y221.053
N13870G01 X29.421 Y220.987
N13880G01 X29.298 Y220.905
N13890G01 X29.187 Y220.807
N13900G01 X29.09 Y220.697
N13910G01 X29.007 Y220.575
N13920G01 X28.941 Y220.444
N13930G01 X28.892 Y220.305
N13940G01 X28.862 Y220.157
N13950G01 X28.852 Y220.001
N13960G01 X28.862 Y219.844
N13970G01 X28.892 Y219.696
N13980G01 X28.941 Y219.557
N13990G01 X29.007 Y219.426
N14000G01 X29.089 Y219.304
N14010G01 X29.187 Y219.194
N14020G01 X29.298 Y219.096
N14030G01 X29.421 Y219.014
N14040G01 X29.553 Y218.948
N14050G01 X29.695 Y218.899
N14060G01 X29.844 Y218.868
N14070G01 X30.003 Y218.858
N14080G01 X30.162 Y218.868
N14090G01 X30.31 Y218.899
N14100G01 X30.45 Y218.947
N14110G01 X30.582 Y219.013
N14120G01 X30.703 Y219.095
N14130G01 X30.813 Y219.191
N14140G01 X30.909 Y219.301
N14150G01 X30.991 Y219.423
N14160G01 X31.057 Y219.554
N14170G01 X31.105 Y219.694
N14180G01 X31.136 Y219.842
N14190G01 X31.146 Y220.001
N14200 G00 Z9.999
N14210 G00 X10.001 Y241.353
N14220G01 Z-4 F500
N14230G01 X339.998 F1000
N14240G01 X340.13 Y241.347
N14250G01 X340.261 Y241.327
N14260G01 X340.39 Y241.295
N14270G01 X340.515 Y241.25
N14280G01 X340.634 Y241.194
N14290G01 X340.748 Y241.126
N14300G01 X340.854 Y241.047
N14310G01 X340.953 Y240.958
N14320G01 X341.041 Y240.859
N14330G01 X341.12 Y240.753
N14340G01 X341.189 Y240.639
N14350G01 X341.245 Y240.52
N14360G01 X341.29 Y240.395
N14370G01 X341.322 Y240.266
N14380G01 X341.341 Y240.135
N14390G01 X341.348 Y240.003
N14400G01 X341.348 Y204.999
N14410G01 X341.341 Y204.866
N14420G01 X341.322 Y204.735
N14430G01 X341.29 Y204.607
N14440G01 X341.245 Y204.482
N14450G01 X341.189 Y204.362
N14460G01 X341.12 Y204.249
N14470G01 X341.041 Y204.142
N14480G01 X340.953 Y204.044
N14490G01 X340.854 Y203.955
N14500G01 X340.748 Y203.876
N14510G01 X340.634 Y203.808
N14520G01 X340.515 Y203.751
N14530G01 X340.39 Y203.707
N14540G01 X340.261 Y203.675
N14550G01 X340.13 Y203.655
N14560G01 X339.998 Y203.649
N14570G01 X234.148
N14580G01 X227.18 Y203.277
N14590G01 X221.18 Y202.205
N14600G01 X216.087 Y200.492
N14610G01 X211.867 Y198.197
N14620G01 X208.474 Y195.373
N14630G01 X205.856 Y192.056
N14640G01 X203.972 Y188.269
N14650G01 X202.798 Y184.03
N14660G01 X202.322 Y179.369
N14670G01 X202.535 Y174.327
N14680G01 X203.424 Y168.952
N14690G01 X204.975 Y163.295
N14700G01 X207.168 Y157.407
N14710G01 X209.982 Y151.341
N14720G01 X213.395 Y145.146
N14730G01 X217.384 Y138.872
N14740G01 X221.925 Y132.568
N14750G01 X226.995 Y126.283
N14760G01 X232.569 Y120.063
N14770G01 X238.625 Y113.958
N14780G01 X245.138 Y108.014
N14790G01 X252.084 Y102.28
N14800G01 X259.439 Y96.801
N14810G01 X267.18 Y91.625
N14820G01 X275.281 Y86.8
N14830G01 X283.719 Y82.37
N14840G01 X292.471 Y78.384
N14850G01 X301.511 Y74.887
N14860G01 X310.818 Y71.926
N14870G01 X320.366 Y69.546
N14880G01 X330.133 Y67.795
N14890G01 X340.143 Y66.711
N14900G01 X340.261 Y66.693
N14910G01 X340.39 Y66.661
N14920G01 X340.515 Y66.616
N14930G01 X340.634 Y66.56
N14940G01 X340.748 Y66.492
N14950G01 X340.854 Y66.413
N14960G01 X340.953 Y66.324
N14970G01 X341.041 Y66.226
N14980G01 X341.12 Y66.119
N14990G01 X341.189 Y66.006
N15000G01 X341.245 Y65.886
N15010G01 X341.29 Y65.761
N15020G01 X341.322 Y65.633
N15030G01 X341.341 Y65.502
N15040G01 X341.348 Y65.369
N15050G01 Y10.001
N15060G01 X341.341 Y9.868
N15070G01 X341.322 Y9.737
N15080G01 X341.29 Y9.609
N15090G01 X341.245 Y9.484
N15100G01 X341.189 Y9.364
N15110G01 X341.12 Y9.251
N15120G01 X341.041 Y9.144
N15130G01 X340.953 Y9.046
N15140G01 X340.854 Y8.957
N15150G01 X340.748 Y8.878
N15160G01 X340.634 Y8.81
N15170G01 X340.515 Y8.754
N15180G01 X340.39 Y8.709
N15190G01 X340.261 Y8.677
N15200G01 X340.13 Y8.657
N15210G01 X339.998 Y8.651
N15220G01 X9.868 Y8.657
N15230G01 X9.737 Y8.677
N15240G01 X9.609 Y8.709
N15250G01 X9.484 Y8.754
N15260G01 X9.364 Y8.81
N15270G01 X9.251 Y8.878
N15280G01 X9.144 Y8.957
N15290G01 X9.046 Y9.046
N15300G01 X8.957 Y9.144
N15310G01 X8.878 Y9.251
N15320G01 X8.81 Y9.364
N15330G01 X8.754 Y9.484
N15340G01 X8.709 Y9.609
N15350G01 X8.677 Y9.737
N15360G01 X8.657 Y9.868
N15370G01 X8.651 Y10.001
N15380G01 X8.651 Y44.996
N15390G01 X8.657 Y45.129
N15400G01 X8.677 Y45.26
N15410G01 X8.709 Y45.388
N15420G01 X8.754 Y45.513
N15430G01 X8.81 Y45.633
N15440G01 X8.878 Y45.746
N15450G01 X8.957 Y45.853
N15460G01 X9.046 Y45.951
N15470G01 X9.144 Y46.04
N15480G01 X9.251 Y46.119
N15490G01 X9.364 Y46.187
N15500G01 X9.484 Y46.244
N15510G01 X9.609 Y46.288
N15520G01 X9.737 Y46.32
N15530G01 X9.868 Y46.34
N15540G01 X10.001 Y46.346
N15550G01 X115.851
N15560G01 X122.819 Y46.718
N15570G01 X128.819 Y47.79
N15580G01 X133.911 Y49.503
N15590G01 X138.131 Y51.798
N15600G01 X141.525 Y54.622
N15610G01 X144.142 Y57.939
N15620G01 X146.026 Y61.726
N15630G01 X147.2 Y65.965
N15640G01 X147.676 Y70.626
N15650G01 X147.464 Y75.668
N15660G01 X146.574 Y81.043
N15670G01 X145.024 Y86.7
N15680G01 X142.831 Y92.588
N15690G01 X140.017 Y98.654
N15700G01 X136.604 Y104.849
N15710G01 X132.615 Y111.123
N15720G01 X128.074 Y117.427
N15730G01 X123.004 Y123.712
N15740G01 X117.429 Y129.932
N15750G01 X111.373 Y136.037
N15760G01 X104.86 Y141.981
N15770G01 X97.915 Y147.715
N15780G01 X90.559 Y153.194
N15790G01 X82.819 Y158.37
N15800G01 X74.718 Y163.195
N15810G01 X66.28 Y167.625
N15820G01 X57.528 Y171.611
N15830G01 X48.487 Y175.108
N15840G01 X39.181 Y178.069
N15850G01 X29.633 Y180.449
N15860G01 X19.866 Y182.2
N15870G01 X9.856 Y183.284
N15880G01 X9.737 Y183.302
N15890G01 X9.609 Y183.334
N15900G01 X9.484 Y183.379
N15910G01 X9.364 Y183.435
N15920G01 X9.251 Y183.503
N15930G01 X9.144 Y183.582
N15940G01 X9.046 Y183.671
N15950G01 X8.957 Y183.769
N15960G01 X8.878 Y183.876
N15970G01 X8.81 Y183.989
N15980G01 X8.754 Y184.109
N15990G01 X8.709 Y184.234
N16000G01 X8.677 Y184.362
N16010G01 X8.657 Y184.493
N16020G01 X8.651 Y184.626
N16030G01 X8.651 Y240.003
N16040G01 X8.657 Y240.135
N16050G01 X8.677 Y240.266
N16060G01 X8.709 Y240.395
N16070G01 X8.754 Y240.52
N16080G01 X8.81 Y240.639
N16090G01 X8.878 Y240.753
N16100G01 X8.957 Y240.859
N16110G01 X9.046 Y240.958
N16120G01 X9.144 Y241.047
N16130G01 X9.251 Y241.126
N16140G01 X9.364 Y241.194
N16150G01 X9.484 Y241.25
N16160G01 X9.609 Y241.295
N16170G01 X9.737 Y241.327
N16180G01 X9.868 Y241.347
N16190G01 X10.001 Y241.353
N16200 G00 Z9.999
N16210 G00 X29.189 Y29.189
N16220G01 Z-5 F500
N16230G01 X29.3 Y29.091 F1000
N16240G01 X29.423 Y29.008
N16250G01 X29.555 Y28.942
N16260G01 X29.696 Y28.893
N16270G01 X29.845 Y28.862
N16280G01 X30.003 Y28.852
N16290G01 X30.161 Y28.862
N16300G01 X30.309 Y28.893
N16310G01 X30.448 Y28.941
N16320G01 X30.579 Y29.007
N16330G01 X30.701 Y29.089
N16340G01 X30.811 Y29.187
N16350G01 X30.908 Y29.298
N16360G01 X30.99 Y29.42
N16370G01 X31.056 Y29.553
N16380G01 X31.105 Y29.694
N16390G01 X31.135 Y29.844
N16400G01 X31.146 Y30.003
N16410G01 X31.136 Y30.162
N16420G01 X31.105 Y30.311
N16430G01 X31.057 Y30.451
N16440G01 X30.991 Y30.582
N16450G01 X30.909 Y30.703
N16460G01 X30.813 Y30.813
N16470G01 X30.703 Y30.909
N16480G01 X30.582 Y30.991
N16490G01 X30.451 Y31.057
N16500G01 X30.311 Y31.105
N16510G01 X30.162 Y31.135
N16520G01 X30.003 Y31.146
N16530G01 X29.844 Y31.135
N16540G01 X29.694 Y31.105
N16550G01 X29.553 Y31.056
N16560G01 X29.42 Y30.99
N16570G01 X29.298 Y30.908
N16580G01 X29.187 Y30.811
N16590G01 X29.089 Y30.701
N16600G01 X29.007 Y30.579
N16610G01 X28.941 Y30.448
N16620G01 X28.893 Y30.309
N16630G01 X28.862 Y30.161
N16640G01 X28.852 Y30.003
N16650G01 X28.862 Y29.845
N16660G01 X28.893 Y29.696
N16670G01 X28.942 Y29.555
N16680G01 X29.008 Y29.423
N16690G01 X29.091 Y29.3
N16700G01 X29.189 Y29.189
N16710 G00 Z9.999
N16720 G00 X318.853 Y30.003
N16730G01 Z-5 F500
N16740G01 X318.863 Y29.844 F1000
N16750G01 X318.894 Y29.694
N16760G01 X318.942 Y29.553
N16770G01 X319.009 Y29.42
N16780G01 X319.091 Y29.298
N16790G01 X319.188 Y29.187
N16800G01 X319.298 Y29.089
N16810G01 X319.419 Y29.007
N16820G01 X319.55 Y28.941
N16830G01 X319.69 Y28.893
N16840G01 X319.838 Y28.862
N16850G01 X319.995 Y28.852
N16860G01 X320.154 Y28.862
N16870G01 X320.302 Y28.893
N16880G01 X320.443 Y28.942
N16890G01 X320.575 Y29.008
N16900G01 X320.698 Y29.091
N16910G01 X320.81 Y29.189
N16920G01 X320.908 Y29.3
N16930G01 X320.991 Y29.423
N16940G01 X321.057 Y29.556
N16950G01 X321.106 Y29.696
N16960G01 X321.136 Y29.845
N16970G01 X321.147 Y30.003
N16980G01 X321.136 Y30.161
N16990G01 X321.106 Y30.309
N17000G01 X321.058 Y30.448
N17010G01 X320.992 Y30.579
N17020G01 X320.909 Y30.701
N17030G01 X320.812 Y30.811
N17040G01 X320.701 Y30.908
N17050G01 X320.579 Y30.99
N17060G01 X320.446 Y31.056
N17070G01 X320.305 Y31.105
N17080G01 X320.155 Y31.135
N17090G01 X319.995 Y31.146
N17100G01 X319.836 Y31.135
N17110G01 X319.687 Y31.105
N17120G01 X319.547 Y31.057
N17130G01 X319.416 Y30.991
N17140G01 X319.295 Y30.91
N17150G01 X319.186 Y30.813
N17160G01 X319.089 Y30.703
N17170G01 X319.008 Y30.582
N17180G01 X318.942 Y30.451
N17190G01 X318.893 Y30.311
N17200G01 X318.863 Y30.162
N17210G01 X318.853 Y30.003
N17220 G00 Z9.999
N17230 G00 X319.995 Y218.858
N17240G01 Z-5 F500
N17250G01 X320.155 Y218.868 F1000
N17260G01 X320.304 Y218.899
N17270G01 X320.445 Y218.948
N17280G01 X320.578 Y219.014
N17290G01 X320.701 Y219.096
N17300G01 X320.811 Y219.194
N17310G01 X320.909 Y219.304
N17320G01 X320.992 Y219.426
N17330G01 X321.058 Y219.557
N17340G01 X321.106 Y219.696
N17350G01 X321.136 Y219.844
N17360G01 X321.147 Y220.001
N17370G01 X321.136 Y220.158
N17380G01 X321.106 Y220.305
N17390G01 X321.058 Y220.444
N17400G01 X320.992 Y220.575
N17410G01 X320.909 Y220.697
N17420G01 X320.812 Y220.807
N17430G01 X320.7 Y220.905
N17440G01 X320.578 Y220.987
N17450G01 X320.445 Y221.053
N17460G01 X320.304 Y221.102
N17470G01 X320.154 Y221.133
N17480G01 X319.995 Y221.143
N17490G01 X319.837 Y221.133
N17500G01 X319.688 Y221.102
N17510G01 X319.548 Y221.054
N17520G01 X319.417 Y220.988
N17530G01 X319.296 Y220.906
N17540G01 X319.186 Y220.81
N17550G01 X319.089 Y220.7
N17560G01 X319.008 Y220.578
N17570G01 X318.942 Y220.447
N17580G01 X318.893 Y220.307
N17590G01 X318.863 Y220.159
N17600G01 X318.853 Y220.001
N17610G01 X318.863 Y219.842
N17620G01 X318.893 Y219.694
N17630G01 X318.942 Y219.554
N17640G01 X319.008 Y219.423
N17650G01 X319.089 Y219.302
N17660G01 X319.186 Y219.191
N17670G01 X319.296 Y219.095
N17680G01 X319.417 Y219.013
N17690G01 X319.548 Y218.947
N17700G01 X319.688 Y218.899
N17710G01 X319.837 Y218.868
N17720G01 X319.995 Y218.858
N17730 G00 Z9.999
N17740 G00 X31.146 Y220.001
N17750G01 Z-5 F500
N17760G01 X31.136 Y220.159 F1000
N17770G01 X31.105 Y220.307
N17780G01 X31.057 Y220.447
N17790G01 X30.991 Y220.578
N17800G01 X30.909 Y220.7
N17810G01 X30.813 Y220.81
N17820G01 X30.703 Y220.906
N17830G01 X30.582 Y220.988
N17840G01 X30.45 Y221.054
N17850G01 X30.311 Y221.102
N17860G01 X30.162 Y221.133
N17870G01 X30.003 Y221.143
N17880G01 X29.844 Y221.133
N17890G01 X29.695 Y221.102
N17900G01 X29.553 Y221.053
N17910G01 X29.421 Y220.987
N17920G01 X29.298 Y220.905
N17930G01 X29.187 Y220.807
N17940G01 X29.09 Y220.697
N17950G01 X29.007 Y220.575
N17960G01 X28.941 Y220.444
N17970G01 X28.892 Y220.305
N17980G01 X28.862 Y220.157
N17990G01 X28.852 Y220.001
N18000G01 X28.862 Y219.844
N18010G01 X28.892 Y219.696
N18020G01 X28.941 Y219.557
N18030G01 X29.007 Y219.426
N18040G01 X29.089 Y219.304
N18050G01 X29.187 Y219.194
N18060G01 X29.298 Y219.096
N18070G01 X29.421 Y219.014
N18080G01 X29.553 Y218.948
N18090G01 X29.695 Y218.899
N18100G01 X29.844 Y218.868
N18110G01 X30.003 Y218.858
N18120G01 X30.162 Y218.868
N18130G01 X30.31 Y218.899
N18140G01 X30.45 Y218.947
N18150G01 X30.582 Y219.013
N18160G01 X30.703 Y219.095
N18170G01 X30.813 Y219.191
N18180G01 X30.909 Y219.301
N18190G01 X30.991 Y219.423
N18200G01 X31.057 Y219.554
N18210G01 X31.105 Y219.694
N18220G01 X31.136 Y219.842
N18230G01 X31.146 Y220.001
N18240 G00 Z9.999
N18250 G00 X10.001 Y241.353
N18260G01 Z-5 F500
N18270G01 X339.998 F1000
N18280G01 X340.13 Y241.347
N18290G01 X340.261 Y241.327
N18300G01 X340.39 Y241.295
N18310G01 X340.515 Y241.25
N18320G01 X340.634 Y241.194
N18330G01 X340.748 Y241.126
N18340G01 X340.854 Y241.047
N18350G01 X340.953 Y240.958
N18360G01 X341.041 Y240.859
N18370G01 X341.12 Y240.753
N18380G01 X341.189 Y240.639
N18390G01 X341.245 Y240.52
N18400G01 X341.29 Y240.395
N18410G01 X341.322 Y240.266
N18420G01 X341.341 Y240.135
N18430G01 X341.348 Y240.003
N18440G01 X341.348 Y204.999
N18450G01 X341.341 Y204.866
N18460G01 X341.322 Y204.735
N18470G01 X341.29 Y204.607
N18480G01 X341.245 Y204.482
N18490G01 X341.189 Y204.362
N18500G01 X341.12 Y204.249
N18510G01 X341.041 Y204.142
N18520G01 X340.953 Y204.044
N18530G01 X340.854 Y203.955
N18540G01 X340.748 Y203.876
N18550G01 X340.634 Y203.808
N18560G01 X340.515 Y203.751
N18570G01 X340.39 Y203.707
N18580G01 X340.261 Y203.675
N18590G01 X340.13 Y203.655
N18600G01 X339.998 Y203.649
N18610G01 X234.148
N18620G01 X227.18 Y203.277
N18630G01 X221.18 Y202.205
N18640G01 X216.087 Y200.492
N18650G01 X211.867 Y198.197
N18660G01 X208.474 Y195.373
N18670G01 X205.856 Y192.056
N18680G01 X203.972 Y188.269
N18690G01 X202.798 Y184.03
N18700G01 X202.322 Y179.369
N18710G01 X202.535 Y174.327
N18720G01 X203.424 Y168.952
N18730G01 X204.975 Y163.295
N18740G01 X207.168 Y157.407
N18750G01 X209.982 Y151.341
N18760G01 X213.395 Y145.146
N18770G01 X217.384 Y138.872
N18780G01 X221.925 Y132.568
N18790G01 X226.995 Y126.283
N18800G01 X232.569 Y120.063
N18810G01 X238.625 Y113.958
N18820G01 X245.138 Y108.014
N18830G01 X252.084 Y102.28
N18840G01 X259.439 Y96.801
N18850G01 X267.18 Y91.625
N18860G01 X275.281 Y86.8
N18870G01 X283.719 Y82.37
N18880G01 X292.471 Y78.384
N18890G01 X301.511 Y74.887
N18900G01 X310.818 Y71.926
N18910G01 X320.366 Y69.546
N18920G01 X330.133 Y67.795
N18930G01 X340.143 Y66.711
N18940G01 X340.261 Y66.693
N18950G01 X340.39 Y66.661
N18960G01 X340.515 Y66.616
N18970G01 X340.634 Y66.56
N18980G01 X340.748 Y66.492
N18990G01 X340.854 Y66.413
N19000G01 X340.953 Y66.324
N19010G01 X341.041 Y66.226
N19020G01 X341.12 Y66.119
N19030G01 X341.189 Y66.006
N19040G01 X341.245 Y65.886
N19050G01 X341.29 Y65.761
N19060G01 X341.322 Y65.633
N19070G01 X341.341 Y65.502
N19080G01 X341.348 Y65.369
N19090G01 Y10.001
N19100G01 X341.341 Y9.868
N19110G01 X341.322 Y9.737
N19120G01 X341.29 Y9.609
N19130G01 X341.245 Y9.484
N19140G01 X341.189 Y9.364
N19150G01 X341.12 Y9.251
N19160G01 X341.041 Y9.144
N19170G01 X340.953 Y9.046
N19180G01 X340.854 Y8.957
N19190G01 X340.748 Y8.878
N19200G01 X340.634 Y8.81
N19210G01 X340.515 Y8.754
N19220G01 X340.39 Y8.709
N19230G01 X340.261 Y8.677
N19240G01 X340.13 Y8.657
N19250G01 X339.998 Y8.651
N19260G01 X9.868 Y8.657
N19270G01 X9.737 Y8.677
N19280G01 X9.609 Y8.709
N19290G01 X9.484 Y8.754
N19300G01 X9.364 Y8.81
N19310G01 X9.251 Y8.878
N19320G01 X9.144 Y8.957
N19330G01 X9.046 Y9.046
N19340G01 X8.957 Y9.144
N19350G01 X8.878 Y9.251
N19360G01 X8.81 Y9.364
N19370G01 X8.754 Y9.484
N19380G01 X8.709 Y9.609
N19390G01 X8.677 Y9.737
N19400G01 X8.657 Y9.868
N19410G01 X8.651 Y10.001
N19420G01 X8.651 Y44.996
N19430G01 X8.657 Y45.129
N19440G01 X8.677 Y45.26
N19450G01 X8.709 Y45.388
N19460G01 X8.754 Y45.513
N19470G01 X8.81 Y45.633
N19480G01 X8.878 Y45.746
N19490G01 X8.957 Y45.853
N19500G01 X9.046 Y45.951
N19510G01 X9.144 Y46.04
N19520G01 X9.251 Y46.119
N19530G01 X9.364 Y46.187
N19540G01 X9.484 Y46.244
N19550G01 X9.609 Y46.288
N19560G01 X9.737 Y46.32
N19570G01 X9.868 Y46.34
N19580G01 X10.001 Y46.346
N19590G01 X115.851
N19600G01 X122.819 Y46.718
N19610G01 X128.819 Y47.79
N19620G01 X133.911 Y49.503
N19630G01 X138.131 Y51.798
N19640G01 X141.525 Y54.622
N19650G01 X144.142 Y57.939
N19660G01 X146.026 Y61.726
N19670G01 X147.2 Y65.965
N19680G01 X147.676 Y70.626
N19690G01 X147.464 Y75.668
N19700G01 X146.574 Y81.043
N19710G01 X145.024 Y86.7
N19720G01 X142.831 Y92.588
N19730G01 X140.017 Y98.654
N19740G01 X136.604 Y104.849
N19750G01 X132.615 Y111.123
N19760G01 X128.074 Y117.427
N19770G01 X123.004 Y123.712
N19780G01 X117.429 Y129.932
N19790G01 X111.373 Y136.037
N19800G01 X104.86 Y141.981
N19810G01 X97.915 Y147.715
N19820G01 X90.559 Y153.194
N19830G01 X82.819 Y158.37
N19840G01 X74.718 Y163.195
N19850G01 X66.28 Y167.625
N19860G01 X57.528 Y171.611
N19870G01 X48.487 Y175.108
N19880G01 X39.181 Y178.069
N19890G01 X29.633 Y180.449
N19900G01 X19.866 Y182.2
N19910G01 X9.856 Y183.284
N19920G01 X9.737 Y183.302
N19930G01 X9.609 Y183.334
N19940G01 X9.484 Y183.379
N19950G01 X9.364 Y183.435
N19960G01 X9.251 Y183.503
N19970G01 X9.144 Y183.582
N19980G01 X9.046 Y183.671
N19990G01 X8.957 Y183.769
N20000G01 X8.878 Y183.876
N20010G01 X8.81 Y183.989
N20020G01 X8.754 Y184.109
N20030G01 X8.709 Y184.234
N20040G01 X8.677 Y184.362
N20050G01 X8.657 Y184.493
N20060G01 X8.651 Y184.626
N20070G01 X8.651 Y240.003
N20080G01 X8.657 Y240.135
N20090G01 X8.677 Y240.266
N20100G01 X8.709 Y240.395
N20110G01 X8.754 Y240.52
N20120G01 X8.81 Y240.639
N20130G01 X8.878 Y240.753
N20140G01 X8.957 Y240.859
N20150G01 X9.046 Y240.958
N20160G01 X9.144 Y241.047
N20170G01 X9.251 Y241.126
N20180G01 X9.364 Y241.194
N20190G01 X9.484 Y241.25
N20200G01 X9.609 Y241.295
N20210G01 X9.737 Y241.327
N20220G01 X9.868 Y241.347
N20230G01 X10.001 Y241.353
N20240 G00 Z9.999
N20250 G00 X29.189 Y29.189
N20260G01 Z-6 F500
N20270G01 X29.3 Y29.091 F1000
N20280G01 X29.423 Y29.008
N20290G01 X29.555 Y28.942
N20300G01 X29.696 Y28.893
N20310G01 X29.845 Y28.862
N20320G01 X30.003 Y28.852
N20330G01 X30.161 Y28.862
N20340G01 X30.309 Y28.893
N20350G01 X30.448 Y28.941
N20360G01 X30.579 Y29.007
N20370G01 X30.701 Y29.089
N20380G01 X30.811 Y29.187
N20390G01 X30.908 Y29.298
N20400G01 X30.99 Y29.42
N20410G01 X31.056 Y29.553
N20420G01 X31.105 Y29.694
N20430G01 X31.135 Y29.844
N20440G01 X31.146 Y30.003
N20450G01 X31.136 Y30.162
N20460G01 X31.105 Y30.311
N20470G01 X31.057 Y30.451
N20480G01 X30.991 Y30.582
N20490G01 X30.909 Y30.703
N20500G01 X30.813 Y30.813
N20510G01 X30.703 Y30.909
N20520G01 X30.582 Y30.991
N20530G01 X30.451 Y31.057
N20540G01 X30.311 Y31.105
N20550G01 X30.162 Y31.135
N20560G01 X30.003 Y31.146
N20570G01 X29.844 Y31.135
N20580G01 X29.694 Y31.105
N20590G01 X29.553 Y31.056
N20600G01 X29.42 Y30.99
N20610G01 X29.298 Y30.908
N20620G01 X29.187 Y30.811
N20630G01 X29.089 Y30.701
N20640G01 X29.007 Y30.579
N20650G01 X28.941 Y30.448
N20660G01 X28.893 Y30.309
N20670G01 X28.862 Y30.161
N20680G01 X28.852 Y30.003
N20690G01 X28.862 Y29.845
N20700G01 X28.893 Y29.696
N20710G01 X28.942 Y29.555
N20720G01 X29.008 Y29.423
N20730G01 X29.091 Y29.3
N20740G01 X29.189 Y29.189
N20750 G00 Z9.999
N20760 G00 X318.853 Y30.003
N20770G01 Z-6 F500
N20780G01 X318.863 Y29.844 F1000
N20790G01 X318.894 Y29.694
N20800G01 X318.942 Y29.553
N20810G01 X319.009 Y29.42
N20820G01 X319.091 Y29.298
N20830G01 X319.188 Y29.187
N20840G01 X319.298 Y29.089
N20850G01 X319.419 Y29.007
N20860G01 X319.55 Y28.941
N20870G01 X319.69 Y28.893
N20880G01 X319.838 Y28.862
N20890G01 X319.995 Y28.852
N20900G01 X320.154 Y28.862
N20910G01 X320.302 Y28.893
N20920G01 X320.443 Y28.942
N20930G01 X320.575 Y29.008
N20940G01 X320.698 Y29.091
N20950G01 X320.81 Y29.189
N20960G01 X320.908 Y29.3
N20970G01 X320.991 Y29.423
N20980G01 X321.057 Y29.556
N20990G01 X321.106 Y29.696
N21000G01 X321.136 Y29.845
N21010G01 X321.147 Y30.003
N21020G01 X321.136 Y30.161
N21030G01 X321.106 Y30.309
N21040G01 X321.058 Y30.448
N21050G01 X320.992 Y30.579
N21060G01 X320.909 Y30.701
N21070G01 X320.812 Y30.811
N21080G01 X320.701 Y30.908
N21090G01 X320.579 Y30.99
N21100G01 X320.446 Y31.056
N21110G01 X320.305 Y31.105
N21120G01 X320.155 Y31.135
N21130G01 X319.995 Y31.146
N21140G01 X319.836 Y31.135
N21150G01 X319.687 Y31.105
N21160G01 X319.547 Y31.057
N21170G01 X319.416 Y30.991
N21180G01 X319.295 Y30.91
N21190G01 X319.186 Y30.813
N21200G01 X319.089 Y30.703
N21210G01 X319.008 Y30.582
N21220G01 X318.942 Y30.451
N21230G01 X318.893 Y30.311
N21240G01 X318.863 Y30.162
N21250G01 X318.853 Y30.003
N21260 G00 Z9.999
N21270 G00 X319.995 Y218.858
N21280G01 Z-6 F500
N21290G01 X320.155 Y218.868 F1000
N21300G01 X320.304 Y218.899
N21310G01 X320.445 Y218.948
N21320G01 X320.578 Y219.014
N21330G01 X320.701 Y219.096
N21340G01 X320.811 Y219.194
N21350G01 X320.909 Y219.304
N21360G01 X320.992 Y219.426
N21370G01 X321.058 Y219.557
N21380G01 X321.106 Y219.696
N21390G01 X321.136 Y219.844
N21400G01 X321.147 Y220.001
N21410G01 X321.136 Y220.158
N21420G01 X321.106 Y220.305
N21430G01 X321.058 Y220.444
N21440G01 X320.992 Y220.575
N21450G01 X320.909 Y220.697
N21460G01 X320.812 Y220.807
N21470G01 X320.7 Y220.905
N21480G01 X320.578 Y220.987
N21490G01 X320.445 Y221.053
N21500G01 X320.304 Y221.102
N21510G01 X320.154 Y221.133
N21520G01 X319.995 Y221.143
N21530G01 X319.837 Y221.133
N21540G01 X319.688 Y221.102
N21550G01 X319.548 Y221.054
N21560G01 X319.417 Y220.988
N21570G01 X319.296 Y220.906
N21580G01 X319.186 Y220.81
N21590G01 X319.089 Y220.7
N21600G01 X319.008 Y220.578
N21610G01 X318.942 Y220.447
N21620G01 X318.893 Y220.307
N21630G01 X318.863 Y220.159
N21640G01 X318.853 Y220.001
N21650G01 X318.863 Y219.842
N21660G01 X318.893 Y219.694
N21670G01 X318.942 Y219.554
N21680G01 X319.008 Y219.423
N21690G01 X319.089 Y219.302
N21700G01 X319.186 Y219.191
N21710G01 X319.296 Y219.095
N21720G01 X319.417 Y219.013
N21730G01 X319.548 Y218.947
N21740G01 X319.688 Y218.899
N21750G01 X319.837 Y218.868
N21760G01 X319.995 Y218.858
N21770 G00 Z9.999
N21780 G00 X31.146 Y220.001
N21790G01 Z-6 F500
N21800G01 X31.136 Y220.159 F1000
N21810G01 X31.105 Y220.307
N21820G01 X31.057 Y220.447
N21830G01 X30.991 Y220.578
N21840G01 X30.909 Y220.7
N21850G01 X30.813 Y220.81
N21860G01 X30.703 Y220.906
N21870G01 X30.582 Y220.988
N21880G01 X30.45 Y221.054
N21890G01 X30.311 Y221.102
N21900G01 X30.162 Y221.133
N21910G01 X30.003 Y221.143
N21920G01 X29.844 Y221.133
N21930G01 X29.695 Y221.102
N21940G01 X29.553 Y221.053
N21950G01 X29.421 Y220.987
N21960G01 X29.298 Y220.905
N21970G01 X29.187 Y220.807
N21980G01 X29.09 Y220.697
N21990G01 X29.007 Y220.575
N22000G01 X28.941 Y220.444
N22010G01 X28.892 Y220.305
N22020G01 X28.862 Y220.157
N22030G01 X28.852 Y220.001
N22040G01 X28.862 Y219.844
N22050G01 X28.892 Y219.696
N22060G01 X28.941 Y219.557
N22070G01 X29.007 Y219.426
N22080G01 X29.089 Y219.304
N22090G01 X29.187 Y219.194
N22100G01 X29.298 Y219.096
N22110G01 X29.421 Y219.014
N22120G01 X29.553 Y218.948
N22130G01 X29.695 Y218.899
N22140G01 X29.844 Y218.868
N22150G01 X30.003 Y218.858
N22160G01 X30.162 Y218.868
N22170G01 X30.31 Y218.899
N22180G01 X30.45 Y218.947
N22190G01 X30.582 Y219.013
N22200G01 X30.703 Y219.095
N22210G01 X30.813 Y219.191
N22220G01 X30.909 Y219.301
N22230G01 X30.991 Y219.423
N22240G01 X31.057 Y219.554
N22250G01 X31.105 Y219.694
N22260G01 X31.136 Y219.842
N22270G01 X31.146 Y220.001
N22280 G00 Z9.999
N22290 G00 X10.001 Y241.353
N22300G01 Z-6 F500
N22310G01 X339.998 F1000
N22320G01 X340.13 Y241.347
N22330G01 X340.261 Y241.327
N22340G01 X340.39 Y241.295
N22350G01 X340.515 Y241.25
N22360G01 X340.634 Y241.194
N22370G01 X340.748 Y241.126
N22380G01 X340.854 Y241.047
N22390G01 X340.953 Y240.958
N22400G01 X341.041 Y240.859
N22410G01 X341.12 Y240.753
N22420G01 X341.189 Y240.639
N22430G01 X341.245 Y240.52
N22440G01 X341.29 Y240.395
N22450G01 X341.322 Y240.266
N22460G01 X341.341 Y240.135
N22470G01 X341.348 Y240.003
N22480G01 X341.348 Y204.999
N22490G01 X341.341 Y204.866
N22500G01 X341.322 Y204.735
N22510G01 X341.29 Y204.607
N22520G01 X341.245 Y204.482
N22530G01 X341.189 Y204.362
N22540G01 X341.12 Y204.249
N22550G01 X341.041 Y204.142
N22560G01 X340.953 Y204.044
N22570G01 X340.854 Y203.955
N22580G01 X340.748 Y203.876
N22590G01 X340.634 Y203.808
N22600G01 X340.515 Y203.751
N22610G01 X340.39 Y203.707
N22620G01 X340.261 Y203.675
N22630G01 X340.13 Y203.655
N22640G01 X339.998 Y203.649
N22650G01 X234.148
N22660G01 X227.18 Y203.277
N22670G01 X221.18 Y202.205
N22680G01 X216.087 Y200.492
N22690G01 X211.867 Y198.197
N22700G01 X208.474 Y195.373
N22710G01 X205.856 Y192.056
N22720G01 X203.972 Y188.269
N22730G01 X202.798 Y184.03
N22740G01 X202.322 Y179.369
N22750G01 X202.535 Y174.327
N22760G01 X203.424 Y168.952
N22770G01 X204.975 Y163.295
N22780G01 X207.168 Y157.407
N22790G01 X209.982 Y151.341
N22800G01 X213.395 Y145.146
N22810G01 X217.384 Y138.872
N22820G01 X221.925 Y132.568
N22830G01 X226.995 Y126.283
N22840G01 X232.569 Y120.063
N22850G01 X238.625 Y113.958
N22860G01 X245.138 Y108.014
N22870G01 X252.084 Y102.28
N22880G01 X259.439 Y96.801
N22890G01 X267.18 Y91.625
N22900G01 X275.281 Y86.8
N22910G01 X283.719 Y82.37
N22920G01 X292.471 Y78.384
N22930G01 X301.511 Y74.887
N22940G01 X310.818 Y71.926
N22950G01 X320.366 Y69.546
N22960G01 X330.133 Y67.795
N22970G01 X340.143 Y66.711
N22980G01 X340.261 Y66.693
N22990G01 X340.39 Y66.661
N23000G01 X340.515 Y66.616
N23010G01 X340.634 Y66.56
N23020G01 X340.748 Y66.492
N23030G01 X340.854 Y66.413
N23040G01 X340.953 Y66.324
N23050G01 X341.041 Y66.226
N23060G01 X341.12 Y66.119
N23070G01 X341.189 Y66.006
N23080G01 X341.245 Y65.886
N23090G01 X341.29 Y65.761
N23100G01 X341.322 Y65.633
N23110G01 X341.341 Y65.502
N23120G01 X341.348 Y65.369
N23130G01 Y10.001
N23140G01 X341.341 Y9.868
N23150G01 X341.322 Y9.737
N23160G01 X341.29 Y9.609
N23170G01 X341.245 Y9.484
N23180G01 X341.189 Y9.364
N23190G01 X341.12 Y9.251
N23200G01 X341.041 Y9.144
N23210G01 X340.953 Y9.046
N23220G01 X340.854 Y8.957
N23230G01 X340.748 Y8.878
N23240G01 X340.634 Y8.81
N23250G01 X340.515 Y8.754
N23260G01 X340.39 Y8.709
N23270G01 X340.261 Y8.677
N23280G01 X340.13 Y8.657
N23290G01 X339.998 Y8.651
N23300G01 X9.868 Y8.657
N23310G01 X9.737 Y8.677
N23320G01 X9.609 Y8.709
N23330G01 X9.484 Y8.754
N23340G01 X9.364 Y8.81
N23350G01 X9.251 Y8.878
N23360G01 X9.144 Y8.957
N23370G01 X9.046 Y9.046
N23380G01 X8.957 Y9.144
N23390G01 X8.878 Y9.251
N23400G01 X8.81 Y9.364
N23410G01 X8.754 Y9.484
N23420G01 X8.709 Y9.609
N23430G01 X8.677 Y9.737
N23440G01 X8.657 Y9.868
N23450G01 X8.651 Y10.001
N23460G01 X8.651 Y44.996
N23470G01 X8.657 Y45.129
N23480G01 X8.677 Y45.26
N23490G01 X8.709 Y45.388
N23500G01 X8.754 Y45.513
N23510G01 X8.81 Y45.633
N23520G01 X8.878 Y45.746
N23530G01 X8.957 Y45.853
N23540G01 X9.046 Y45.951
N23550G01 X9.144 Y46.04
N23560G01 X9.251 Y46.119
N23570G01 X9.364 Y46.187
N23580G01 X9.484 Y46.244
N23590G01 X9.609 Y46.288
N23600G01 X9.737 Y46.32
N23610G01 X9.868 Y46.34
N23620G01 X10.001 Y46.346
N23630G01 X115.851
N23640G01 X122.819 Y46.718
N23650G01 X128.819 Y47.79
N23660G01 X133.911 Y49.503
N23670G01 X138.131 Y51.798
N23680G01 X141.525 Y54.622
N23690G01 X144.142 Y57.939
N23700G01 X146.026 Y61.726
N23710G01 X147.2 Y65.965
N23720G01 X147.676 Y70.626
N23730G01 X147.464 Y75.668
N23740G01 X146.574 Y81.043
N23750G01 X145.024 Y86.7
N23760G01 X142.831 Y92.588
N23770G01 X140.017 Y98.654
N23780G01 X136.604 Y104.849
N23790G01 X132.615 Y111.123
N23800G01 X128.074 Y117.427
N23810G01 X123.004 Y123.712
N23820G01 X117.429 Y129.932
N23830G01 X111.373 Y136.037
N23840G01 X104.86 Y141.981
N23850G01 X97.915 Y147.715
N23860G01 X90.559 Y153.194
N23870G01 X82.819 Y158.37
N23880G01 X74.718 Y163.195
N23890G01 X66.28 Y167.625
N23900G01 X57.528 Y171.611
N23910G01 X48.487 Y175.108
N23920G01 X39.181 Y178.069
N23930G01 X29.633 Y180.449
N23940G01 X19.866 Y182.2
N23950G01 X9.856 Y183.284
N23960G01 X9.737 Y183.302
N23970G01 X9.609 Y183.334
N23980G01 X9.484 Y183.379
N23990G01 X9.364 Y183.435
N24000G01 X9.251 Y183.503
N24010G01 X9.144 Y183.582
N24020G01 X9.046 Y183.671
N24030G01 X8.957 Y183.769
N24040G01 X8.878 Y183.876
N24050G01 X8.81 Y183.989
N24060G01 X8.754 Y184.109
N24070G01 X8.709 Y184.234
N24080G01 X8.677 Y184.362
N24090G01 X8.657 Y184.493
N24100G01 X8.651 Y184.626
N24110G01 X8.651 Y240.003
N24120G01 X8.657 Y240.135
N24130G01 X8.677 Y240.266
N24140G01 X8.709 Y240.395
N24150G01 X8.754 Y240.52
N24160G01 X8.81 Y240.639
N24170G01 X8.878 Y240.753
N24180G01 X8.957 Y240.859
N24190G01 X9.046 Y240.958
N24200G01 X9.144 Y241.047
N24210G01 X9.251 Y241.126
N24220G01 X9.364 Y241.194
N24230G01 X9.484 Y241.25
N24240G01 X9.609 Y241.295
N24250G01 X9.737 Y241.327
N24260G01 X9.868 Y241.347
N24270G01 X10.001 Y241.353
N24280 G00 Z9.999
N24290 G00 X29.189 Y29.189
N24300G01 Z-7 F500
N24310G01 X29.3 Y29.091 F1000
N24320G01 X29.423 Y29.008
N24330G01 X29.555 Y28.942
N24340G01 X29.696 Y28.893
N24350G01 X29.845 Y28.862
N24360G01 X30.003 Y28.852
N24370G01 X30.161 Y28.862
N24380G01 X30.309 Y28.893
N24390G01 X30.448 Y28.941
N24400G01 X30.579 Y29.007
N24410G01 X30.701 Y29.089
N24420G01 X30.811 Y29.187
N24430G01 X30.908 Y29.298
N24440G01 X30.99 Y29.42
N24450G01 X31.056 Y29.553
N24460G01 X31.105 Y29.694
N24470G01 X31.135 Y29.844
N24480G01 X31.146 Y30.003
N24490G01 X31.136 Y30.162
N24500G01 X31.105 Y30.311
N24510G01 X31.057 Y30.451
N24520G01 X30.991 Y30.582
N24530G01 X30.909 Y30.703
N24540G01 X30.813 Y30.813
N24550G01 X30.703 Y30.909
N24560G01 X30.582 Y30.991
N24570G01 X30.451 Y31.057
N24580G01 X30.311 Y31.105
N24590G01 X30.162 Y31.135
N24600G01 X30.003 Y31.146
N24610G01 X29.844 Y31.135
N24620G01 X29.694 Y31.105
N24630G01 X29.553 Y31.056
N24640G01 X29.42 Y30.99
N24650G01 X29.298 Y30.908
N24660G01 X29.187 Y30.811
N24670G01 X29.089 Y30.701
N24680G01 X29.007 Y30.579
N24690G01 X28.941 Y30.448
N24700G01 X28.893 Y30.309
N24710G01 X28.862 Y30.161
N24720G01 X28.852 Y30.003
N24730G01 X28.862 Y29.845
N24740G01 X28.893 Y29.696
N24750G01 X28.942 Y29.555
N24760G01 X29.008 Y29.423
N24770G01 X29.091 Y29.3
N24780G01 X29.189 Y29.189
N24790 G00 Z9.999
N24800 G00 X318.853 Y30.003
N24810G01 Z-7 F500
N24820G01 X318.863 Y29.844 F1000
N24830G01 X318.894 Y29.694
N24840G01 X318.942 Y29.553
N24850G01 X319.009 Y29.42
N24860G01 X319.091 Y29.298
N24870G01 X319.188 Y29.187
N24880G01 X319.298 Y29.089
N24890G01 X319.419 Y29.007
N24900G01 X319.55 Y28.941
N24910G01 X319.69 Y28.893
N24920G01 X319.838 Y28.862
N24930G01 X319.995 Y28.852
N24940G01 X320.154 Y28.862
N24950G01 X320.302 Y28.893
N24960G01 X320.443 Y28.942
N24970G01 X320.575 Y29.008
N24980G01 X320.698 Y29.091
N24990G01 X320.81 Y29.189
N25000G01 X320.908 Y29.3
N25010G01 X320.991 Y29.423
N25020G01 X321.057 Y29.556
N25030G01 X321.106 Y29.696
N25040G01 X321.136 Y29.845
N25050G01 X321.147 Y30.003
N25060G01 X321.136 Y30.161
N25070G01 X321.106 Y30.309
N25080G01 X321.058 Y30.448
N25090G01 X320.992 Y30.579
N25100G01 X320.909 Y30.701
N25110G01 X320.812 Y30.811
N25120G01 X320.701 Y30.908
N25130G01 X320.579 Y30.99
N25140G01 X320.446 Y31.056
N25150G01 X320.305 Y31.105
N25160G01 X320.155 Y31.135
N25170G01 X319.995 Y31.146
N25180G01 X319.836 Y31.135
N25190G01 X319.687 Y31.105
N25200G01 X319.547 Y31.057
N25210G01 X319.416 Y30.991
N25220G01 X319.295 Y30.91
N25230G01 X319.186 Y30.813
N25240G01 X319.089 Y30.703
N25250G01 X319.008 Y30.582
N25260G01 X318.942 Y30.451
N25270G01 X318.893 Y30.311
N25280G01 X318.863 Y30.162
N25290G01 X318.853 Y30.003
N25300 G00 Z9.999
N25310 G00 X319.995 Y218.858
N25320G01 Z-7 F500
N25330G01 X320.155 Y218.868 F1000
N25340G01 X320.304 Y218.899
N25350G01 X320.445 Y218.948
N25360G01 X320.578 Y219.014
N25370G01 X320.701 Y219.096
N25380G01 X320.811 Y219.194
N25390G01 X320.909 Y219.304
N25400G01 X320.992 Y219.426
N25410G01 X321.058 Y219.557
N25420G01 X321.106 Y219.696
N25430G01 X321.136 Y219.844
N25440G01 X321.147 Y220.001
N25450G01 X321.136 Y220.158
N25460G01 X321.106 Y220.305
N25470G01 X321.058 Y220.444
N25480G01 X320.992 Y220.575
N25490G01 X320.909 Y220.697
N25500G01 X320.812 Y220.807
N25510G01 X320.7 Y220.905
N25520G01 X320.578 Y220.987
N25530G01 X320.445 Y221.053
N25540G01 X320.304 Y221.102
N25550G01 X320.154 Y221.133
N25560G01 X319.995 Y221.143
N25570G01 X319.837 Y221.133
N25580G01 X319.688 Y221.102
N25590G01 X319.548 Y221.054
N25600G01 X319.417 Y220.988
N25610G01 X319.296 Y220.906
N25620G01 X319.186 Y220.81
N25630G01 X319.089 Y220.7
N25640G01 X319.008 Y220.578
N25650G01 X318.942 Y220.447
N25660G01 X318.893 Y220.307
N25670G01 X318.863 Y220.159
N25680G01 X318.853 Y220.001
N25690G01 X318.863 Y219.842
N25700G01 X318.893 Y219.694
N25710G01 X318.942 Y219.554
N25720G01 X319.008 Y219.423
N25730G01 X319.089 Y219.302
N25740G01 X319.186 Y219.191
N25750G01 X319.296 Y219.095
N25760G01 X319.417 Y219.013
N25770G01 X319.548 Y218.947
N25780G01 X319.688 Y218.899
N25790G01 X319.837 Y218.868
N25800G01 X319.995 Y218.858
N25810 G00 Z9.999
N25820 G00 X31.146 Y220.001
N25830G01 Z-7 F500
N25840G01 X31.136 Y220.159 F1000
N25850G01 X31.105 Y220.307
N25860G01 X31.057 Y220.447
N25870G01 X30.991 Y220.578
N25880G01 X30.909 Y220.7
N25890G01 X30.813 Y220.81
N25900G01 X30.703 Y220.906
N25910G01 X30.582 Y220.988
N25920G01 X30.45 Y221.054
N25930G01 X30.311 Y221.102
N25940G01 X30.162 Y221.133
N25950G01 X30.003 Y221.143
N25960G01 X29.844 Y221.133
N25970G01 X29.695 Y221.102
N25980G01 X29.553 Y221.053
N25990G01 X29.421 Y220.987
N26000G01 X29.298 Y220.905
N26010G01 X29.187 Y220.807
N26020G01 X29.09 Y220.697
N26030G01 X29.007 Y220.575
N26040G01 X28.941 Y220.444
N26050G01 X28.892 Y220.305
N26060G01 X28.862 Y220.157
N26070G01 X28.852 Y220.001
N26080G01 X28.862 Y219.844
N26090G01 X28.892 Y219.696
N26100G01 X28.941 Y219.557
N26110G01 X29.007 Y219.426
N26120G01 X29.089 Y219.304
N26130G01 X29.187 Y219.194
N26140G01 X29.298 Y219.096
N26150G01 X29.421 Y219.014
N26160G01 X29.553 Y218.948
N26170G01 X29.695 Y218.899
N26180G01 X29.844 Y218.868
N26190G01 X30.003 Y218.858
N26200G01 X30.162 Y218.868
N26210G01 X30.31 Y218.899
N26220G01 X30.45 Y218.947
N26230G01 X30.582 Y219.013
N26240G01 X30.703 Y219.095
N26250G01 X30.813 Y219.191
N26260G01 X30.909 Y219.301
N26270G01 X30.991 Y219.423
N26280G01 X31.057 Y219.554
N26290G01 X31.105 Y219.694
N26300G01 X31.136 Y219.842
N26310G01 X31.146 Y220.001
N26320 G00 Z9.999
N26330 G00 X10.001 Y241.353
N26340G01 Z-7 F500
N26350G01 X339.998 F1000
N26360G01 X340.13 Y241.347
N26370G01 X340.261 Y241.327
N26380G01 X340.39 Y241.295
N26390G01 X340.515 Y241.25
N26400G01 X340.634 Y241.194
N26410G01 X340.748 Y241.126
N26420G01 X340.854 Y241.047
N26430G01 X340.953 Y240.958
N26440G01 X341.041 Y240.859
N26450G01 X341.12 Y240.753
N26460G01 X341.189 Y240.639
N26470G01 X341.245 Y240.52
N26480G01 X341.29 Y240.395
N26490G01 X341.322 Y240.266
N26500G01 X341.341 Y240.135
N26510G01 X341.348 Y240.003
N26520G01 X341.348 Y204.999
N26530G01 X341.341 Y204.866
N26540G01 X341.322 Y204.735
N26550G01 X341.29 Y204.607
N26560G01 X341.245 Y204.482
N26570G01 X341.189 Y204.362
N26580G01 X341.12 Y204.249
N26590G01 X341.041 Y204.142
N26600G01 X340.953 Y204.044
N26610G01 X340.854 Y203.955
N26620G01 X340.748 Y203.876
N26630G01 X340.634 Y203.808
N26640G01 X340.515 Y203.751
N26650G01 X340.39 Y203.707
N26660G01 X340.261 Y203.675
N26670G01 X340.13 Y203.655
N26680G01 X339.998 Y203.649
N26690G01 X234.148
N26700G01 X227.18 Y203.277
N26710G01 X221.18 Y202.205
N26720G01 X216.087 Y200.492
N26730G01 X211.867 Y198.197
N26740G01 X208.474 Y195.373
N26750G01 X205.856 Y192.056
N26760G01 X203.972 Y188.269
N26770G01 X202.798 Y184.03
N26780G01 X202.322 Y179.369
N26790G01 X202.535 Y174.327
N26800G01 X203.424 Y168.952
N26810G01 X204.975 Y163.295
N26820G01 X207.168 Y157.407
N26830G01 X209.982 Y151.341
N26840G01 X213.395 Y145.146
N26850G01 X217.384 Y138.872
N26860G01 X221.925 Y132.568
N26870G01 X226.995 Y126.283
N26880G01 X232.569 Y120.063
N26890G01 X238.625 Y113.958
N26900G01 X245.138 Y108.014
N26910G01 X252.084 Y102.28
N26920G01 X259.439 Y96.801
N26930G01 X267.18 Y91.625
N26940G01 X275.281 Y86.8
N26950G01 X283.719 Y82.37
N26960G01 X292.471 Y78.384
N26970G01 X301.511 Y74.887
N26980G01 X310.818 Y71.926
N26990G01 X320.366 Y69.546
N27000G01 X330.133 Y67.795
N27010G01 X340.143 Y66.711
N27020G01 X340.261 Y66.693
N27030G01 X340.39 Y66.661
N27040G01 X340.515 Y66.616
N27050G01 X340.634 Y66.56
N27060G01 X340.748 Y66.492
N27070G01 X340.854 Y66.413
N27080G01 X340.953 Y66.324
N27090G01 X341.041 Y66.226
N27100G01 X341.12 Y66.119
N27110G01 X341.189 Y66.006
N27120G01 X341.245 Y65.886
N27130G01 X341.29 Y65.761
N27140G01 X341.322 Y65.633
N27150G01 X341.341 Y65.502
N27160G01 X341.348 Y65.369
N27170G01 Y10.001
N27180G01 X341.341 Y9.868
N27190G01 X341.322 Y9.737
N27200G01 X341.29 Y9.609
N27210G01 X341.245 Y9.484
N27220G01 X341.189 Y9.364
N27230G01 X341.12 Y9.251
N27240G01 X341.041 Y9.144
N27250G01 X340.953 Y9.046
N27260G01 X340.854 Y8.957
N27270G01 X340.748 Y8.878
N27280G01 X340.634 Y8.81
N27290G01 X340.515 Y8.754
N27300G01 X340.39 Y8.709
N27310G01 X340.261 Y8.677
N27320G01 X340.13 Y8.657
N27330G01 X339.998 Y8.651
N27340G01 X9.868 Y8.657
N27350G01 X9.737 Y8.677
N27360G01 X9.609 Y8.709
N27370G01 X9.484 Y8.754
N27380G01 X9.364 Y8.81
N27390G01 X9.251 Y8.878
N27400G01 X9.144 Y8.957
N27410G01 X9.046 Y9.046
N27420G01 X8.957 Y9.144
N27430G01 X8.878 Y9.251
N27440G01 X8.81 Y9.364
N27450G01 X8.754 Y9.484
N27460G01 X8.709 Y9.609
N27470G01 X8.677 Y9.737
N27480G01 X8.657 Y9.868
N27490G01 X8.651 Y10.001
N27500G01 X8.651 Y44.996
N27510G01 X8.657 Y45.129
N27520G01 X8.677 Y45.26
N27530G01 X8.709 Y45.388
N27540G01 X8.754 Y45.513
N27550G01 X8.81 Y45.633
N27560G01 X8.878 Y45.746
N27570G01 X8.957 Y45.853
N27580G01 X9.046 Y45.951
N27590G01 X9.144 Y46.04
N27600G01 X9.251 Y46.119
N27610G01 X9.364 Y46.187
N27620G01 X9.484 Y46.244
N27630G01 X9.609 Y46.288
N27640G01 X9.737 Y46.32
N27650G01 X9.868 Y46.34
N27660G01 X10.001 Y46.346
N27670G01 X115.851
N27680G01 X122.819 Y46.718
N27690G01 X128.819 Y47.79
N27700G01 X133.911 Y49.503
N27710G01 X138.131 Y51.798
N27720G01 X141.525 Y54.622
N27730G01 X144.142 Y57.939
N27740G01 X146.026 Y61.726
N27750G01 X147.2 Y65.965
N27760G01 X147.676 Y70.626
N27770G01 X147.464 Y75.668
N27780G01 X146.574 Y81.043
N27790G01 X145.024 Y86.7
N27800G01 X142.831 Y92.588
N27810G01 X140.017 Y98.654
N27820G01 X136.604 Y104.849
N27830G01 X132.615 Y111.123
N27840G01 X128.074 Y117.427
N27850G01 X123.004 Y123.712
N27860G01 X117.429 Y129.932
N27870G01 X111.373 Y136.037
N27880G01 X104.86 Y141.981
N27890G01 X97.915 Y147.715
N27900G01 X90.559 Y153.194
N27910G01 X82.819 Y158.37
N27920G01 X74.718 Y163.195
N27930G01 X66.28 Y167.625
N27940G01 X57.528 Y171.611
N27950G01 X48.487 Y175.108
N27960G01 X39.181 Y178.069
N27970G01 X29.633 Y180.449
N27980G01 X19.866 Y182.2
N27990G01 X9.856 Y183.284
N28000G01 X9.737 Y183.302
N28010G01 X9.609 Y183.334
N28020G01 X9.484 Y183.379
N28030G01 X9.364 Y183.435
N28040G01 X9.251 Y183.503
N28050G01 X9.144 Y183.582
N28060G01 X9.046 Y183.671
N28070G01 X8.957 Y183.769
N28080G01 X8.878 Y183.876
N28090G01 X8.81 Y183.989
N28100G01 X8.754 Y184.109
N28110G01 X8.709 Y184.234
N28120G01 X8.677 Y184.362
N28130G01 X8.657 Y184.493
N28140G01 X8.651 Y184.626
N28150G01 X8.651 Y240.003
N28160G01 X8.657 Y240.135
N28170G01 X8.677 Y240.266
N28180G01 X8.709 Y240.395
N28190G01 X8.754 Y240.52
N28200G01 X8.81 Y240.639
N28210G01 X8.878 Y240.753
N28220G01 X8.957 Y240.859
N28230G01 X9.046 Y240.958
N28240G01 X9.144 Y241.047
N28250G01 X9.251 Y241.126
N28260G01 X9.364 Y241.194
N28270G01 X9.484 Y241.25
N28280G01 X9.609 Y241.295
N28290G01 X9.737 Y241.327
N28300G01 X9.868 Y241.347
N28310G01 X10.001 Y241.353
N28320 G00 Z9.999
N28330 G00 X29.189 Y29.189
N28340G01 Z-8 F500
N28350G01 X29.3 Y29.091 F1000
N28360G01 X29.423 Y29.008
N28370G01 X29.555 Y28.942
N28380G01 X29.696 Y28.893
N28390G01 X29.845 Y28.862
N28400G01 X30.003 Y28.852
N28410G01 X30.161 Y28.862
N28420G01 X30.309 Y28.893
N28430G01 X30.448 Y28.941
N28440G01 X30.579 Y29.007
N28450G01 X30.701 Y29.089
N28460G01 X30.811 Y29.187
N28470G01 X30.908 Y29.298
N28480G01 X30.99 Y29.42
N28490G01 X31.056 Y29.553
N28500G01 X31.105 Y29.694
N28510G01 X31.135 Y29.844
N28520G01 X31.146 Y30.003
N28530G01 X31.136 Y30.162
N28540G01 X31.105 Y30.311
N28550G01 X31.057 Y30.451
N28560G01 X30.991 Y30.582
N28570G01 X30.909 Y30.703
N28580G01 X30.813 Y30.813
N28590G01 X30.806 Y30.82
N28600G01 Z-7.599
N28610G01 X30.703 Y30.909
N28620G01 X30.582 Y30.991
N28630G01 X30.451 Y31.057
N28640G01 X30.311 Y31.105
N28650G01 X30.162 Y31.135
N28660G01 X30.003 Y31.146
N28670G01 X29.844 Y31.135
N28680G01 X29.694 Y31.105
N28690G01 X29.553 Y31.056
N28700G01 X29.42 Y30.99
N28710G01 X29.298 Y30.908
N28720G01 X29.187 Y30.811
N28730G01 X29.089 Y30.701
N28740G01 X29.007 Y30.579
N28750G01 X28.941 Y30.448
N28760G01 X28.893 Y30.309
N28770G01 X28.862 Y30.161
N28780G01 X28.852 Y30.003
N28790G01 X28.862 Y29.845
N28800G01 X28.893 Y29.696
N28810G01 X28.942 Y29.555
N28820G01 X29.008 Y29.423
N28830G01 X29.091 Y29.3
N28840G01 X29.189 Y29.189
N28850 G00 Z9.999
N28860 G00 X318.853 Y30.003
N28870G01 Z-8 F500
N28880G01 X318.863 Y29.844 F1000
N28890G01 X318.894 Y29.694
N28900G01 X318.942 Y29.553
N28910G01 X319.009 Y29.42
N28920G01 X319.091 Y29.298
N28930G01 X319.188 Y29.187
N28940G01 X319.298 Y29.089
N28950G01 X319.419 Y29.007
N28960G01 X319.55 Y28.941
N28970G01 X319.69 Y28.893
N28980G01 X319.838 Y28.862
N28990G01 X319.995 Y28.852
N29000G01 X320.154 Y28.862
N29010G01 X320.302 Y28.893
N29020G01 X320.443 Y28.942
N29030G01 X320.575 Y29.008
N29040G01 X320.698 Y29.091
N29050G01 X320.81 Y29.189
N29060G01 X320.908 Y29.3
N29070G01 X320.991 Y29.423
N29080G01 X321.057 Y29.556
N29090G01 X321.106 Y29.696
N29100G01 X321.136 Y29.845
N29110G01 X321.147 Y30.007
N29120G01 Z-7.599
N29130G01 X321.136 Y30.161
N29140G01 X321.106 Y30.309
N29150G01 X321.058 Y30.448
N29160G01 X320.992 Y30.579
N29170G01 X320.909 Y30.701
N29180G01 X320.812 Y30.811
N29190G01 X320.701 Y30.908
N29200G01 X320.579 Y30.99
N29210G01 X320.446 Y31.056
N29220G01 X320.305 Y31.105
N29230G01 X320.155 Y31.135
N29240G01 X319.995 Y31.146
N29250G01 X319.836 Y31.135
N29260G01 X319.687 Y31.105
N29270G01 X319.547 Y31.057
N29280G01 X319.416 Y30.991
N29290G01 X319.295 Y30.91
N29300G01 X319.186 Y30.813
N29310G01 X319.089 Y30.703
N29320G01 X319.008 Y30.582
N29330G01 X318.942 Y30.451
N29340G01 X318.893 Y30.311
N29350G01 X318.863 Y30.162
N29360G01 X318.853 Y30.003
N29370 G00 Z9.999
N29380 G00 X319.995 Y218.858
N29390G01 Z-8 F500
N29400G01 X320.155 Y218.868 F1000
N29410G01 X320.304 Y218.899
N29420G01 X320.445 Y218.948
N29430G01 X320.578 Y219.014
N29440G01 X320.701 Y219.096
N29450G01 X320.811 Y219.194
N29460G01 X320.909 Y219.304
N29470G01 X320.992 Y219.426
N29480G01 X321.058 Y219.557
N29490G01 X321.106 Y219.696
N29500G01 X321.136 Y219.844
N29510G01 X321.147 Y220.001
N29520G01 X321.136 Y220.158
N29530G01 X321.106 Y220.305
N29540G01 X321.058 Y220.444
N29550G01 X320.992 Y220.575
N29560G01 X320.909 Y220.697
N29570G01 X320.812 Y220.807
N29580G01 X320.7 Y220.905
N29590G01 X320.578 Y220.987
N29600G01 X320.445 Y221.053
N29610G01 X320.304 Y221.102
N29620G01 X320.154 Y221.133
N29630G01 X319.991 Y221.143
N29640G01 Z-7.599
N29650G01 X319.837 Y221.133
N29660G01 X319.688 Y221.102
N29670G01 X319.548 Y221.054
N29680G01 X319.417 Y220.988
N29690G01 X319.296 Y220.906
N29700G01 X319.186 Y220.81
N29710G01 X319.089 Y220.7
N29720G01 X319.008 Y220.578
N29730G01 X318.942 Y220.447
N29740G01 X318.893 Y220.307
N29750G01 X318.863 Y220.159
N29760G01 X318.853 Y220.001
N29770G01 X318.863 Y219.842
N29780G01 X318.893 Y219.694
N29790G01 X318.942 Y219.554
N29800G01 X319.008 Y219.423
N29810G01 X319.089 Y219.302
N29820G01 X319.186 Y219.191
N29830G01 X319.296 Y219.095
N29840G01 X319.417 Y219.013
N29850G01 X319.548 Y218.947
N29860G01 X319.688 Y218.899
N29870G01 X319.837 Y218.868
N29880G01 X319.995 Y218.858
N29890 G00 Z9.999
N29900 G00 X31.146 Y220.001
N29910G01 Z-8 F500
N29920G01 X31.136 Y220.159 F1000
N29930G01 X31.105 Y220.307
N29940G01 X31.057 Y220.447
N29950G01 X30.991 Y220.578
N29960G01 X30.909 Y220.7
N29970G01 X30.813 Y220.81
N29980G01 X30.703 Y220.906
N29990G01 X30.582 Y220.988
N30000G01 X30.45 Y221.054
N30010G01 X30.311 Y221.102
N30020G01 X30.162 Y221.133
N30030G01 X30.003 Y221.143
N30040G01 X29.844 Y221.133
N30050G01 X29.695 Y221.102
N30060G01 X29.553 Y221.053
N30070G01 X29.421 Y220.987
N30080G01 X29.298 Y220.905
N30090G01 X29.187 Y220.807
N30100G01 X29.09 Y220.697
N30110G01 X29.007 Y220.575
N30120G01 X28.941 Y220.444
N30130G01 X28.892 Y220.305
N30140G01 X28.862 Y220.157
N30150G01 X28.852 Y220.001
N30160G01 X28.852 Y219.991
N30170G01 Z-7.599
N30180G01 X28.862 Y219.844
N30190G01 X28.892 Y219.696
N30200G01 X28.941 Y219.557
N30210G01 X29.007 Y219.426
N30220G01 X29.089 Y219.304
N30230G01 X29.187 Y219.194
N30240G01 X29.298 Y219.096
N30250G01 X29.421 Y219.014
N30260G01 X29.553 Y218.948
N30270G01 X29.695 Y218.899
N30280G01 X29.844 Y218.868
N30290G01 X30.003 Y218.858
N30300G01 X30.162 Y218.868
N30310G01 X30.31 Y218.899
N30320G01 X30.45 Y218.947
N30330G01 X30.582 Y219.013
N30340G01 X30.703 Y219.095
N30350G01 X30.813 Y219.191
N30360G01 X30.909 Y219.301
N30370G01 X30.991 Y219.423
N30380G01 X31.057 Y219.554
N30390G01 X31.105 Y219.694
N30400G01 X31.136 Y219.842
N30410G01 X31.146 Y220.001
N30420 G00 Z9.999
N30430 G00 X10.001 Y241.353
N30440G01 Z-8 F500
N30450G01 X87.067 F1000
N30460G01 Z-7.599
N30470G01 X92.767
N30480G01 Z-8 F500
N30490G01 X241.18 F1000
N30500G01 Z-7.599
N30510G01 X246.88
N30520G01 Z-8 F500
N30530G01 X339.998 F1000
N30540G01 X340.13 Y241.347
N30550G01 X340.261 Y241.327
N30560G01 X340.39 Y241.295
N30570G01 X340.515 Y241.25
N30580G01 X340.634 Y241.194
N30590G01 X340.748 Y241.126
N30600G01 X340.854 Y241.047
N30610G01 X340.953 Y240.958
N30620G01 X341.041 Y240.859
N30630G01 X341.12 Y240.753
N30640G01 X341.189 Y240.639
N30650G01 X341.245 Y240.52
N30660G01 X341.29 Y240.395
N30670G01 X341.322 Y240.266
N30680G01 X341.341 Y240.135
N30690G01 X341.348 Y240.003
N30700G01 X341.348 Y204.999
N30710G01 X341.341 Y204.866
N30720G01 X341.322 Y204.735
N30730G01 X341.29 Y204.607
N30740G01 X341.245 Y204.482
N30750G01 X341.189 Y204.362
N30760G01 X341.12 Y204.249
N30770G01 X341.041 Y204.142
N30780G01 X340.953 Y204.044
N30790G01 X340.854 Y203.955
N30800G01 X340.748 Y203.876
N30810G01 X340.634 Y203.808
N30820G01 X340.515 Y203.751
N30830G01 X340.39 Y203.707
N30840G01 X340.261 Y203.675
N30850G01 X340.13 Y203.655
N30860G01 X339.998 Y203.649
N30870G01 X323.946
N30880G01 Z-7.599
N30890G01 X318.246
N30900G01 Z-8 F500
N30910G01 X234.148 F1000
N30920G01 X227.18 Y203.277
N30930G01 X221.18 Y202.205
N30940G01 X216.087 Y200.492
N30950G01 X211.867 Y198.197
N30960G01 X208.474 Y195.373
N30970G01 X205.856 Y192.056
N30980G01 X203.972 Y188.269
N30990G01 X202.798 Y184.03
N31000G01 X202.322 Y179.369
N31010G01 X202.535 Y174.327
N31020G01 X203.424 Y168.952
N31030G01 X204.975 Y163.295
N31040G01 X205.935 Y160.717
N31050G01 Z-7.599
N31060G01 X207.168 Y157.407
N31070G01 X208.08 Y155.44
N31080G01 Z-8 F500
N31090G01 X209.982 Y151.341 F1000
N31100G01 X213.395 Y145.146
N31110G01 X217.384 Y138.872
N31120G01 X221.925 Y132.568
N31130G01 X226.995 Y126.283
N31140G01 X232.569 Y120.063
N31150G01 X238.625 Y113.958
N31160G01 X245.138 Y108.014
N31170G01 X252.084 Y102.28
N31180G01 X259.439 Y96.801
N31190G01 X267.18 Y91.625
N31200G01 X275.281 Y86.8
N31210G01 X283.719 Y82.37
N31220G01 X292.471 Y78.384
N31230G01 X301.511 Y74.887
N31240G01 X310.818 Y71.926
N31250G01 X320.366 Y69.546
N31260G01 X322.735 Y69.121
N31270G01 Z-7.599
N31280G01 X328.346 Y68.115
N31290G01 Z-8 F500
N31300G01 X330.133 Y67.795 F1000
N31310G01 X340.143 Y66.711
N31320G01 X340.261 Y66.693
N31330G01 X340.39 Y66.661
N31340G01 X340.515 Y66.616
N31350G01 X340.634 Y66.56
N31360G01 X340.748 Y66.492
N31370G01 X340.854 Y66.413
N31380G01 X340.953 Y66.324
N31390G01 X341.041 Y66.226
N31400G01 X341.12 Y66.119
N31410G01 X341.189 Y66.006
N31420G01 X341.245 Y65.886
N31430G01 X341.29 Y65.761
N31440G01 X341.322 Y65.633
N31450G01 X341.341 Y65.502
N31460G01 X341.348 Y65.369
N31470G01 Y10.001
N31480G01 X341.341 Y9.868
N31490G01 X341.322 Y9.737
N31500G01 X341.29 Y9.609
N31510G01 X341.245 Y9.484
N31520G01 X341.189 Y9.364
N31530G01 X341.12 Y9.251
N31540G01 X341.041 Y9.144
N31550G01 X340.953 Y9.046
N31560G01 X340.854 Y8.957
N31570G01 X340.748 Y8.878
N31580G01 X340.634 Y8.81
N31590G01 X340.515 Y8.754
N31600G01 X340.39 Y8.709
N31610G01 X340.261 Y8.677
N31620G01 X340.13 Y8.657
N31630G01 X339.998 Y8.651
N31640G01 X262.931 Y8.652
N31650G01 Z-7.599
N31660G01 X257.231 Y8.652
N31670G01 Z-8 F500
N31680G01 X108.818 Y8.655 F1000
N31690G01 Z-7.599
N31700G01 X103.118 Y8.655
N31710G01 Z-8 F500
N31720G01 X9.868 Y8.657 F1000
N31730G01 X9.737 Y8.677
N31740G01 X9.609 Y8.709
N31750G01 X9.484 Y8.754
N31760G01 X9.364 Y8.81
N31770G01 X9.251 Y8.878
N31780G01 X9.144 Y8.957
N31790G01 X9.046 Y9.046
N31800G01 X8.957 Y9.144
N31810G01 X8.878 Y9.251
N31820G01 X8.81 Y9.364
N31830G01 X8.754 Y9.484
N31840G01 X8.709 Y9.609
N31850G01 X8.677 Y9.737
N31860G01 X8.657 Y9.868
N31870G01 X8.651 Y10.001
N31880G01 X8.651 Y44.996
N31890G01 X8.657 Y45.129
N31900G01 X8.677 Y45.26
N31910G01 X8.709 Y45.388
N31920G01 X8.754 Y45.513
N31930G01 X8.81 Y45.633
N31940G01 X8.878 Y45.746
N31950G01 X8.957 Y45.853
N31960G01 X9.046 Y45.951
N31970G01 X9.144 Y46.04
N31980G01 X9.251 Y46.119
N31990G01 X9.364 Y46.187
N32000G01 X9.484 Y46.244
N32010G01 X9.609 Y46.288
N32020G01 X9.737 Y46.32
N32030G01 X9.868 Y46.34
N32040G01 X10.001 Y46.346
N32050G01 X26.061
N32060G01 Z-7.599
N32070G01 X31.761
N32080G01 Z-8 F500
N32090G01 X115.851 F1000
N32100G01 X122.819 Y46.718
N32110G01 X128.819 Y47.79
N32120G01 X133.911 Y49.503
N32130G01 X138.131 Y51.798
N32140G01 X141.525 Y54.622
N32150G01 X144.142 Y57.939
N32160G01 X146.026 Y61.726
N32170G01 X147.2 Y65.965
N32180G01 X147.676 Y70.626
N32190G01 X147.464 Y75.668
N32200G01 X146.574 Y81.043
N32210G01 X145.024 Y86.7
N32220G01 X144.06 Y89.287
N32230G01 Z-7.599
N32240G01 X142.831 Y92.588
N32250G01 X141.915 Y94.563
N32260G01 Z-8 F500
N32270G01 X140.017 Y98.654 F1000
N32280G01 X136.604 Y104.849
N32290G01 X132.615 Y111.123
N32300G01 X128.074 Y117.427
N32310G01 X123.004 Y123.712
N32320G01 X117.429 Y129.932
N32330G01 X111.373 Y136.037
N32340G01 X104.86 Y141.981
N32350G01 X97.915 Y147.715
N32360G01 X90.559 Y153.194
N32370G01 X82.819 Y158.37
N32380G01 X74.718 Y163.195
N32390G01 X66.28 Y167.625
N32400G01 X57.528 Y171.611
N32410G01 X48.487 Y175.108
N32420G01 X39.181 Y178.069
N32430G01 X29.633 Y180.449
N32440G01 X27.254 Y180.875
N32450G01 Z-7.599
N32460G01 X21.644 Y181.882
N32470G01 Z-8 F500
N32480G01 X19.866 Y182.2 F1000
N32490G01 X9.856 Y183.284
N32500G01 X9.737 Y183.302
N32510G01 X9.609 Y183.334
N32520G01 X9.484 Y183.379
N32530G01 X9.364 Y183.435
N32540G01 X9.251 Y183.503
N32550G01 X9.144 Y183.582
N32560G01 X9.046 Y183.671
N32570G01 X8.957 Y183.769
N32580G01 X8.878 Y183.876
N32590G01 X8.81 Y183.989
N32600G01 X8.754 Y184.109
N32610G01 X8.709 Y184.234
N32620G01 X8.677 Y184.362
N32630G01 X8.657 Y184.493
N32640G01 X8.651 Y184.626
N32650G01 X8.651 Y240.003
N32660G01 X8.657 Y240.135
N32670G01 X8.677 Y240.266
N32680G01 X8.709 Y240.395
N32690G01 X8.754 Y240.52
N32700G01 X8.81 Y240.639
N32710G01 X8.878 Y240.753
N32720G01 X8.957 Y240.859
N32730G01 X9.046 Y240.958
N32740G01 X9.144 Y241.047
N32750G01 X9.251 Y241.126
N32760G01 X9.364 Y241.194
N32770G01 X9.484 Y241.25
N32780G01 X9.609 Y241.295
N32790G01 X9.737 Y241.327
N32800G01 X9.868 Y241.347
N32810G01 X10.001 Y241.353
N32820 G00 Z9.999
N32830 G00 X29.189 Y29.189
N32840G01 Z-8.399 F500
N32850G01 X29.3 Y29.091 F1000
N32860G01 X29.423 Y29.008
N32870G01 X29.555 Y28.942
N32880G01 X29.696 Y28.893
N32890G01 X29.845 Y28.862
N32900G01 X30.003 Y28.852
N32910G01 X30.161 Y28.862
N32920G01 X30.309 Y28.893
N32930G01 X30.448 Y28.941
N32940G01 X30.579 Y29.007
N32950G01 X30.701 Y29.089
N32960G01 X30.811 Y29.187
N32970G01 X30.908 Y29.298
N32980G01 X30.99 Y29.42
N32990G01 X31.056 Y29.553
N33000G01 X31.105 Y29.694
N33010G01 X31.135 Y29.844
N33020G01 X31.146 Y30.003
N33030G01 X31.136 Y30.162
N33040G01 X31.105 Y30.311
N33050G01 X31.057 Y30.451
N33060G01 X30.991 Y30.582
N33070G01 X30.909 Y30.703
N33080G01 X30.813 Y30.813
N33090G01 X30.806 Y30.82
N33100G01 Z-7.599
N33110G01 X30.703 Y30.909
N33120G01 X30.582 Y30.991
N33130G01 X30.451 Y31.057
N33140G01 X30.311 Y31.105
N33150G01 X30.162 Y31.135
N33160G01 X30.003 Y31.146
N33170G01 X29.844 Y31.135
N33180G01 X29.694 Y31.105
N33190G01 X29.553 Y31.056
N33200G01 X29.42 Y30.99
N33210G01 X29.298 Y30.908
N33220G01 X29.187 Y30.811
N33230G01 X29.089 Y30.701
N33240G01 X29.007 Y30.579
N33250G01 X28.941 Y30.448
N33260G01 X28.893 Y30.309
N33270G01 X28.862 Y30.161
N33280G01 X28.852 Y30.003
N33290G01 X28.862 Y29.845
N33300G01 X28.893 Y29.696
N33310G01 X28.942 Y29.555
N33320G01 X29.008 Y29.423
N33330G01 X29.091 Y29.3
N33340G01 X29.189 Y29.189
N33350 G00 Z9.999
N33360 G00 X318.853 Y30.003
N33370G01 Z-8.399 F500
N33380G01 X318.863 Y29.844 F1000
N33390G01 X318.894 Y29.694
N33400G01 X318.942 Y29.553
N33410G01 X319.009 Y29.42
N33420G01 X319.091 Y29.298
N33430G01 X319.188 Y29.187
N33440G01 X319.298 Y29.089
N33450G01 X319.419 Y29.007
N33460G01 X319.55 Y28.941
N33470G01 X319.69 Y28.893
N33480G01 X319.838 Y28.862
N33490G01 X319.995 Y28.852
N33500G01 X320.154 Y28.862
N33510G01 X320.302 Y28.893
N33520G01 X320.443 Y28.942
N33530G01 X320.575 Y29.008
N33540G01 X320.698 Y29.091
N33550G01 X320.81 Y29.189
N33560G01 X320.908 Y29.3
N33570G01 X320.991 Y29.423
N33580G01 X321.057 Y29.556
N33590G01 X321.106 Y29.696
N33600G01 X321.136 Y29.845
N33610G01 X321.147 Y30.007
N33620G01 Z-7.599
N33630G01 X321.136 Y30.161
N33640G01 X321.106 Y30.309
N33650G01 X321.058 Y30.448
N33660G01 X320.992 Y30.579
N33670G01 X320.909 Y30.701
N33680G01 X320.812 Y30.811
N33690G01 X320.701 Y30.908
N33700G01 X320.579 Y30.99
N33710G01 X320.446 Y31.056
N33720G01 X320.305 Y31.105
N33730G01 X320.155 Y31.135
N33740G01 X319.995 Y31.146
N33750G01 X319.836 Y31.135
N33760G01 X319.687 Y31.105
N33770G01 X319.547 Y31.057
N33780G01 X319.416 Y30.991
N33790G01 X319.295 Y30.91
N33800G01 X319.186 Y30.813
N33810G01 X319.089 Y30.703
N33820G01 X319.008 Y30.582
N33830G01 X318.942 Y30.451
N33840G01 X318.893 Y30.311
N33850G01 X318.863 Y30.162
N33860G01 X318.853 Y30.003
N33870 G00 Z9.999
N33880 G00 X319.995 Y218.858
N33890G01 Z-8.399 F500
N33900G01 X320.155 Y218.868 F1000
N33910G01 X320.304 Y218.899
N33920G01 X320.445 Y218.948
N33930G01 X320.578 Y219.014
N33940G01 X320.701 Y219.096
N33950G01 X320.811 Y219.194
N33960G01 X320.909 Y219.304
N33970G01 X320.992 Y219.426
N33980G01 X321.058 Y219.557
N33990G01 X321.106 Y219.696
N34000G01 X321.136 Y219.844
N34010G01 X321.147 Y220.001
N34020G01 X321.136 Y220.158
N34030G01 X321.106 Y220.305
N34040G01 X321.058 Y220.444
N34050G01 X320.992 Y220.575
N34060G01 X320.909 Y220.697
N34070G01 X320.812 Y220.807
N34080G01 X320.7 Y220.905
N34090G01 X320.578 Y220.987
N34100G01 X320.445 Y221.053
N34110G01 X320.304 Y221.102
N34120G01 X320.154 Y221.133
N34130G01 X319.991 Y221.143
N34140G01 Z-7.599
N34150G01 X319.837 Y221.133
N34160G01 X319.688 Y221.102
N34170G01 X319.548 Y221.054
N34180G01 X319.417 Y220.988
N34190G01 X319.296 Y220.906
N34200G01 X319.186 Y220.81
N34210G01 X319.089 Y220.7
N34220G01 X319.008 Y220.578
N34230G01 X318.942 Y220.447
N34240G01 X318.893 Y220.307
N34250G01 X318.863 Y220.159
N34260G01 X318.853 Y220.001
N34270G01 X318.863 Y219.842
N34280G01 X318.893 Y219.694
N34290G01 X318.942 Y219.554
N34300G01 X319.008 Y219.423
N34310G01 X319.089 Y219.302
N34320G01 X319.186 Y219.191
N34330G01 X319.296 Y219.095
N34340G01 X319.417 Y219.013
N34350G01 X319.548 Y218.947
N34360G01 X319.688 Y218.899
N34370G01 X319.837 Y218.868
N34380G01 X319.995 Y218.858
N34390 G00 Z9.999
N34400 G00 X31.146 Y220.001
N34410G01 Z-8.399 F500
N34420G01 X31.136 Y220.159 F1000
N34430G01 X31.105 Y220.307
N34440G01 X31.057 Y220.447
N34450G01 X30.991 Y220.578
N34460G01 X30.909 Y220.7
N34470G01 X30.813 Y220.81
N34480G01 X30.703 Y220.906
N34490G01 X30.582 Y220.988
N34500G01 X30.45 Y221.054
N34510G01 X30.311 Y221.102
N34520G01 X30.162 Y221.133
N34530G01 X30.003 Y221.143
N34540G01 X29.844 Y221.133
N34550G01 X29.695 Y221.102
N34560G01 X29.553 Y221.053
N34570G01 X29.421 Y220.987
N34580G01 X29.298 Y220.905
N34590G01 X29.187 Y220.807
N34600G01 X29.09 Y220.697
N34610G01 X29.007 Y220.575
N34620G01 X28.941 Y220.444
N34630G01 X28.892 Y220.305
N34640G01 X28.862 Y220.157
N34650G01 X28.852 Y220.001
N34660G01 X28.852 Y219.991
N34670G01 Z-7.599
N34680G01 X28.862 Y219.844
N34690G01 X28.892 Y219.696
N34700G01 X28.941 Y219.557
N34710G01 X29.007 Y219.426
N34720G01 X29.089 Y219.304
N34730G01 X29.187 Y219.194
N34740G01 X29.298 Y219.096
N34750G01 X29.421 Y219.014
N34760G01 X29.553 Y218.948
N34770G01 X29.695 Y218.899
N34780G01 X29.844 Y218.868
N34790G01 X30.003 Y218.858
N34800G01 X30.162 Y218.868
N34810G01 X30.31 Y218.899
N34820G01 X30.45 Y218.947
N34830G01 X30.582 Y219.013
N34840G01 X30.703 Y219.095
N34850G01 X30.813 Y219.191
N34860G01 X30.909 Y219.301
N34870G01 X30.991 Y219.423
N34880G01 X31.057 Y219.554
N34890G01 X31.105 Y219.694
N34900G01 X31.136 Y219.842
N34910G01 X31.146 Y220.001
N34920 G00 Z9.999
N34930 G00 X10.001 Y241.353
N34940G01 Z-8.399 F500
N34950G01 X87.067 F1000
N34960G01 Z-7.599
N34970G01 X92.767
N34980G01 Z-8.399 F500
N34990G01 X241.18 F1000
N35000G01 Z-7.599
N35010G01 X246.88
N35020G01 Z-8.399 F500
N35030G01 X339.998 F1000
N35040G01 X340.13 Y241.347
N35050G01 X340.261 Y241.327
N35060G01 X340.39 Y241.295
N35070G01 X340.515 Y241.25
N35080G01 X340.634 Y241.194
N35090G01 X340.748 Y241.126
N35100G01 X340.854 Y241.047
N35110G01 X340.953 Y240.958
N35120G01 X341.041 Y240.859
N35130G01 X341.12 Y240.753
N35140G01 X341.189 Y240.639
N35150G01 X341.245 Y240.52
N35160G01 X341.29 Y240.395
N35170G01 X341.322 Y240.266
N35180G01 X341.341 Y240.135
N35190G01 X341.348 Y240.003
N35200G01 X341.348 Y204.999
N35210G01 X341.341 Y204.866
N35220G01 X341.322 Y204.735
N35230G01 X341.29 Y204.607
N35240G01 X341.245 Y204.482
N35250G01 X341.189 Y204.362
N35260G01 X341.12 Y204.249
N35270G01 X341.041 Y204.142
N35280G01 X340.953 Y204.044
N35290G01 X340.854 Y203.955
N35300G01 X340.748 Y203.876
N35310G01 X340.634 Y203.808
N35320G01 X340.515 Y203.751
N35330G01 X340.39 Y203.707
N35340G01 X340.261 Y203.675
N35350G01 X340.13 Y203.655
N35360G01 X339.998 Y203.649
N35370G01 X323.946
N35380G01 Z-7.599
N35390G01 X318.246
N35400G01 Z-8.399 F500
N35410G01 X234.148 F1000
N35420G01 X227.18 Y203.277
N35430G01 X221.18 Y202.205
N35440G01 X216.087 Y200.492
N35450G01 X211.867 Y198.197
N35460G01 X208.474 Y195.373
N35470G01 X205.856 Y192.056
N35480G01 X203.972 Y188.269
N35490G01 X202.798 Y184.03
N35500G01 X202.322 Y179.369
N35510G01 X202.535 Y174.327
N35520G01 X203.424 Y168.952
N35530G01 X204.975 Y163.295
N35540G01 X205.935 Y160.717
N35550G01 Z-7.599
N35560G01 X207.168 Y157.407
N35570G01 X208.08 Y155.44
N35580G01 Z-8.399 F500
N35590G01 X209.982 Y151.341 F1000
N35600G01 X213.395 Y145.146
N35610G01 X217.384 Y138.872
N35620G01 X221.925 Y132.568
N35630G01 X226.995 Y126.283
N35640G01 X232.569 Y120.063
N35650G01 X238.625 Y113.958
N35660G01 X245.138 Y108.014
N35670G01 X252.084 Y102.28
N35680G01 X259.439 Y96.801
N35690G01 X267.18 Y91.625
N35700G01 X275.281 Y86.8
N35710G01 X283.719 Y82.37
N35720G01 X292.471 Y78.384
N35730G01 X301.511 Y74.887
N35740G01 X310.818 Y71.926
N35750G01 X320.366 Y69.546
N35760G01 X322.735 Y69.121
N35770G01 Z-7.599
N35780G01 X328.346 Y68.115
N35790G01 Z-8.399 F500
N35800G01 X330.133 Y67.795 F1000
N35810G01 X340.143 Y66.711
N35820G01 X340.261 Y66.693
N35830G01 X340.39 Y66.661
N35840G01 X340.515 Y66.616
N35850G01 X340.634 Y66.56
N35860G01 X340.748 Y66.492
N35870G01 X340.854 Y66.413
N35880G01 X340.953 Y66.324
N35890G01 X341.041 Y66.226
N35900G01 X341.12 Y66.119
N35910G01 X341.189 Y66.006
N35920G01 X341.245 Y65.886
N35930G01 X341.29 Y65.761
N35940G01 X341.322 Y65.633
N35950G01 X341.341 Y65.502
N35960G01 X341.348 Y65.369
N35970G01 Y10.001
N35980G01 X341.341 Y9.868
N35990G01 X341.322 Y9.737
N36000G01 X341.29 Y9.609
N36010G01 X341.245 Y9.484
N36020G01 X341.189 Y9.364
N36030G01 X341.12 Y9.251
N36040G01 X341.041 Y9.144
N36050G01 X340.953 Y9.046
N36060G01 X340.854 Y8.957
N36070G01 X340.748 Y8.878
N36080G01 X340.634 Y8.81
N36090G01 X340.515 Y8.754
N36100G01 X340.39 Y8.709
N36110G01 X340.261 Y8.677
N36120G01 X340.13 Y8.657
N36130G01 X339.998 Y8.651
N36140G01 X262.931 Y8.652
N36150G01 Z-7.599
N36160G01 X257.231 Y8.652
N36170G01 Z-8.399 F500
N36180G01 X108.818 Y8.655 F1000
N36190G01 Z-7.599
N36200G01 X103.118 Y8.655
N36210G01 Z-8.399 F500
N36220G01 X9.868 Y8.657 F1000
N36230G01 X9.737 Y8.677
N36240G01 X9.609 Y8.709
N36250G01 X9.484 Y8.754
N36260G01 X9.364 Y8.81
N36270G01 X9.251 Y8.878
N36280G01 X9.144 Y8.957
N36290G01 X9.046 Y9.046
N36300G01 X8.957 Y9.144
N36310G01 X8.878 Y9.251
N36320G01 X8.81 Y9.364
N36330G01 X8.754 Y9.484
N36340G01 X8.709 Y9.609
N36350G01 X8.677 Y9.737
N36360G01 X8.657 Y9.868
N36370G01 X8.651 Y10.001
N36380G01 X8.651 Y44.996
N36390G01 X8.657 Y45.129
N36400G01 X8.677 Y45.26
N36410G01 X8.709 Y45.388
N36420G01 X8.754 Y45.513
N36430G01 X8.81 Y45.633
N36440G01 X8.878 Y45.746
N36450G01 X8.957 Y45.853
N36460G01 X9.046 Y45.951
N36470G01 X9.144 Y46.04
N36480G01 X9.251 Y46.119
N36490G01 X9.364 Y46.187
N36500G01 X9.484 Y46.244
N36510G01 X9.609 Y46.288
N36520G01 X9.737 Y46.32
N36530G01 X9.868 Y46.34
N36540G01 X10.001 Y46.346
N36550G01 X26.061
N36560G01 Z-7.599
N36570G01 X31.761
N36580G01 Z-8.399 F500
N36590G01 X115.851 F1000
N36600G01 X122.819 Y46.718
N36610G01 X128.819 Y47.79
N36620G01 X133.911 Y49.503
N36630G01 X138.131 Y51.798
N36640G01 X141.525 Y54.622
N36650G01 X144.142 Y57.939
N36660G01 X146.026 Y61.726
N36670G01 X147.2 Y65.965
N36680G01 X147.676 Y70.626
N36690G01 X147.464 Y75.668
N36700G01 X146.574 Y81.043
N36710G01 X145.024 Y86.7
N36720G01 X144.06 Y89.287
N36730G01 Z-7.599
N36740G01 X142.831 Y92.588
N36750G01 X141.915 Y94.563
N36760G01 Z-8.399 F500
N36770G01 X140.017 Y98.654 F1000
N36780G01 X136.604 Y104.849
N36790G01 X132.615 Y111.123
N36800G01 X128.074 Y117.427
N36810G01 X123.004 Y123.712
N36820G01 X117.429 Y129.932
N36830G01 X111.373 Y136.037
N36840G01 X104.86 Y141.981
N36850G01 X97.915 Y147.715
N36860G01 X90.559 Y153.194
N36870G01 X82.819 Y158.37
N36880G01 X74.718 Y163.195
N36890G01 X66.28 Y167.625
N36900G01 X57.528 Y171.611
N36910G01 X48.487 Y175.108
N36920G01 X39.181 Y178.069
N36930G01 X29.633 Y180.449
N36940G01 X27.254 Y180.875
N36950G01 Z-7.599
N36960G01 X21.644 Y181.882
N36970G01 Z-8.399 F500
N36980G01 X19.866 Y182.2 F1000
N36990G01 X9.856 Y183.284
N37000G01 X9.737 Y183.302
N37010G01 X9.609 Y183.334
N37020G01 X9.484 Y183.379
N37030G01 X9.364 Y183.435
N37040G01 X9.251 Y183.503
N37050G01 X9.144 Y183.582
N37060G01 X9.046 Y183.671
N37070G01 X8.957 Y183.769
N37080G01 X8.878 Y183.876
N37090G01 X8.81 Y183.989
N37100G01 X8.754 Y184.109
N37110G01 X8.709 Y184.234
N37120G01 X8.677 Y184.362
N37130G01 X8.657 Y184.493
N37140G01 X8.651 Y184.626
N37150G01 X8.651 Y240.003
N37160G01 X8.657 Y240.135
N37170G01 X8.677 Y240.266
N37180G01 X8.709 Y240.395
N37190G01 X8.754 Y240.52
N37200G01 X8.81 Y240.639
N37210G01 X8.878 Y240.753
N37220G01 X8.957 Y240.859
N37230G01 X9.046 Y240.958
N37240G01 X9.144 Y241.047
N37250G01 X9.251 Y241.126
N37260G01 X9.364 Y241.194
N37270G01 X9.484 Y241.25
N37280G01 X9.609 Y241.295
N37290G01 X9.737 Y241.327
N37300G01 X9.868 Y241.347
N37310G01 X10.001 Y241.353
N37320 G00 Z9.999
N37330 M02
