(GCode created using the HeeksCNC Mach3 post processor)
(/home/user/git-repos/donation-box/designs/3D/blender/top panel/middle-cutout-file.tap)
(G-code generated with BlenderCAM and NC library)
N10 G17 G21 G90
(Tool change)
N20G43H1
N30T1 M06
N40 G00 X0 Y0 Z9.999 S12000 M03
N50 G00 X46.327 Y34.897
N60G01 Z-1 F500
N70G01 X303.637 F1000
N80G01 X303.637 Y205.177
N90G01 X289.957
N100G01 X289.825 Y205.183
N110G01 X289.694 Y205.203
N120G01 X289.565 Y205.235
N130G01 X289.44 Y205.28
N140G01 X289.321 Y205.336
N150G01 X289.207 Y205.405
N160G01 X289.101 Y205.483
N170G01 X289.002 Y205.572
N180G01 X288.913 Y205.671
N190G01 X288.835 Y205.777
N200G01 X288.766 Y205.891
N210G01 X288.71 Y206.01
N220G01 X288.665 Y206.135
N230G01 X288.633 Y206.264
N240G01 X288.614 Y206.395
N250G01 X288.607 Y206.527
N260G01 Y225.157
N270G01 X131.377
N280G01 Y206.527
N290G01 X131.371 Y206.395
N300G01 X131.351 Y206.264
N310G01 X131.319 Y206.135
N320G01 X131.274 Y206.01
N330G01 X131.218 Y205.891
N340G01 X131.15 Y205.777
N350G01 X131.071 Y205.671
N360G01 X130.982 Y205.572
N370G01 X130.883 Y205.483
N380G01 X130.777 Y205.405
N390G01 X130.663 Y205.336
N400G01 X130.544 Y205.28
N410G01 X130.419 Y205.235
N420G01 X130.29 Y205.203
N430G01 X130.159 Y205.183
N440G01 X130.027 Y205.177
N450G01 X46.327
N460G01 Y179.977
N470G01 X46.321 Y179.845
N480G01 X46.301 Y179.714
N490G01 X46.269 Y179.585
N500G01 X46.224 Y179.46
N510G01 X46.168 Y179.341
N520G01 X46.099 Y179.227
N530G01 X46.021 Y179.121
N540G01 X45.932 Y179.022
N550G01 X45.833 Y178.933
N560G01 X45.727 Y178.855
N570G01 X45.613 Y178.786
N580G01 X45.494 Y178.73
N590G01 X45.369 Y178.685
N600G01 X45.24 Y178.653
N610G01 X45.109 Y178.634
N620G01 X44.977 Y178.627
N630G01 X21.307
N640G01 X21.307 Y61.357
N650G01 X44.977
N660G01 X45.109 Y61.351
N670G01 X45.24 Y61.331
N680G01 X45.369 Y61.299
N690G01 X45.494 Y61.254
N700G01 X45.613 Y61.198
N710G01 X45.727 Y61.129
N720G01 X45.833 Y61.051
N730G01 X45.932 Y60.962
N740G01 X46.021 Y60.863
N750G01 X46.099 Y60.757
N760G01 X46.168 Y60.643
N770G01 X46.224 Y60.524
N780G01 X46.269 Y60.399
N790G01 X46.301 Y60.27
N800G01 X46.321 Y60.139
N810G01 X46.327 Y60.007
N820G01 Y34.897
N830 G00 Z9.999
N840 G00 X-0.154 Y-1.365
N850G01 Z-1 F500
N860G01 X-0.285 Y-1.346 F1000
N870G01 X-0.414 Y-1.314
N880G01 X-0.539 Y-1.269
N890G01 X-0.658 Y-1.213
N900G01 X-0.772 Y-1.144
N910G01 X-0.878 Y-1.066
N920G01 X-0.977 Y-0.977
N930G01 X-1.066 Y-0.878
N940G01 X-1.144 Y-0.772
N950G01 X-1.213 Y-0.658
N960G01 X-1.269 Y-0.539
N970G01 X-1.314 Y-0.414
N980G01 X-1.346 Y-0.285
N990G01 X-1.365 Y-0.154
N1000G01 X-1.372 Y-0.022
N1010G01 X-1.372 Y251.617
N1020G01 X-1.365 Y251.749
N1030G01 X-1.346 Y251.88
N1040G01 X-1.314 Y252.009
N1050G01 X-1.269 Y252.134
N1060G01 X-1.213 Y252.253
N1070G01 X-1.144 Y252.367
N1080G01 X-1.066 Y252.473
N1090G01 X-0.977 Y252.572
N1100G01 X-0.878 Y252.661
N1110G01 X-0.772 Y252.739
N1120G01 X-0.658 Y252.808
N1130G01 X-0.539 Y252.864
N1140G01 X-0.414 Y252.909
N1150G01 X-0.285 Y252.941
N1160G01 X-0.154 Y252.96
N1170G01 X-0.022 Y252.967
N1180G01 X349.987
N1190G01 X350.119 Y252.96
N1200G01 X350.25 Y252.941
N1210G01 X350.379 Y252.909
N1220G01 X350.504 Y252.864
N1230G01 X350.623 Y252.808
N1240G01 X350.737 Y252.739
N1250G01 X350.843 Y252.661
N1260G01 X350.942 Y252.572
N1270G01 X351.031 Y252.473
N1280G01 X351.109 Y252.367
N1290G01 X351.178 Y252.253
N1300G01 X351.234 Y252.134
N1310G01 X351.279 Y252.009
N1320G01 X351.311 Y251.88
N1330G01 X351.33 Y251.749
N1340G01 X351.337 Y251.617
N1350G01 X351.337 Y-0.022
N1360G01 X351.33 Y-0.154
N1370G01 X351.311 Y-0.285
N1380G01 X351.279 Y-0.414
N1390G01 X351.234 Y-0.539
N1400G01 X351.178 Y-0.658
N1410G01 X351.109 Y-0.772
N1420G01 X351.031 Y-0.878
N1430G01 X350.942 Y-0.977
N1440G01 X350.843 Y-1.066
N1450G01 X350.737 Y-1.144
N1460G01 X350.623 Y-1.213
N1470G01 X350.504 Y-1.269
N1480G01 X350.379 Y-1.314
N1490G01 X350.25 Y-1.346
N1500G01 X350.119 Y-1.365
N1510G01 X349.987 Y-1.372
N1520G01 X-0.154 Y-1.365
N1530 G00 Z9.999
N1540 G00 X46.327 Y34.897
N1550G01 Z-2 F500
N1560G01 X303.637 F1000
N1570G01 X303.637 Y205.177
N1580G01 X289.957
N1590G01 X289.825 Y205.183
N1600G01 X289.694 Y205.203
N1610G01 X289.565 Y205.235
N1620G01 X289.44 Y205.28
N1630G01 X289.321 Y205.336
N1640G01 X289.207 Y205.405
N1650G01 X289.101 Y205.483
N1660G01 X289.002 Y205.572
N1670G01 X288.913 Y205.671
N1680G01 X288.835 Y205.777
N1690G01 X288.766 Y205.891
N1700G01 X288.71 Y206.01
N1710G01 X288.665 Y206.135
N1720G01 X288.633 Y206.264
N1730G01 X288.614 Y206.395
N1740G01 X288.607 Y206.527
N1750G01 Y225.157
N1760G01 X131.377
N1770G01 Y206.527
N1780G01 X131.371 Y206.395
N1790G01 X131.351 Y206.264
N1800G01 X131.319 Y206.135
N1810G01 X131.274 Y206.01
N1820G01 X131.218 Y205.891
N1830G01 X131.15 Y205.777
N1840G01 X131.071 Y205.671
N1850G01 X130.982 Y205.572
N1860G01 X130.883 Y205.483
N1870G01 X130.777 Y205.405
N1880G01 X130.663 Y205.336
N1890G01 X130.544 Y205.28
N1900G01 X130.419 Y205.235
N1910G01 X130.29 Y205.203
N1920G01 X130.159 Y205.183
N1930G01 X130.027 Y205.177
N1940G01 X46.327
N1950G01 Y179.977
N1960G01 X46.321 Y179.845
N1970G01 X46.301 Y179.714
N1980G01 X46.269 Y179.585
N1990G01 X46.224 Y179.46
N2000G01 X46.168 Y179.341
N2010G01 X46.099 Y179.227
N2020G01 X46.021 Y179.121
N2030G01 X45.932 Y179.022
N2040G01 X45.833 Y178.933
N2050G01 X45.727 Y178.855
N2060G01 X45.613 Y178.786
N2070G01 X45.494 Y178.73
N2080G01 X45.369 Y178.685
N2090G01 X45.24 Y178.653
N2100G01 X45.109 Y178.634
N2110G01 X44.977 Y178.627
N2120G01 X21.307
N2130G01 X21.307 Y61.357
N2140G01 X44.977
N2150G01 X45.109 Y61.351
N2160G01 X45.24 Y61.331
N2170G01 X45.369 Y61.299
N2180G01 X45.494 Y61.254
N2190G01 X45.613 Y61.198
N2200G01 X45.727 Y61.129
N2210G01 X45.833 Y61.051
N2220G01 X45.932 Y60.962
N2230G01 X46.021 Y60.863
N2240G01 X46.099 Y60.757
N2250G01 X46.168 Y60.643
N2260G01 X46.224 Y60.524
N2270G01 X46.269 Y60.399
N2280G01 X46.301 Y60.27
N2290G01 X46.321 Y60.139
N2300G01 X46.327 Y60.007
N2310G01 Y34.897
N2320 G00 Z9.999
N2330 G00 X-0.154 Y-1.365
N2340G01 Z-2 F500
N2350G01 X-0.285 Y-1.346 F1000
N2360G01 X-0.414 Y-1.314
N2370G01 X-0.539 Y-1.269
N2380G01 X-0.658 Y-1.213
N2390G01 X-0.772 Y-1.144
N2400G01 X-0.878 Y-1.066
N2410G01 X-0.977 Y-0.977
N2420G01 X-1.066 Y-0.878
N2430G01 X-1.144 Y-0.772
N2440G01 X-1.213 Y-0.658
N2450G01 X-1.269 Y-0.539
N2460G01 X-1.314 Y-0.414
N2470G01 X-1.346 Y-0.285
N2480G01 X-1.365 Y-0.154
N2490G01 X-1.372 Y-0.022
N2500G01 X-1.372 Y251.617
N2510G01 X-1.365 Y251.749
N2520G01 X-1.346 Y251.88
N2530G01 X-1.314 Y252.009
N2540G01 X-1.269 Y252.134
N2550G01 X-1.213 Y252.253
N2560G01 X-1.144 Y252.367
N2570G01 X-1.066 Y252.473
N2580G01 X-0.977 Y252.572
N2590G01 X-0.878 Y252.661
N2600G01 X-0.772 Y252.739
N2610G01 X-0.658 Y252.808
N2620G01 X-0.539 Y252.864
N2630G01 X-0.414 Y252.909
N2640G01 X-0.285 Y252.941
N2650G01 X-0.154 Y252.96
N2660G01 X-0.022 Y252.967
N2670G01 X349.987
N2680G01 X350.119 Y252.96
N2690G01 X350.25 Y252.941
N2700G01 X350.379 Y252.909
N2710G01 X350.504 Y252.864
N2720G01 X350.623 Y252.808
N2730G01 X350.737 Y252.739
N2740G01 X350.843 Y252.661
N2750G01 X350.942 Y252.572
N2760G01 X351.031 Y252.473
N2770G01 X351.109 Y252.367
N2780G01 X351.178 Y252.253
N2790G01 X351.234 Y252.134
N2800G01 X351.279 Y252.009
N2810G01 X351.311 Y251.88
N2820G01 X351.33 Y251.749
N2830G01 X351.337 Y251.617
N2840G01 X351.337 Y-0.022
N2850G01 X351.33 Y-0.154
N2860G01 X351.311 Y-0.285
N2870G01 X351.279 Y-0.414
N2880G01 X351.234 Y-0.539
N2890G01 X351.178 Y-0.658
N2900G01 X351.109 Y-0.772
N2910G01 X351.031 Y-0.878
N2920G01 X350.942 Y-0.977
N2930G01 X350.843 Y-1.066
N2940G01 X350.737 Y-1.144
N2950G01 X350.623 Y-1.213
N2960G01 X350.504 Y-1.269
N2970G01 X350.379 Y-1.314
N2980G01 X350.25 Y-1.346
N2990G01 X350.119 Y-1.365
N3000G01 X349.987 Y-1.372
N3010G01 X-0.154 Y-1.365
N3020 G00 Z9.999
N3030 G00 X46.327 Y34.897
N3040G01 Z-3 F500
N3050G01 X303.637 F1000
N3060G01 X303.637 Y205.177
N3070G01 X289.957
N3080G01 X289.825 Y205.183
N3090G01 X289.694 Y205.203
N3100G01 X289.565 Y205.235
N3110G01 X289.44 Y205.28
N3120G01 X289.321 Y205.336
N3130G01 X289.207 Y205.405
N3140G01 X289.101 Y205.483
N3150G01 X289.002 Y205.572
N3160G01 X288.913 Y205.671
N3170G01 X288.835 Y205.777
N3180G01 X288.766 Y205.891
N3190G01 X288.71 Y206.01
N3200G01 X288.665 Y206.135
N3210G01 X288.633 Y206.264
N3220G01 X288.614 Y206.395
N3230G01 X288.607 Y206.527
N3240G01 Y225.157
N3250G01 X131.377
N3260G01 Y206.527
N3270G01 X131.371 Y206.395
N3280G01 X131.351 Y206.264
N3290G01 X131.319 Y206.135
N3300G01 X131.274 Y206.01
N3310G01 X131.218 Y205.891
N3320G01 X131.15 Y205.777
N3330G01 X131.071 Y205.671
N3340G01 X130.982 Y205.572
N3350G01 X130.883 Y205.483
N3360G01 X130.777 Y205.405
N3370G01 X130.663 Y205.336
N3380G01 X130.544 Y205.28
N3390G01 X130.419 Y205.235
N3400G01 X130.29 Y205.203
N3410G01 X130.159 Y205.183
N3420G01 X130.027 Y205.177
N3430G01 X46.327
N3440G01 Y179.977
N3450G01 X46.321 Y179.845
N3460G01 X46.301 Y179.714
N3470G01 X46.269 Y179.585
N3480G01 X46.224 Y179.46
N3490G01 X46.168 Y179.341
N3500G01 X46.099 Y179.227
N3510G01 X46.021 Y179.121
N3520G01 X45.932 Y179.022
N3530G01 X45.833 Y178.933
N3540G01 X45.727 Y178.855
N3550G01 X45.613 Y178.786
N3560G01 X45.494 Y178.73
N3570G01 X45.369 Y178.685
N3580G01 X45.24 Y178.653
N3590G01 X45.109 Y178.634
N3600G01 X44.977 Y178.627
N3610G01 X21.307
N3620G01 X21.307 Y61.357
N3630G01 X44.977
N3640G01 X45.109 Y61.351
N3650G01 X45.24 Y61.331
N3660G01 X45.369 Y61.299
N3670G01 X45.494 Y61.254
N3680G01 X45.613 Y61.198
N3690G01 X45.727 Y61.129
N3700G01 X45.833 Y61.051
N3710G01 X45.932 Y60.962
N3720G01 X46.021 Y60.863
N3730G01 X46.099 Y60.757
N3740G01 X46.168 Y60.643
N3750G01 X46.224 Y60.524
N3760G01 X46.269 Y60.399
N3770G01 X46.301 Y60.27
N3780G01 X46.321 Y60.139
N3790G01 X46.327 Y60.007
N3800G01 Y34.897
N3810 G00 Z9.999
N3820 G00 X-0.154 Y-1.365
N3830G01 Z-3 F500
N3840G01 X-0.285 Y-1.346 F1000
N3850G01 X-0.414 Y-1.314
N3860G01 X-0.539 Y-1.269
N3870G01 X-0.658 Y-1.213
N3880G01 X-0.772 Y-1.144
N3890G01 X-0.878 Y-1.066
N3900G01 X-0.977 Y-0.977
N3910G01 X-1.066 Y-0.878
N3920G01 X-1.144 Y-0.772
N3930G01 X-1.213 Y-0.658
N3940G01 X-1.269 Y-0.539
N3950G01 X-1.314 Y-0.414
N3960G01 X-1.346 Y-0.285
N3970G01 X-1.365 Y-0.154
N3980G01 X-1.372 Y-0.022
N3990G01 X-1.372 Y251.617
N4000G01 X-1.365 Y251.749
N4010G01 X-1.346 Y251.88
N4020G01 X-1.314 Y252.009
N4030G01 X-1.269 Y252.134
N4040G01 X-1.213 Y252.253
N4050G01 X-1.144 Y252.367
N4060G01 X-1.066 Y252.473
N4070G01 X-0.977 Y252.572
N4080G01 X-0.878 Y252.661
N4090G01 X-0.772 Y252.739
N4100G01 X-0.658 Y252.808
N4110G01 X-0.539 Y252.864
N4120G01 X-0.414 Y252.909
N4130G01 X-0.285 Y252.941
N4140G01 X-0.154 Y252.96
N4150G01 X-0.022 Y252.967
N4160G01 X349.987
N4170G01 X350.119 Y252.96
N4180G01 X350.25 Y252.941
N4190G01 X350.379 Y252.909
N4200G01 X350.504 Y252.864
N4210G01 X350.623 Y252.808
N4220G01 X350.737 Y252.739
N4230G01 X350.843 Y252.661
N4240G01 X350.942 Y252.572
N4250G01 X351.031 Y252.473
N4260G01 X351.109 Y252.367
N4270G01 X351.178 Y252.253
N4280G01 X351.234 Y252.134
N4290G01 X351.279 Y252.009
N4300G01 X351.311 Y251.88
N4310G01 X351.33 Y251.749
N4320G01 X351.337 Y251.617
N4330G01 X351.337 Y-0.022
N4340G01 X351.33 Y-0.154
N4350G01 X351.311 Y-0.285
N4360G01 X351.279 Y-0.414
N4370G01 X351.234 Y-0.539
N4380G01 X351.178 Y-0.658
N4390G01 X351.109 Y-0.772
N4400G01 X351.031 Y-0.878
N4410G01 X350.942 Y-0.977
N4420G01 X350.843 Y-1.066
N4430G01 X350.737 Y-1.144
N4440G01 X350.623 Y-1.213
N4450G01 X350.504 Y-1.269
N4460G01 X350.379 Y-1.314
N4470G01 X350.25 Y-1.346
N4480G01 X350.119 Y-1.365
N4490G01 X349.987 Y-1.372
N4500G01 X-0.154 Y-1.365
N4510 G00 Z9.999
N4520 G00 X46.327 Y34.897
N4530G01 Z-4 F500
N4540G01 X303.637 F1000
N4550G01 X303.637 Y205.177
N4560G01 X289.957
N4570G01 X289.825 Y205.183
N4580G01 X289.694 Y205.203
N4590G01 X289.565 Y205.235
N4600G01 X289.44 Y205.28
N4610G01 X289.321 Y205.336
N4620G01 X289.207 Y205.405
N4630G01 X289.101 Y205.483
N4640G01 X289.002 Y205.572
N4650G01 X288.913 Y205.671
N4660G01 X288.835 Y205.777
N4670G01 X288.766 Y205.891
N4680G01 X288.71 Y206.01
N4690G01 X288.665 Y206.135
N4700G01 X288.633 Y206.264
N4710G01 X288.614 Y206.395
N4720G01 X288.607 Y206.527
N4730G01 Y225.157
N4740G01 X131.377
N4750G01 Y206.527
N4760G01 X131.371 Y206.395
N4770G01 X131.351 Y206.264
N4780G01 X131.319 Y206.135
N4790G01 X131.274 Y206.01
N4800G01 X131.218 Y205.891
N4810G01 X131.15 Y205.777
N4820G01 X131.071 Y205.671
N4830G01 X130.982 Y205.572
N4840G01 X130.883 Y205.483
N4850G01 X130.777 Y205.405
N4860G01 X130.663 Y205.336
N4870G01 X130.544 Y205.28
N4880G01 X130.419 Y205.235
N4890G01 X130.29 Y205.203
N4900G01 X130.159 Y205.183
N4910G01 X130.027 Y205.177
N4920G01 X46.327
N4930G01 Y179.977
N4940G01 X46.321 Y179.845
N4950G01 X46.301 Y179.714
N4960G01 X46.269 Y179.585
N4970G01 X46.224 Y179.46
N4980G01 X46.168 Y179.341
N4990G01 X46.099 Y179.227
N5000G01 X46.021 Y179.121
N5010G01 X45.932 Y179.022
N5020G01 X45.833 Y178.933
N5030G01 X45.727 Y178.855
N5040G01 X45.613 Y178.786
N5050G01 X45.494 Y178.73
N5060G01 X45.369 Y178.685
N5070G01 X45.24 Y178.653
N5080G01 X45.109 Y178.634
N5090G01 X44.977 Y178.627
N5100G01 X21.307
N5110G01 X21.307 Y61.357
N5120G01 X44.977
N5130G01 X45.109 Y61.351
N5140G01 X45.24 Y61.331
N5150G01 X45.369 Y61.299
N5160G01 X45.494 Y61.254
N5170G01 X45.613 Y61.198
N5180G01 X45.727 Y61.129
N5190G01 X45.833 Y61.051
N5200G01 X45.932 Y60.962
N5210G01 X46.021 Y60.863
N5220G01 X46.099 Y60.757
N5230G01 X46.168 Y60.643
N5240G01 X46.224 Y60.524
N5250G01 X46.269 Y60.399
N5260G01 X46.301 Y60.27
N5270G01 X46.321 Y60.139
N5280G01 X46.327 Y60.007
N5290G01 Y34.897
N5300 G00 Z9.999
N5310 G00 X-0.154 Y-1.365
N5320G01 Z-4 F500
N5330G01 X-0.285 Y-1.346 F1000
N5340G01 X-0.414 Y-1.314
N5350G01 X-0.539 Y-1.269
N5360G01 X-0.658 Y-1.213
N5370G01 X-0.772 Y-1.144
N5380G01 X-0.878 Y-1.066
N5390G01 X-0.977 Y-0.977
N5400G01 X-1.066 Y-0.878
N5410G01 X-1.144 Y-0.772
N5420G01 X-1.213 Y-0.658
N5430G01 X-1.269 Y-0.539
N5440G01 X-1.314 Y-0.414
N5450G01 X-1.346 Y-0.285
N5460G01 X-1.365 Y-0.154
N5470G01 X-1.372 Y-0.022
N5480G01 X-1.372 Y251.617
N5490G01 X-1.365 Y251.749
N5500G01 X-1.346 Y251.88
N5510G01 X-1.314 Y252.009
N5520G01 X-1.269 Y252.134
N5530G01 X-1.213 Y252.253
N5540G01 X-1.144 Y252.367
N5550G01 X-1.066 Y252.473
N5560G01 X-0.977 Y252.572
N5570G01 X-0.878 Y252.661
N5580G01 X-0.772 Y252.739
N5590G01 X-0.658 Y252.808
N5600G01 X-0.539 Y252.864
N5610G01 X-0.414 Y252.909
N5620G01 X-0.285 Y252.941
N5630G01 X-0.154 Y252.96
N5640G01 X-0.022 Y252.967
N5650G01 X349.987
N5660G01 X350.119 Y252.96
N5670G01 X350.25 Y252.941
N5680G01 X350.379 Y252.909
N5690G01 X350.504 Y252.864
N5700G01 X350.623 Y252.808
N5710G01 X350.737 Y252.739
N5720G01 X350.843 Y252.661
N5730G01 X350.942 Y252.572
N5740G01 X351.031 Y252.473
N5750G01 X351.109 Y252.367
N5760G01 X351.178 Y252.253
N5770G01 X351.234 Y252.134
N5780G01 X351.279 Y252.009
N5790G01 X351.311 Y251.88
N5800G01 X351.33 Y251.749
N5810G01 X351.337 Y251.617
N5820G01 X351.337 Y-0.022
N5830G01 X351.33 Y-0.154
N5840G01 X351.311 Y-0.285
N5850G01 X351.279 Y-0.414
N5860G01 X351.234 Y-0.539
N5870G01 X351.178 Y-0.658
N5880G01 X351.109 Y-0.772
N5890G01 X351.031 Y-0.878
N5900G01 X350.942 Y-0.977
N5910G01 X350.843 Y-1.066
N5920G01 X350.737 Y-1.144
N5930G01 X350.623 Y-1.213
N5940G01 X350.504 Y-1.269
N5950G01 X350.379 Y-1.314
N5960G01 X350.25 Y-1.346
N5970G01 X350.119 Y-1.365
N5980G01 X349.987 Y-1.372
N5990G01 X-0.154 Y-1.365
N6000 G00 Z9.999
N6010 G00 X46.327 Y34.897
N6020G01 Z-5 F500
N6030G01 X303.637 F1000
N6040G01 X303.637 Y205.177
N6050G01 X289.957
N6060G01 X289.825 Y205.183
N6070G01 X289.694 Y205.203
N6080G01 X289.565 Y205.235
N6090G01 X289.44 Y205.28
N6100G01 X289.321 Y205.336
N6110G01 X289.207 Y205.405
N6120G01 X289.101 Y205.483
N6130G01 X289.002 Y205.572
N6140G01 X288.913 Y205.671
N6150G01 X288.835 Y205.777
N6160G01 X288.766 Y205.891
N6170G01 X288.71 Y206.01
N6180G01 X288.665 Y206.135
N6190G01 X288.633 Y206.264
N6200G01 X288.614 Y206.395
N6210G01 X288.607 Y206.527
N6220G01 Y225.157
N6230G01 X131.377
N6240G01 Y206.527
N6250G01 X131.371 Y206.395
N6260G01 X131.351 Y206.264
N6270G01 X131.319 Y206.135
N6280G01 X131.274 Y206.01
N6290G01 X131.218 Y205.891
N6300G01 X131.15 Y205.777
N6310G01 X131.071 Y205.671
N6320G01 X130.982 Y205.572
N6330G01 X130.883 Y205.483
N6340G01 X130.777 Y205.405
N6350G01 X130.663 Y205.336
N6360G01 X130.544 Y205.28
N6370G01 X130.419 Y205.235
N6380G01 X130.29 Y205.203
N6390G01 X130.159 Y205.183
N6400G01 X130.027 Y205.177
N6410G01 X46.327
N6420G01 Y179.977
N6430G01 X46.321 Y179.845
N6440G01 X46.301 Y179.714
N6450G01 X46.269 Y179.585
N6460G01 X46.224 Y179.46
N6470G01 X46.168 Y179.341
N6480G01 X46.099 Y179.227
N6490G01 X46.021 Y179.121
N6500G01 X45.932 Y179.022
N6510G01 X45.833 Y178.933
N6520G01 X45.727 Y178.855
N6530G01 X45.613 Y178.786
N6540G01 X45.494 Y178.73
N6550G01 X45.369 Y178.685
N6560G01 X45.24 Y178.653
N6570G01 X45.109 Y178.634
N6580G01 X44.977 Y178.627
N6590G01 X21.307
N6600G01 X21.307 Y61.357
N6610G01 X44.977
N6620G01 X45.109 Y61.351
N6630G01 X45.24 Y61.331
N6640G01 X45.369 Y61.299
N6650G01 X45.494 Y61.254
N6660G01 X45.613 Y61.198
N6670G01 X45.727 Y61.129
N6680G01 X45.833 Y61.051
N6690G01 X45.932 Y60.962
N6700G01 X46.021 Y60.863
N6710G01 X46.099 Y60.757
N6720G01 X46.168 Y60.643
N6730G01 X46.224 Y60.524
N6740G01 X46.269 Y60.399
N6750G01 X46.301 Y60.27
N6760G01 X46.321 Y60.139
N6770G01 X46.327 Y60.007
N6780G01 Y34.897
N6790 G00 Z9.999
N6800 G00 X-0.154 Y-1.365
N6810G01 Z-5 F500
N6820G01 X-0.285 Y-1.346 F1000
N6830G01 X-0.414 Y-1.314
N6840G01 X-0.539 Y-1.269
N6850G01 X-0.658 Y-1.213
N6860G01 X-0.772 Y-1.144
N6870G01 X-0.878 Y-1.066
N6880G01 X-0.977 Y-0.977
N6890G01 X-1.066 Y-0.878
N6900G01 X-1.144 Y-0.772
N6910G01 X-1.213 Y-0.658
N6920G01 X-1.269 Y-0.539
N6930G01 X-1.314 Y-0.414
N6940G01 X-1.346 Y-0.285
N6950G01 X-1.365 Y-0.154
N6960G01 X-1.372 Y-0.022
N6970G01 X-1.372 Y251.617
N6980G01 X-1.365 Y251.749
N6990G01 X-1.346 Y251.88
N7000G01 X-1.314 Y252.009
N7010G01 X-1.269 Y252.134
N7020G01 X-1.213 Y252.253
N7030G01 X-1.144 Y252.367
N7040G01 X-1.066 Y252.473
N7050G01 X-0.977 Y252.572
N7060G01 X-0.878 Y252.661
N7070G01 X-0.772 Y252.739
N7080G01 X-0.658 Y252.808
N7090G01 X-0.539 Y252.864
N7100G01 X-0.414 Y252.909
N7110G01 X-0.285 Y252.941
N7120G01 X-0.154 Y252.96
N7130G01 X-0.022 Y252.967
N7140G01 X349.987
N7150G01 X350.119 Y252.96
N7160G01 X350.25 Y252.941
N7170G01 X350.379 Y252.909
N7180G01 X350.504 Y252.864
N7190G01 X350.623 Y252.808
N7200G01 X350.737 Y252.739
N7210G01 X350.843 Y252.661
N7220G01 X350.942 Y252.572
N7230G01 X351.031 Y252.473
N7240G01 X351.109 Y252.367
N7250G01 X351.178 Y252.253
N7260G01 X351.234 Y252.134
N7270G01 X351.279 Y252.009
N7280G01 X351.311 Y251.88
N7290G01 X351.33 Y251.749
N7300G01 X351.337 Y251.617
N7310G01 X351.337 Y-0.022
N7320G01 X351.33 Y-0.154
N7330G01 X351.311 Y-0.285
N7340G01 X351.279 Y-0.414
N7350G01 X351.234 Y-0.539
N7360G01 X351.178 Y-0.658
N7370G01 X351.109 Y-0.772
N7380G01 X351.031 Y-0.878
N7390G01 X350.942 Y-0.977
N7400G01 X350.843 Y-1.066
N7410G01 X350.737 Y-1.144
N7420G01 X350.623 Y-1.213
N7430G01 X350.504 Y-1.269
N7440G01 X350.379 Y-1.314
N7450G01 X350.25 Y-1.346
N7460G01 X350.119 Y-1.365
N7470G01 X349.987 Y-1.372
N7480G01 X-0.154 Y-1.365
N7490 G00 Z9.999
N7500 G00 X46.327 Y34.897
N7510G01 Z-6 F500
N7520G01 X303.637 F1000
N7530G01 X303.637 Y205.177
N7540G01 X289.957
N7550G01 X289.825 Y205.183
N7560G01 X289.694 Y205.203
N7570G01 X289.565 Y205.235
N7580G01 X289.44 Y205.28
N7590G01 X289.321 Y205.336
N7600G01 X289.207 Y205.405
N7610G01 X289.101 Y205.483
N7620G01 X289.002 Y205.572
N7630G01 X288.913 Y205.671
N7640G01 X288.835 Y205.777
N7650G01 X288.766 Y205.891
N7660G01 X288.71 Y206.01
N7670G01 X288.665 Y206.135
N7680G01 X288.633 Y206.264
N7690G01 X288.614 Y206.395
N7700G01 X288.607 Y206.527
N7710G01 Y225.157
N7720G01 X131.377
N7730G01 Y206.527
N7740G01 X131.371 Y206.395
N7750G01 X131.351 Y206.264
N7760G01 X131.319 Y206.135
N7770G01 X131.274 Y206.01
N7780G01 X131.218 Y205.891
N7790G01 X131.15 Y205.777
N7800G01 X131.071 Y205.671
N7810G01 X130.982 Y205.572
N7820G01 X130.883 Y205.483
N7830G01 X130.777 Y205.405
N7840G01 X130.663 Y205.336
N7850G01 X130.544 Y205.28
N7860G01 X130.419 Y205.235
N7870G01 X130.29 Y205.203
N7880G01 X130.159 Y205.183
N7890G01 X130.027 Y205.177
N7900G01 X46.327
N7910G01 Y179.977
N7920G01 X46.321 Y179.845
N7930G01 X46.301 Y179.714
N7940G01 X46.269 Y179.585
N7950G01 X46.224 Y179.46
N7960G01 X46.168 Y179.341
N7970G01 X46.099 Y179.227
N7980G01 X46.021 Y179.121
N7990G01 X45.932 Y179.022
N8000G01 X45.833 Y178.933
N8010G01 X45.727 Y178.855
N8020G01 X45.613 Y178.786
N8030G01 X45.494 Y178.73
N8040G01 X45.369 Y178.685
N8050G01 X45.24 Y178.653
N8060G01 X45.109 Y178.634
N8070G01 X44.977 Y178.627
N8080G01 X21.307
N8090G01 X21.307 Y61.357
N8100G01 X44.977
N8110G01 X45.109 Y61.351
N8120G01 X45.24 Y61.331
N8130G01 X45.369 Y61.299
N8140G01 X45.494 Y61.254
N8150G01 X45.613 Y61.198
N8160G01 X45.727 Y61.129
N8170G01 X45.833 Y61.051
N8180G01 X45.932 Y60.962
N8190G01 X46.021 Y60.863
N8200G01 X46.099 Y60.757
N8210G01 X46.168 Y60.643
N8220G01 X46.224 Y60.524
N8230G01 X46.269 Y60.399
N8240G01 X46.301 Y60.27
N8250G01 X46.321 Y60.139
N8260G01 X46.327 Y60.007
N8270G01 Y34.897
N8280 G00 Z9.999
N8290 G00 X-0.154 Y-1.365
N8300G01 Z-6 F500
N8310G01 X-0.285 Y-1.346 F1000
N8320G01 X-0.414 Y-1.314
N8330G01 X-0.539 Y-1.269
N8340G01 X-0.658 Y-1.213
N8350G01 X-0.772 Y-1.144
N8360G01 X-0.878 Y-1.066
N8370G01 X-0.977 Y-0.977
N8380G01 X-1.066 Y-0.878
N8390G01 X-1.144 Y-0.772
N8400G01 X-1.213 Y-0.658
N8410G01 X-1.269 Y-0.539
N8420G01 X-1.314 Y-0.414
N8430G01 X-1.346 Y-0.285
N8440G01 X-1.365 Y-0.154
N8450G01 X-1.372 Y-0.022
N8460G01 X-1.372 Y251.617
N8470G01 X-1.365 Y251.749
N8480G01 X-1.346 Y251.88
N8490G01 X-1.314 Y252.009
N8500G01 X-1.269 Y252.134
N8510G01 X-1.213 Y252.253
N8520G01 X-1.144 Y252.367
N8530G01 X-1.066 Y252.473
N8540G01 X-0.977 Y252.572
N8550G01 X-0.878 Y252.661
N8560G01 X-0.772 Y252.739
N8570G01 X-0.658 Y252.808
N8580G01 X-0.539 Y252.864
N8590G01 X-0.414 Y252.909
N8600G01 X-0.285 Y252.941
N8610G01 X-0.154 Y252.96
N8620G01 X-0.022 Y252.967
N8630G01 X349.987
N8640G01 X350.119 Y252.96
N8650G01 X350.25 Y252.941
N8660G01 X350.379 Y252.909
N8670G01 X350.504 Y252.864
N8680G01 X350.623 Y252.808
N8690G01 X350.737 Y252.739
N8700G01 X350.843 Y252.661
N8710G01 X350.942 Y252.572
N8720G01 X351.031 Y252.473
N8730G01 X351.109 Y252.367
N8740G01 X351.178 Y252.253
N8750G01 X351.234 Y252.134
N8760G01 X351.279 Y252.009
N8770G01 X351.311 Y251.88
N8780G01 X351.33 Y251.749
N8790G01 X351.337 Y251.617
N8800G01 X351.337 Y-0.022
N8810G01 X351.33 Y-0.154
N8820G01 X351.311 Y-0.285
N8830G01 X351.279 Y-0.414
N8840G01 X351.234 Y-0.539
N8850G01 X351.178 Y-0.658
N8860G01 X351.109 Y-0.772
N8870G01 X351.031 Y-0.878
N8880G01 X350.942 Y-0.977
N8890G01 X350.843 Y-1.066
N8900G01 X350.737 Y-1.144
N8910G01 X350.623 Y-1.213
N8920G01 X350.504 Y-1.269
N8930G01 X350.379 Y-1.314
N8940G01 X350.25 Y-1.346
N8950G01 X350.119 Y-1.365
N8960G01 X349.987 Y-1.372
N8970G01 X-0.154 Y-1.365
N8980 G00 Z9.999
N8990 G00 X46.327 Y34.897
N9000G01 Z-7 F500
N9010G01 X303.637 F1000
N9020G01 X303.637 Y205.177
N9030G01 X289.957
N9040G01 X289.825 Y205.183
N9050G01 X289.694 Y205.203
N9060G01 X289.565 Y205.235
N9070G01 X289.44 Y205.28
N9080G01 X289.321 Y205.336
N9090G01 X289.207 Y205.405
N9100G01 X289.101 Y205.483
N9110G01 X289.002 Y205.572
N9120G01 X288.913 Y205.671
N9130G01 X288.835 Y205.777
N9140G01 X288.766 Y205.891
N9150G01 X288.71 Y206.01
N9160G01 X288.665 Y206.135
N9170G01 X288.633 Y206.264
N9180G01 X288.614 Y206.395
N9190G01 X288.607 Y206.527
N9200G01 Y225.157
N9210G01 X131.377
N9220G01 Y206.527
N9230G01 X131.371 Y206.395
N9240G01 X131.351 Y206.264
N9250G01 X131.319 Y206.135
N9260G01 X131.274 Y206.01
N9270G01 X131.218 Y205.891
N9280G01 X131.15 Y205.777
N9290G01 X131.071 Y205.671
N9300G01 X130.982 Y205.572
N9310G01 X130.883 Y205.483
N9320G01 X130.777 Y205.405
N9330G01 X130.663 Y205.336
N9340G01 X130.544 Y205.28
N9350G01 X130.419 Y205.235
N9360G01 X130.29 Y205.203
N9370G01 X130.159 Y205.183
N9380G01 X130.027 Y205.177
N9390G01 X46.327
N9400G01 Y179.977
N9410G01 X46.321 Y179.845
N9420G01 X46.301 Y179.714
N9430G01 X46.269 Y179.585
N9440G01 X46.224 Y179.46
N9450G01 X46.168 Y179.341
N9460G01 X46.099 Y179.227
N9470G01 X46.021 Y179.121
N9480G01 X45.932 Y179.022
N9490G01 X45.833 Y178.933
N9500G01 X45.727 Y178.855
N9510G01 X45.613 Y178.786
N9520G01 X45.494 Y178.73
N9530G01 X45.369 Y178.685
N9540G01 X45.24 Y178.653
N9550G01 X45.109 Y178.634
N9560G01 X44.977 Y178.627
N9570G01 X21.307
N9580G01 X21.307 Y61.357
N9590G01 X44.977
N9600G01 X45.109 Y61.351
N9610G01 X45.24 Y61.331
N9620G01 X45.369 Y61.299
N9630G01 X45.494 Y61.254
N9640G01 X45.613 Y61.198
N9650G01 X45.727 Y61.129
N9660G01 X45.833 Y61.051
N9670G01 X45.932 Y60.962
N9680G01 X46.021 Y60.863
N9690G01 X46.099 Y60.757
N9700G01 X46.168 Y60.643
N9710G01 X46.224 Y60.524
N9720G01 X46.269 Y60.399
N9730G01 X46.301 Y60.27
N9740G01 X46.321 Y60.139
N9750G01 X46.327 Y60.007
N9760G01 Y34.897
N9770 G00 Z9.999
N9780 G00 X-0.154 Y-1.365
N9790G01 Z-7 F500
N9800G01 X-0.285 Y-1.346 F1000
N9810G01 X-0.414 Y-1.314
N9820G01 X-0.539 Y-1.269
N9830G01 X-0.658 Y-1.213
N9840G01 X-0.772 Y-1.144
N9850G01 X-0.878 Y-1.066
N9860G01 X-0.977 Y-0.977
N9870G01 X-1.066 Y-0.878
N9880G01 X-1.144 Y-0.772
N9890G01 X-1.213 Y-0.658
N9900G01 X-1.269 Y-0.539
N9910G01 X-1.314 Y-0.414
N9920G01 X-1.346 Y-0.285
N9930G01 X-1.365 Y-0.154
N9940G01 X-1.372 Y-0.022
N9950G01 X-1.372 Y251.617
N9960G01 X-1.365 Y251.749
N9970G01 X-1.346 Y251.88
N9980G01 X-1.314 Y252.009
N9990G01 X-1.269 Y252.134
N10000G01 X-1.213 Y252.253
N10010G01 X-1.144 Y252.367
N10020G01 X-1.066 Y252.473
N10030G01 X-0.977 Y252.572
N10040G01 X-0.878 Y252.661
N10050G01 X-0.772 Y252.739
N10060G01 X-0.658 Y252.808
N10070G01 X-0.539 Y252.864
N10080G01 X-0.414 Y252.909
N10090G01 X-0.285 Y252.941
N10100G01 X-0.154 Y252.96
N10110G01 X-0.022 Y252.967
N10120G01 X349.987
N10130G01 X350.119 Y252.96
N10140G01 X350.25 Y252.941
N10150G01 X350.379 Y252.909
N10160G01 X350.504 Y252.864
N10170G01 X350.623 Y252.808
N10180G01 X350.737 Y252.739
N10190G01 X350.843 Y252.661
N10200G01 X350.942 Y252.572
N10210G01 X351.031 Y252.473
N10220G01 X351.109 Y252.367
N10230G01 X351.178 Y252.253
N10240G01 X351.234 Y252.134
N10250G01 X351.279 Y252.009
N10260G01 X351.311 Y251.88
N10270G01 X351.33 Y251.749
N10280G01 X351.337 Y251.617
N10290G01 X351.337 Y-0.022
N10300G01 X351.33 Y-0.154
N10310G01 X351.311 Y-0.285
N10320G01 X351.279 Y-0.414
N10330G01 X351.234 Y-0.539
N10340G01 X351.178 Y-0.658
N10350G01 X351.109 Y-0.772
N10360G01 X351.031 Y-0.878
N10370G01 X350.942 Y-0.977
N10380G01 X350.843 Y-1.066
N10390G01 X350.737 Y-1.144
N10400G01 X350.623 Y-1.213
N10410G01 X350.504 Y-1.269
N10420G01 X350.379 Y-1.314
N10430G01 X350.25 Y-1.346
N10440G01 X350.119 Y-1.365
N10450G01 X349.987 Y-1.372
N10460G01 X-0.154 Y-1.365
N10470 G00 Z9.999
N10480 G00 X46.327 Y34.897
N10490G01 Z-8 F500
N10500G01 X124.909 F1000
N10510G01 Z-7.7
N10520G01 X129.609
N10530G01 Z-8 F500
N10540G01 X282.052 F1000
N10550G01 Z-7.7
N10560G01 X286.752
N10570G01 Z-8 F500
N10580G01 X303.637 F1000
N10590G01 X303.637 Y170.455
N10600G01 Z-7.7
N10610G01 Y175.155
N10620G01 Z-8 F500
N10630G01 Y205.177 F1000
N10640G01 X289.957
N10650G01 X289.825 Y205.183
N10660G01 X289.694 Y205.203
N10670G01 X289.565 Y205.235
N10680G01 X289.44 Y205.28
N10690G01 X289.321 Y205.336
N10700G01 X289.207 Y205.405
N10710G01 X289.101 Y205.483
N10720G01 X289.002 Y205.572
N10730G01 X288.913 Y205.671
N10740G01 X288.835 Y205.777
N10750G01 X288.766 Y205.891
N10760G01 X288.71 Y206.01
N10770G01 X288.665 Y206.135
N10780G01 X288.633 Y206.264
N10790G01 X288.614 Y206.395
N10800G01 X288.607 Y206.527
N10810G01 Y225.157
N10820G01 X200.616
N10830G01 Z-7.7
N10840G01 X195.916
N10850G01 Z-8 F500
N10860G01 X131.377 F1000
N10870G01 Y206.527
N10880G01 X131.371 Y206.395
N10890G01 X131.351 Y206.264
N10900G01 X131.319 Y206.135
N10910G01 X131.274 Y206.01
N10920G01 X131.218 Y205.891
N10930G01 X131.15 Y205.777
N10940G01 X131.071 Y205.671
N10950G01 X130.982 Y205.572
N10960G01 X130.883 Y205.483
N10970G01 X130.777 Y205.405
N10980G01 X130.663 Y205.336
N10990G01 X130.544 Y205.28
N11000G01 X130.419 Y205.235
N11010G01 X130.29 Y205.203
N11020G01 X130.159 Y205.183
N11030G01 X130.027 Y205.177
N11040G01 X62.872
N11050G01 Z-7.7
N11060G01 X58.172
N11070G01 Z-8 F500
N11080G01 X46.327 F1000
N11090G01 Y179.977
N11100G01 X46.321 Y179.845
N11110G01 X46.301 Y179.714
N11120G01 X46.269 Y179.585
N11130G01 X46.224 Y179.46
N11140G01 X46.168 Y179.341
N11150G01 X46.099 Y179.227
N11160G01 X46.021 Y179.121
N11170G01 X45.932 Y179.022
N11180G01 X45.833 Y178.933
N11190G01 X45.727 Y178.855
N11200G01 X45.613 Y178.786
N11210G01 X45.494 Y178.73
N11220G01 X45.369 Y178.685
N11230G01 X45.24 Y178.653
N11240G01 X45.109 Y178.634
N11250G01 X44.977 Y178.627
N11260G01 X21.307
N11270G01 X21.307 Y89.019
N11280G01 Z-7.7
N11290G01 Y84.319
N11300G01 Z-8 F500
N11310G01 X21.307 Y61.357 F1000
N11320G01 X44.977
N11330G01 X45.109 Y61.351
N11340G01 X45.24 Y61.331
N11350G01 X45.369 Y61.299
N11360G01 X45.494 Y61.254
N11370G01 X45.613 Y61.198
N11380G01 X45.727 Y61.129
N11390G01 X45.833 Y61.051
N11400G01 X45.932 Y60.962
N11410G01 X46.021 Y60.863
N11420G01 X46.099 Y60.757
N11430G01 X46.168 Y60.643
N11440G01 X46.224 Y60.524
N11450G01 X46.269 Y60.399
N11460G01 X46.301 Y60.27
N11470G01 X46.321 Y60.139
N11480G01 X46.327 Y60.007
N11490G01 Y34.897
N11500 G00 Z9.999
N11510 G00 X-0.154 Y-1.365
N11520G01 Z-8 F500
N11530G01 X-0.285 Y-1.346 F1000
N11540G01 X-0.414 Y-1.314
N11550G01 X-0.539 Y-1.269
N11560G01 X-0.658 Y-1.213
N11570G01 X-0.772 Y-1.144
N11580G01 X-0.878 Y-1.066
N11590G01 X-0.977 Y-0.977
N11600G01 X-1.066 Y-0.878
N11610G01 X-1.144 Y-0.772
N11620G01 X-1.213 Y-0.658
N11630G01 X-1.269 Y-0.539
N11640G01 X-1.314 Y-0.414
N11650G01 X-1.346 Y-0.285
N11660G01 X-1.365 Y-0.154
N11670G01 X-1.372 Y-0.022
N11680G01 X-1.372 Y73.736
N11690G01 Z-7.7
N11700G01 X-1.372 Y78.436
N11710G01 Z-8 F500
N11720G01 X-1.372 Y225.208 F1000
N11730G01 Z-7.7
N11740G01 X-1.372 Y229.908
N11750G01 Z-8 F500
N11760G01 X-1.372 Y251.617 F1000
N11770G01 X-1.365 Y251.749
N11780G01 X-1.346 Y251.88
N11790G01 X-1.314 Y252.009
N11800G01 X-1.269 Y252.134
N11810G01 X-1.213 Y252.253
N11820G01 X-1.144 Y252.367
N11830G01 X-1.066 Y252.473
N11840G01 X-0.977 Y252.572
N11850G01 X-0.878 Y252.661
N11860G01 X-0.772 Y252.739
N11870G01 X-0.658 Y252.808
N11880G01 X-0.539 Y252.864
N11890G01 X-0.414 Y252.909
N11900G01 X-0.285 Y252.941
N11910G01 X-0.154 Y252.96
N11920G01 X-0.022 Y252.967
N11930G01 X122.921
N11940G01 Z-7.7
N11950G01 X127.621
N11960G01 Z-8 F500
N11970G01 X274.393 F1000
N11980G01 Z-7.7
N11990G01 X279.093
N12000G01 Z-8 F500
N12010G01 X349.987 F1000
N12020G01 X350.119 Y252.96
N12030G01 X350.25 Y252.941
N12040G01 X350.379 Y252.909
N12050G01 X350.504 Y252.864
N12060G01 X350.623 Y252.808
N12070G01 X350.737 Y252.739
N12080G01 X350.843 Y252.661
N12090G01 X350.942 Y252.572
N12100G01 X351.031 Y252.473
N12110G01 X351.109 Y252.367
N12120G01 X351.178 Y252.253
N12130G01 X351.234 Y252.134
N12140G01 X351.279 Y252.009
N12150G01 X351.311 Y251.88
N12160G01 X351.33 Y251.749
N12170G01 X351.337 Y251.617
N12180G01 Y177.858
N12190G01 Z-7.7
N12200G01 Y173.158
N12210G01 Z-8 F500
N12220G01 X351.337 Y26.386 F1000
N12230G01 Z-7.7
N12240G01 Y21.686
N12250G01 Z-8 F500
N12260G01 Y-0.022 F1000
N12270G01 X351.33 Y-0.154
N12280G01 X351.311 Y-0.285
N12290G01 X351.279 Y-0.414
N12300G01 X351.234 Y-0.539
N12310G01 X351.178 Y-0.658
N12320G01 X351.109 Y-0.772
N12330G01 X351.031 Y-0.878
N12340G01 X350.942 Y-0.977
N12350G01 X350.843 Y-1.066
N12360G01 X350.737 Y-1.144
N12370G01 X350.623 Y-1.213
N12380G01 X350.504 Y-1.269
N12390G01 X350.379 Y-1.314
N12400G01 X350.25 Y-1.346
N12410G01 X350.119 Y-1.365
N12420G01 X349.987 Y-1.372
N12430G01 X227.043 Y-1.37
N12440G01 Z-7.7
N12450G01 X222.343 Y-1.37
N12460G01 Z-8 F500
N12470G01 X75.571 Y-1.367 F1000
N12480G01 Z-7.7
N12490G01 X70.871 Y-1.367
N12500G01 Z-8 F500
N12510G01 X-0.154 Y-1.365 F1000
N12520 G00 Z9.999
N12530 G00 X46.327 Y34.897
N12540G01 Z-8.5 F500
N12550G01 X124.909 F1000
N12560G01 Z-7.7
N12570G01 X129.609
N12580G01 Z-8.5 F500
N12590G01 X282.052 F1000
N12600G01 Z-7.7
N12610G01 X286.752
N12620G01 Z-8.5 F500
N12630G01 X303.637 F1000
N12640G01 X303.637 Y170.455
N12650G01 Z-7.7
N12660G01 Y175.155
N12670G01 Z-8.5 F500
N12680G01 Y205.177 F1000
N12690G01 X289.957
N12700G01 X289.825 Y205.183
N12710G01 X289.694 Y205.203
N12720G01 X289.565 Y205.235
N12730G01 X289.44 Y205.28
N12740G01 X289.321 Y205.336
N12750G01 X289.207 Y205.405
N12760G01 X289.101 Y205.483
N12770G01 X289.002 Y205.572
N12780G01 X288.913 Y205.671
N12790G01 X288.835 Y205.777
N12800G01 X288.766 Y205.891
N12810G01 X288.71 Y206.01
N12820G01 X288.665 Y206.135
N12830G01 X288.633 Y206.264
N12840G01 X288.614 Y206.395
N12850G01 X288.607 Y206.527
N12860G01 Y225.157
N12870G01 X200.616
N12880G01 Z-7.7
N12890G01 X195.916
N12900G01 Z-8.5 F500
N12910G01 X131.377 F1000
N12920G01 Y206.527
N12930G01 X131.371 Y206.395
N12940G01 X131.351 Y206.264
N12950G01 X131.319 Y206.135
N12960G01 X131.274 Y206.01
N12970G01 X131.218 Y205.891
N12980G01 X131.15 Y205.777
N12990G01 X131.071 Y205.671
N13000G01 X130.982 Y205.572
N13010G01 X130.883 Y205.483
N13020G01 X130.777 Y205.405
N13030G01 X130.663 Y205.336
N13040G01 X130.544 Y205.28
N13050G01 X130.419 Y205.235
N13060G01 X130.29 Y205.203
N13070G01 X130.159 Y205.183
N13080G01 X130.027 Y205.177
N13090G01 X62.872
N13100G01 Z-7.7
N13110G01 X58.172
N13120G01 Z-8.5 F500
N13130G01 X46.327 F1000
N13140G01 Y179.977
N13150G01 X46.321 Y179.845
N13160G01 X46.301 Y179.714
N13170G01 X46.269 Y179.585
N13180G01 X46.224 Y179.46
N13190G01 X46.168 Y179.341
N13200G01 X46.099 Y179.227
N13210G01 X46.021 Y179.121
N13220G01 X45.932 Y179.022
N13230G01 X45.833 Y178.933
N13240G01 X45.727 Y178.855
N13250G01 X45.613 Y178.786
N13260G01 X45.494 Y178.73
N13270G01 X45.369 Y178.685
N13280G01 X45.24 Y178.653
N13290G01 X45.109 Y178.634
N13300G01 X44.977 Y178.627
N13310G01 X21.307
N13320G01 X21.307 Y89.019
N13330G01 Z-7.7
N13340G01 Y84.319
N13350G01 Z-8.5 F500
N13360G01 X21.307 Y61.357 F1000
N13370G01 X44.977
N13380G01 X45.109 Y61.351
N13390G01 X45.24 Y61.331
N13400G01 X45.369 Y61.299
N13410G01 X45.494 Y61.254
N13420G01 X45.613 Y61.198
N13430G01 X45.727 Y61.129
N13440G01 X45.833 Y61.051
N13450G01 X45.932 Y60.962
N13460G01 X46.021 Y60.863
N13470G01 X46.099 Y60.757
N13480G01 X46.168 Y60.643
N13490G01 X46.224 Y60.524
N13500G01 X46.269 Y60.399
N13510G01 X46.301 Y60.27
N13520G01 X46.321 Y60.139
N13530G01 X46.327 Y60.007
N13540G01 Y34.897
N13550 G00 Z9.999
N13560 G00 X-0.154 Y-1.365
N13570G01 Z-8.5 F500
N13580G01 X-0.285 Y-1.346 F1000
N13590G01 X-0.414 Y-1.314
N13600G01 X-0.539 Y-1.269
N13610G01 X-0.658 Y-1.213
N13620G01 X-0.772 Y-1.144
N13630G01 X-0.878 Y-1.066
N13640G01 X-0.977 Y-0.977
N13650G01 X-1.066 Y-0.878
N13660G01 X-1.144 Y-0.772
N13670G01 X-1.213 Y-0.658
N13680G01 X-1.269 Y-0.539
N13690G01 X-1.314 Y-0.414
N13700G01 X-1.346 Y-0.285
N13710G01 X-1.365 Y-0.154
N13720G01 X-1.372 Y-0.022
N13730G01 X-1.372 Y73.736
N13740G01 Z-7.7
N13750G01 X-1.372 Y78.436
N13760G01 Z-8.5 F500
N13770G01 X-1.372 Y225.208 F1000
N13780G01 Z-7.7
N13790G01 X-1.372 Y229.908
N13800G01 Z-8.5 F500
N13810G01 X-1.372 Y251.617 F1000
N13820G01 X-1.365 Y251.749
N13830G01 X-1.346 Y251.88
N13840G01 X-1.314 Y252.009
N13850G01 X-1.269 Y252.134
N13860G01 X-1.213 Y252.253
N13870G01 X-1.144 Y252.367
N13880G01 X-1.066 Y252.473
N13890G01 X-0.977 Y252.572
N13900G01 X-0.878 Y252.661
N13910G01 X-0.772 Y252.739
N13920G01 X-0.658 Y252.808
N13930G01 X-0.539 Y252.864
N13940G01 X-0.414 Y252.909
N13950G01 X-0.285 Y252.941
N13960G01 X-0.154 Y252.96
N13970G01 X-0.022 Y252.967
N13980G01 X122.921
N13990G01 Z-7.7
N14000G01 X127.621
N14010G01 Z-8.5 F500
N14020G01 X274.393 F1000
N14030G01 Z-7.7
N14040G01 X279.093
N14050G01 Z-8.5 F500
N14060G01 X349.987 F1000
N14070G01 X350.119 Y252.96
N14080G01 X350.25 Y252.941
N14090G01 X350.379 Y252.909
N14100G01 X350.504 Y252.864
N14110G01 X350.623 Y252.808
N14120G01 X350.737 Y252.739
N14130G01 X350.843 Y252.661
N14140G01 X350.942 Y252.572
N14150G01 X351.031 Y252.473
N14160G01 X351.109 Y252.367
N14170G01 X351.178 Y252.253
N14180G01 X351.234 Y252.134
N14190G01 X351.279 Y252.009
N14200G01 X351.311 Y251.88
N14210G01 X351.33 Y251.749
N14220G01 X351.337 Y251.617
N14230G01 Y177.858
N14240G01 Z-7.7
N14250G01 Y173.158
N14260G01 Z-8.5 F500
N14270G01 X351.337 Y26.386 F1000
N14280G01 Z-7.7
N14290G01 Y21.686
N14300G01 Z-8.5 F500
N14310G01 Y-0.022 F1000
N14320G01 X351.33 Y-0.154
N14330G01 X351.311 Y-0.285
N14340G01 X351.279 Y-0.414
N14350G01 X351.234 Y-0.539
N14360G01 X351.178 Y-0.658
N14370G01 X351.109 Y-0.772
N14380G01 X351.031 Y-0.878
N14390G01 X350.942 Y-0.977
N14400G01 X350.843 Y-1.066
N14410G01 X350.737 Y-1.144
N14420G01 X350.623 Y-1.213
N14430G01 X350.504 Y-1.269
N14440G01 X350.379 Y-1.314
N14450G01 X350.25 Y-1.346
N14460G01 X350.119 Y-1.365
N14470G01 X349.987 Y-1.372
N14480G01 X227.043 Y-1.37
N14490G01 Z-7.7
N14500G01 X222.343 Y-1.37
N14510G01 Z-8.5 F500
N14520G01 X75.571 Y-1.367 F1000
N14530G01 Z-7.7
N14540G01 X70.871 Y-1.367
N14550G01 Z-8.5 F500
N14560G01 X-0.154 Y-1.365 F1000
N14570 G00 Z9.999
N14580 M02
