(GCode created using the HeeksCNC Mach3 post processor)
(/home/user/git-repos/donation-box/designs/3D/blender/top panel/middle-slope-file.tap)
(G-code generated with BlenderCAM and NC library)
N10 G17 G21 G90
(Tool change)
N20G43H1
N30T1 M06
N40 G00 X0 Y0 Z9.999 S12000 M03
N50 G00 X349.997 Y0.29
N60G01 Z-1.05 F500
N70G01 X0.193 Y0.289 F1000
N80 G00 Z9.999
N90 G00 X349.997 Y0.79
N100G01 Z-1.05 F500
N110G01 X0.193 Y0.789 F1000
N120 G00 Z9.999
N130 G00 X349.997 Y1.29
N140G01 Z-1.05 F500
N150G01 X0.193 Y1.289 F1000
N160 G00 Z9.999
N170 G00 X349.997 Y1.79
N180G01 Z-1.05 F500
N190G01 X0.193 Y1.789 F1000
N200 G00 Z9.999
N210 G00 X349.997 Y2.29
N220G01 Z-1.05 F500
N230G01 X0.193 Y2.289 F1000
N240 G00 Z9.999
N250 G00 X349.997 Y2.79
N260G01 Z-1.05 F500
N270G01 X0.193 Y2.789 F1000
N280 G00 Z9.999
N290 G00 X349.997 Y3.29
N300G01 Z-1.05 F500
N310G01 X0.193 Y3.289 F1000
N320 G00 Z9.999
N330 G00 X349.997 Y3.79
N340G01 Z-1.05 F500
N350G01 X0.193 Y3.789 F1000
N360 G00 Z9.999
N370 G00 X349.997 Y4.29
N380G01 Z-1.05 F500
N390G01 X0.193 F1000
N400 G00 Z9.999
N410 G00 X349.997 Y4.79
N420G01 Z-1.05 F500
N430G01 X0.193 F1000
N440 G00 Z9.999
N450 G00 X349.997 Y5.29
N460G01 Z-1.05 F500
N470G01 X0.193 F1000
N480 G00 Z9.999
N490 G00 X349.997 Y5.79
N500G01 Z-1.05 F500
N510G01 X0.193 F1000
N520 G00 Z9.999
N530 G00 X349.997 Y6.29
N540G01 Z-0.939 F500
N550G01 X323.797 Z-0.939 F1000
N560G01 X323.597 Z-0.958
N570G01 X323.397 Z-0.939
N580G01 X302.197 Z-0.939
N590G01 X301.997 Z-0.959
N600G01 X301.797 Z-0.939
N610G01 X281.596 Z-0.939
N620G01 X281.396 Z-0.951
N630G01 X281.196 Z-0.939
N640G01 X274.396 Z-0.939
N650G01 X274.196 Z-0.951
N660G01 X273.996 Z-0.939
N670G01 X272.996 Z-0.939
N680G01 X272.796 Z-0.95
N690G01 X272.596 Z-0.939
N700G01 X272.396 Z-0.939
N710G01 X272.196 Z-0.948
N720G01 X271.996 Z-0.939
N730G01 X269.596 Z-0.939
N740G01 X269.396 Z-0.949
N750G01 X269.196 Z-0.939
N760G01 X242.196 Z-0.939
N770G01 X241.996 Z-0.944
N780G01 X241.796 Z-0.939
N790G01 X228.395 Z-0.939
N800G01 X228.195 Z-0.94
N810G01 X225.595 Z-0.939
N820G01 X225.395 Z-0.94
N830G01 X156.594 Z-0.939
N840G01 X156.394 Z-0.941
N850G01 X156.194 Z-0.939
N860G01 X131.994 Z-0.939
N870G01 X131.794 Z-0.942
N880G01 X131.594 Z-0.939
N890G01 X99.993 Z-0.939
N900G01 X99.793 Z-0.942
N910G01 X99.593 Z-0.938
N920G01 X84.593 Z-0.938
N930G01 X84.393 Z-0.943
N940G01 X84.193 Z-0.939
N950G01 X0.193 Z-0.938
N960 G00 Z9.999
N970 G00 X349.997 Y6.79
N980G01 Z-0.512 F500
N990G01 X346.197 Z-0.513 F1000
N1000G01 X345.997 Z-0.528
N1010G01 X345.797 Z-0.513
N1020G01 X332.997 Z-0.512
N1030G01 X332.797 Z-0.525
N1040G01 X332.597 Z-0.512
N1050G01 X322.997 Z-0.512
N1060G01 X322.797 Z-0.524
N1070G01 X322.597 Z-0.512
N1080G01 X321.997 Z-0.512
N1090G01 X321.797 Z-0.52
N1100G01 X321.597 Z-0.512
N1110G01 X308.197 Z-0.512
N1120G01 X307.997 Z-0.519
N1130G01 X307.797 Z-0.512
N1140G01 X293.196 Z-0.512
N1150G01 X292.996 Z-0.521
N1160G01 X292.796 Z-0.512
N1170G01 X290.196 Z-0.512
N1180G01 X289.996 Z-0.523
N1190G01 X289.796 Z-0.512
N1200G01 X287.596 Z-0.512
N1210G01 X287.396 Z-0.516
N1220G01 X287.196 Z-0.512
N1230G01 X274.396 Z-0.512
N1240G01 X274.196 Z-0.519
N1250G01 X273.996 Z-0.512
N1260G01 X272.596 Z-0.512
N1270G01 X272.396 Z-0.519
N1280G01 X272.196 Z-0.512
N1290G01 X267.596 Z-0.512
N1300G01 X267.396 Z-0.516
N1310G01 X267.196 Z-0.512
N1320G01 X262.996 Z-0.512
N1330G01 X262.796 Z-0.516
N1340G01 X262.596 Z-0.512
N1350G01 X262.396 Z-0.516
N1360G01 X262.196 Z-0.512
N1370G01 X258.996 Z-0.512
N1380G01 X258.796 Z-0.515
N1390G01 X258.596 Z-0.512
N1400G01 X254.796 Z-0.512
N1410G01 X254.396 Z-0.514
N1420G01 X131.394 Z-0.512
N1430G01 X131.194 Z-0.52
N1440G01 X130.994 Z-0.512
N1450G01 X93.193 Z-0.512
N1460G01 X92.993 Z-0.514
N1470G01 X92.793 Z-0.512
N1480G01 X65.993 Z-0.512
N1490G01 X65.793 Z-0.514
N1500G01 X0.193 Z-0.512
N1510 G00 Z9.999
N1520 G00 X349.997 Y7.29
N1530G01 Z-0.112 F500
N1540G01 X347.397 Z-0.112 F1000
N1550G01 X347.197 Z-0.12
N1560G01 X346.997 Z-0.112
N1570G01 X342.997 Z-0.113
N1580G01 X342.797 Z-0.122
N1590G01 X342.597 Z-0.112
N1600G01 X341.997 Z-0.112
N1610G01 X341.797 Z-0.115
N1620G01 X341.597 Z-0.112
N1630G01 X338.197 Z-0.113
N1640G01 X337.997 Z-0.121
N1650G01 X337.797 Z-0.112
N1660G01 X336.997 Z-0.113
N1670G01 X336.797 Z-0.122
N1680G01 X336.597 Z-0.112
N1690G01 X332.597 Z-0.113
N1700G01 X332.397 Z-0.114
N1710G01 X332.197 Z-0.112
N1720G01 X330.797 Z-0.112
N1730G01 X330.597 Z-0.122
N1740G01 X330.397 Z-0.113
N1750G01 X324.197 Z-0.112
N1760G01 X323.997 Z-0.119
N1770G01 X323.797 Z-0.112
N1780G01 X316.997 Z-0.112
N1790G01 X316.797 Z-0.116
N1800G01 X316.597 Z-0.112
N1810G01 X315.797 Z-0.112
N1820G01 X315.597 Z-0.117
N1830G01 X315.397 Z-0.112
N1840G01 X313.997 Z-0.112
N1850G01 X313.797 Z-0.117
N1860G01 X313.597 Z-0.112
N1870G01 X309.397 Z-0.112
N1880G01 X309.197 Z-0.115
N1890G01 X308.997 Z-0.112
N1900G01 X307.597 Z-0.112
N1910G01 X307.397 Z-0.115
N1920G01 X307.197 Z-0.112
N1930G01 X305.597 Z-0.112
N1940G01 X305.397 Z-0.115
N1950G01 X305.197 Z-0.112
N1960G01 X304.997 Z-0.115
N1970G01 X304.797 Z-0.112
N1980G01 X302.797 Z-0.112
N1990G01 X302.197 Z-0.114
N2000G01 X301.597 Z-0.112
N2010G01 X301.397 Z-0.114
N2020G01 X299.597 Z-0.112
N2030G01 X299.397 Z-0.114
N2040G01 X267.596 Z-0.112
N2050G01 X267.396 Z-0.115
N2060G01 X267.196 Z-0.112
N2070G01 X224.795 Z-0.112
N2080G01 X224.595 Z-0.121
N2090G01 X224.395 Z-0.112
N2100G01 X213.995 Z-0.112
N2110G01 X213.795 Z-0.121
N2120G01 X213.595 Z-0.112
N2130G01 X211.195 Z-0.112
N2140G01 X210.995 Z-0.121
N2150G01 X210.795 Z-0.112
N2160G01 X178.995 Z-0.112
N2170G01 X178.795 Z-0.114
N2180G01 X150.394 Z-0.112
N2190G01 X150.194 Z-0.123
N2200G01 X149.994 Z-0.112
N2210G01 X106.593 Z-0.112
N2220G01 X106.393 Z-0.113
N2230G01 X0.193 Z-0.112
N2240 G00 Z9.999
N2250 G00 X349.997 Y246.79
N2260G01 Z-0.248 F500
N2270G01 X181.394 Z-0.248 F1000
N2280G01 X181.194 Z-0.27
N2290G01 X180.994 Z-0.248
N2300G01 X34.992 Z-0.248
N2310G01 X34.792 Z-0.249
N2320G01 X33.992 Z-0.248
N2330G01 X33.792 Z-0.249
N2340G01 X33.392 Z-0.248
N2350G01 X33.192 Z-0.249
N2360G01 X32.992 Z-0.248
N2370G01 X32.592 Z-0.249
N2380G01 X31.592 Z-0.248
N2390G01 X31.392 Z-0.25
N2400G01 X29.992 Z-0.248
N2410G01 X29.792 Z-0.25
N2420G01 X28.792 Z-0.248
N2430G01 X28.592 Z-0.25
N2440G01 X28.392 Z-0.248
N2450G01 X27.192 Z-0.248
N2460G01 X26.992 Z-0.25
N2470G01 X26.792 Z-0.248
N2480G01 X0.192 Z-0.248
N2490 G00 Z9.999
N2500 G00 X349.997 Y247.29
N2510G01 Z-0.656 F500
N2520G01 X49.392 Z-0.656 F1000
N2530G01 X49.192 Z-0.657
N2540G01 X48.592 Z-0.656
N2550G01 X48.392 Z-0.657
N2560G01 X45.992 Z-0.656
N2570G01 X45.792 Z-0.657
N2580G01 X45.592 Z-0.656
N2590G01 X45.192 Z-0.657
N2600G01 X44.592 Z-0.656
N2610G01 X44.392 Z-0.657
N2620G01 X43.592 Z-0.656
N2630G01 X42.992 Z-0.657
N2640G01 X42.592 Z-0.656
N2650G01 X42.392 Z-0.658
N2660G01 X41.592 Z-0.656
N2670G01 X41.192 Z-0.658
N2680G01 X40.792 Z-0.656
N2690G01 X40.592 Z-0.658
N2700G01 X39.992 Z-0.656
N2710G01 X39.792 Z-0.658
N2720G01 X39.392 Z-0.656
N2730G01 X39.192 Z-0.658
N2740G01 X38.792 Z-0.656
N2750G01 X38.592 Z-0.658
N2760G01 X38.392 Z-0.658
N2770G01 X38.192 Z-0.656
N2780G01 X37.992 Z-0.658
N2790G01 X37.792 Z-0.656
N2800G01 X36.992 Z-0.656
N2810G01 X36.792 Z-0.658
N2820G01 X36.592 Z-0.656
N2830G01 X36.392 Z-0.658
N2840G01 X36.192 Z-0.656
N2850G01 X35.792 Z-0.656
N2860G01 X35.592 Z-0.659
N2870G01 X35.392 Z-0.656
N2880G01 X34.792 Z-0.656
N2890G01 X34.592 Z-0.659
N2900G01 X34.392 Z-0.656
N2910G01 X33.392 Z-0.656
N2920G01 X33.192 Z-0.659
N2930G01 X32.992 Z-0.656
N2940G01 X31.992 Z-0.656
N2950G01 X31.792 Z-0.66
N2960G01 X31.592 Z-0.66
N2970G01 X31.392 Z-0.656
N2980G01 X30.992 Z-0.656
N2990G01 X30.792 Z-0.66
N3000G01 X30.592 Z-0.656
N3010G01 X28.992 Z-0.656
N3020G01 X28.792 Z-0.661
N3030G01 X28.592 Z-0.656
N3040G01 X28.192 Z-0.656
N3050G01 X27.992 Z-0.661
N3060G01 X27.792 Z-0.656
N3070G01 X27.192 Z-0.656
N3080G01 X26.992 Z-0.662
N3090G01 X26.792 Z-0.656
N3100G01 X0.192 Z-0.656
N3110 G00 Z9.999
N3120 G00 X349.997 Y247.79
N3130G01 Z-1.05 F500
N3140G01 X0.192 F1000
N3150 G00 Z9.999
N3160 G00 X349.997 Y248.29
N3170G01 Z-1.05 F500
N3180G01 X0.192 F1000
N3190 G00 Z9.999
N3200 G00 X349.997 Y248.79
N3210G01 Z-1.05 F500
N3220G01 X0.192 F1000
N3230 G00 Z9.999
N3240 G00 X349.997 Y249.29
N3250G01 Z-1.05 F500
N3260G01 X0.192 F1000
N3270 G00 Z9.999
N3280 G00 X349.997 Y249.79
N3290G01 Z-1.05 F500
N3300G01 X0.192 F1000
N3310 G00 Z9.999
N3320 G00 X349.997 Y250.29
N3330G01 Z-1.05 F500
N3340G01 X0.192 F1000
N3350 G00 Z9.999
N3360 G00 X349.997 Y250.79
N3370G01 Z-1.05 F500
N3380G01 X0.192 F1000
N3390 G00 Z9.999
N3400 G00 X349.997 Y251.29
N3410G01 Z-1.05 F500
N3420G01 X0.192 F1000
N3430 G00 Z9.999
N3440 G00 X349.997 Y0.29
N3450G01 Z-2.05 F500
N3460G01 X0.193 Y0.289 F1000
N3470 G00 Z9.999
N3480 G00 X349.997 Y0.79
N3490G01 Z-2.05 F500
N3500G01 X0.193 Y0.789 F1000
N3510 G00 Z9.999
N3520 G00 X349.997 Y1.29
N3530G01 Z-2.05 F500
N3540G01 X0.193 Y1.289 F1000
N3550 G00 Z9.999
N3560 G00 X349.997 Y1.79
N3570G01 Z-2.05 F500
N3580G01 X0.193 Y1.789 F1000
N3590 G00 Z9.999
N3600 G00 X349.997 Y2.29
N3610G01 Z-2.05 F500
N3620G01 X0.193 Y2.289 F1000
N3630 G00 Z9.999
N3640 G00 X349.997 Y2.79
N3650G01 Z-2.05 F500
N3660G01 X0.193 Y2.789 F1000
N3670 G00 Z9.999
N3680 G00 X349.997 Y3.29
N3690G01 Z-2.05 F500
N3700G01 X0.193 Y3.289 F1000
N3710 G00 Z9.999
N3720 G00 X349.997 Y3.79
N3730G01 Z-2.05 F500
N3740G01 X0.193 Y3.789 F1000
N3750 G00 Z9.999
N3760 G00 X349.997 Y4.29
N3770G01 Z-2.05 F500
N3780G01 X0.193 F1000
N3790 G00 Z9.999
N3800 G00 X349.997 Y4.79
N3810G01 Z-2.05 F500
N3820G01 X0.193 F1000
N3830 G00 Z9.999
N3840 G00 X349.997 Y5.29
N3850G01 Z-1.883 F500
N3860G01 X114.793 Z-1.883 F1000
N3870G01 X114.593 Z-1.904
N3880G01 X114.393 Z-1.883
N3890G01 X111.793 Z-1.883
N3900G01 X111.593 Z-1.891
N3910G01 X111.393 Z-1.883
N3920G01 X110.993 Z-1.883
N3930G01 X110.793 Z-1.889
N3940G01 X110.593 Z-1.883
N3950G01 X110.393 Z-1.883
N3960G01 X110.193 Z-1.889
N3970G01 X109.993 Z-1.883
N3980G01 X109.593 Z-1.883
N3990G01 X109.393 Z-1.888
N4000G01 X109.193 Z-1.883
N4010G01 X108.993 Z-1.887
N4020G01 X108.793 Z-1.883
N4030G01 X108.393 Z-1.883
N4040G01 X108.193 Z-1.887
N4050G01 X107.993 Z-1.883
N4060G01 X107.793 Z-1.883
N4070G01 X107.593 Z-1.886
N4080G01 X107.393 Z-1.886
N4090G01 X107.193 Z-1.883
N4100G01 X106.593 Z-1.883
N4110G01 X106.393 Z-1.885
N4120G01 X106.193 Z-1.883
N4130G01 X105.793 Z-1.883
N4140G01 X105.593 Z-1.885
N4150G01 X105.393 Z-1.883
N4160G01 X104.993 Z-1.883
N4170G01 X104.793 Z-1.885
N4180G01 X104.593 Z-1.883
N4190G01 X104.193 Z-1.883
N4200G01 X103.393 Z-1.884
N4210G01 X0.193 Z-1.882
N4220 G00 Z9.999
N4230 G00 X349.997 Y5.79
N4240G01 Z-1.395 F500
N4250G01 X343.597 Z-1.395 F1000
N4260G01 X343.397 Z-1.42
N4270G01 X343.197 Z-1.395
N4280G01 X318.997 Z-1.395
N4290G01 X318.797 Z-1.417
N4300G01 X318.597 Z-1.395
N4310G01 X313.797 Z-1.395
N4320G01 X313.597 Z-1.415
N4330G01 X313.397 Z-1.395
N4340G01 X299.997 Z-1.395
N4350G01 X299.797 Z-1.403
N4360G01 X299.597 Z-1.395
N4370G01 X282.396 Z-1.395
N4380G01 X282.196 Z-1.409
N4390G01 X281.996 Z-1.395
N4400G01 X272.996 Z-1.395
N4410G01 X272.796 Z-1.402
N4420G01 X272.596 Z-1.395
N4430G01 X271.796 Z-1.395
N4440G01 X271.596 Z-1.397
N4450G01 X248.996 Z-1.395
N4460G01 X248.796 Z-1.401
N4470G01 X248.596 Z-1.395
N4480G01 X236.796 Z-1.395
N4490G01 X236.596 Z-1.398
N4500G01 X236.396 Z-1.398
N4510G01 X236.196 Z-1.395
N4520G01 X233.995 Z-1.395
N4530G01 X233.795 Z-1.397
N4540G01 X233.595 Z-1.395
N4550G01 X147.394 Z-1.395
N4560G01 X147.194 Z-1.409
N4570G01 X146.994 Z-1.395
N4580G01 X142.994 Z-1.395
N4590G01 X142.794 Z-1.399
N4600G01 X142.594 Z-1.395
N4610G01 X100.393 Z-1.395
N4620G01 X100.193 Z-1.408
N4630G01 X99.993 Z-1.394
N4640G01 X58.993 Z-1.395
N4650G01 X58.793 Z-1.398
N4660G01 X58.593 Z-1.394
N4670G01 X47.193 Z-1.394
N4680G01 X46.993 Z-1.405
N4690G01 X46.793 Z-1.394
N4700G01 X16.793 Z-1.394
N4710G01 X16.593 Z-1.397
N4720G01 X16.393 Z-1.394
N4730G01 X0.193 Z-1.394
N4740 G00 Z9.999
N4750 G00 X349.997 Y247.79
N4760G01 Z-1.092 F500
N4770G01 X52.392 Z-1.092 F1000
N4780G01 X52.192 Z-1.093
N4790G01 X51.992 Z-1.092
N4800G01 X51.792 Z-1.093
N4810G01 X51.592 Z-1.092
N4820G01 X51.392 Z-1.093
N4830G01 X50.592 Z-1.092
N4840G01 X50.392 Z-1.093
N4850G01 X49.592 Z-1.092
N4860G01 X49.392 Z-1.093
N4870G01 X49.192 Z-1.092
N4880G01 X48.792 Z-1.093
N4890G01 X48.592 Z-1.092
N4900G01 X48.392 Z-1.093
N4910G01 X47.592 Z-1.092
N4920G01 X46.792 Z-1.093
N4930G01 X46.592 Z-1.092
N4940G01 X46.192 Z-1.093
N4950G01 X45.992 Z-1.092
N4960G01 X44.792 Z-1.093
N4970G01 X44.592 Z-1.092
N4980G01 X44.192 Z-1.093
N4990G01 X43.392 Z-1.092
N5000G01 X43.192 Z-1.094
N5010G01 X42.592 Z-1.092
N5020G01 X42.392 Z-1.094
N5030G01 X42.192 Z-1.092
N5040G01 X41.792 Z-1.094
N5050G01 X41.592 Z-1.092
N5060G01 X41.392 Z-1.092
N5070G01 X41.192 Z-1.094
N5080G01 X40.992 Z-1.092
N5090G01 X40.792 Z-1.092
N5100G01 X40.592 Z-1.094
N5110G01 X40.392 Z-1.094
N5120G01 X40.192 Z-1.092
N5130G01 X39.792 Z-1.092
N5140G01 X39.592 Z-1.094
N5150G01 X39.392 Z-1.092
N5160G01 X39.192 Z-1.094
N5170G01 X38.992 Z-1.092
N5180G01 X38.792 Z-1.092
N5190G01 X38.592 Z-1.094
N5200G01 X38.392 Z-1.092
N5210G01 X36.992 Z-1.092
N5220G01 X36.792 Z-1.095
N5230G01 X36.592 Z-1.092
N5240G01 X34.792 Z-1.092
N5250G01 X34.592 Z-1.096
N5260G01 X34.392 Z-1.092
N5270G01 X33.992 Z-1.092
N5280G01 X33.792 Z-1.096
N5290G01 X33.592 Z-1.092
N5300G01 X32.992 Z-1.092
N5310G01 X32.792 Z-1.096
N5320G01 X32.592 Z-1.092
N5330G01 X31.992 Z-1.092
N5340G01 X31.792 Z-1.096
N5350G01 X31.592 Z-1.092
N5360G01 X0.192 Z-1.092
N5370 G00 Z9.999
N5380 G00 X349.997 Y248.29
N5390G01 Z-1.559 F500
N5400G01 X48.192 Z-1.559 F1000
N5410G01 X47.992 Z-1.56
N5420G01 X47.592 Z-1.559
N5430G01 X47.192 Z-1.56
N5440G01 X46.592 Z-1.559
N5450G01 X46.192 Z-1.56
N5460G01 X43.592 Z-1.559
N5470G01 X43.392 Z-1.56
N5480G01 X41.992 Z-1.559
N5490G01 X41.592 Z-1.56
N5500G01 X40.792 Z-1.559
N5510G01 X40.592 Z-1.56
N5520G01 X39.592 Z-1.559
N5530G01 X39.192 Z-1.561
N5540G01 X38.992 Z-1.559
N5550G01 X38.392 Z-1.561
N5560G01 X37.392 Z-1.559
N5570G01 X37.192 Z-1.561
N5580G01 X36.992 Z-1.559
N5590G01 X36.792 Z-1.561
N5600G01 X36.592 Z-1.561
N5610G01 X36.392 Z-1.559
N5620G01 X35.992 Z-1.559
N5630G01 X35.792 Z-1.561
N5640G01 X35.592 Z-1.559
N5650G01 X35.392 Z-1.561
N5660G01 X35.192 Z-1.559
N5670G01 X31.992 Z-1.559
N5680G01 X31.792 Z-1.562
N5690G01 X31.592 Z-1.559
N5700G01 X30.992 Z-1.559
N5710G01 X30.792 Z-1.562
N5720G01 X30.592 Z-1.562
N5730G01 X30.392 Z-1.559
N5740G01 X29.992 Z-1.559
N5750G01 X29.792 Z-1.563
N5760G01 X29.592 Z-1.559
N5770G01 X28.192 Z-1.559
N5780G01 X27.992 Z-1.563
N5790G01 X27.792 Z-1.559
N5800G01 X0.192 Z-1.559
N5810 G00 Z9.999
N5820 G00 X349.997 Y248.79
N5830G01 Z-2.05 F500
N5840G01 X0.192 F1000
N5850 G00 Z9.999
N5860 G00 X349.997 Y249.29
N5870G01 Z-2.05 F500
N5880G01 X0.192 F1000
N5890 G00 Z9.999
N5900 G00 X349.997 Y249.79
N5910G01 Z-2.05 F500
N5920G01 X0.192 F1000
N5930 G00 Z9.999
N5940 G00 X349.997 Y250.29
N5950G01 Z-2.05 F500
N5960G01 X0.192 F1000
N5970 G00 Z9.999
N5980 G00 X349.997 Y250.79
N5990G01 Z-2.05 F500
N6000G01 X0.192 F1000
N6010 G00 Z9.999
N6020 G00 X349.997 Y251.29
N6030G01 Z-2.05 F500
N6040G01 X0.192 F1000
N6050 G00 Z9.999
N6060 G00 X349.997 Y0.29
N6070G01 Z-3.05 F500
N6080G01 X0.193 Y0.289 F1000
N6090 G00 Z9.999
N6100 G00 X349.997 Y0.79
N6110G01 Z-3.05 F500
N6120G01 X0.193 Y0.789 F1000
N6130 G00 Z9.999
N6140 G00 X349.997 Y1.29
N6150G01 Z-3.05 F500
N6160G01 X0.193 Y1.289 F1000
N6170 G00 Z9.999
N6180 G00 X349.997 Y1.79
N6190G01 Z-3.05 F500
N6200G01 X0.193 Y1.789 F1000
N6210 G00 Z9.999
N6220 G00 X349.997 Y2.29
N6230G01 Z-3.05 F500
N6240G01 X0.193 Y2.289 F1000
N6250 G00 Z9.999
N6260 G00 X349.997 Y2.79
N6270G01 Z-3.05 F500
N6280G01 X0.193 Y2.789 F1000
N6290 G00 Z9.999
N6300 G00 X349.997 Y3.29
N6310G01 Z-3.05 F500
N6320G01 X0.193 Y3.289 F1000
N6330 G00 Z9.999
N6340 G00 X349.997 Y3.79
N6350G01 Z-3.05 F500
N6360G01 X0.193 Y3.789 F1000
N6370 G00 Z9.999
N6380 G00 X349.997 Y4.29
N6390G01 Z-2.883 F500
N6400G01 X157.594 Z-2.883 F1000
N6410G01 X157.394 Z-2.895
N6420G01 X157.194 Z-2.883
N6430G01 X156.194 Z-2.883
N6440G01 X155.994 Z-2.89
N6450G01 X155.794 Z-2.883
N6460G01 X154.794 Z-2.883
N6470G01 X154.594 Z-2.888
N6480G01 X154.394 Z-2.883
N6490G01 X153.394 Z-2.883
N6500G01 X153.194 Z-2.886
N6510G01 X152.994 Z-2.883
N6520G01 X152.394 Z-2.883
N6530G01 X152.194 Z-2.886
N6540G01 X151.794 Z-2.885
N6550G01 X151.594 Z-2.883
N6560G01 X151.394 Z-2.883
N6570G01 X151.194 Z-2.885
N6580G01 X150.994 Z-2.885
N6590G01 X150.794 Z-2.883
N6600G01 X150.394 Z-2.885
N6610G01 X150.194 Z-2.883
N6620G01 X149.794 Z-2.884
N6630G01 X149.194 Z-2.883
N6640G01 X148.994 Z-2.884
N6650G01 X143.594 Z-2.883
N6660G01 X143.394 Z-2.884
N6670G01 X0.193 Z-2.882
N6680 G00 Z9.999
N6690 G00 X349.997 Y4.79
N6700G01 Z-2.383 F500
N6710G01 X136.594 Z-2.383 F1000
N6720G01 X136.394 Z-2.401
N6730G01 X136.194 Z-2.383
N6740G01 X133.594 Z-2.383
N6750G01 X133.394 Z-2.39
N6760G01 X133.194 Z-2.383
N6770G01 X132.394 Z-2.383
N6780G01 X132.194 Z-2.388
N6790G01 X131.994 Z-2.383
N6800G01 X131.594 Z-2.383
N6810G01 X131.394 Z-2.387
N6820G01 X131.194 Z-2.383
N6830G01 X130.394 Z-2.383
N6840G01 X130.194 Z-2.386
N6850G01 X129.994 Z-2.383
N6860G01 X129.794 Z-2.386
N6870G01 X129.594 Z-2.383
N6880G01 X129.194 Z-2.383
N6890G01 X128.994 Z-2.385
N6900G01 X128.794 Z-2.383
N6910G01 X127.594 Z-2.383
N6920G01 X127.394 Z-2.385
N6930G01 X123.194 Z-2.383
N6940G01 X122.994 Z-2.384
N6950G01 X0.193 Z-2.383
N6960 G00 Z9.999
N6970 G00 X349.997 Y248.79
N6980G01 Z-2.066 F500
N6990G01 X144.994 Z-2.064 F1000
N7000G01 X144.794 Z-2.066
N7010G01 X77.193 Z-2.065
N7020G01 X76.393 Z-2.067
N7030G01 X75.793 Z-2.065
N7040G01 X75.393 Z-2.067
N7050G01 X74.993 Z-2.066
N7060G01 X74.793 Z-2.067
N7070G01 X74.393 Z-2.065
N7080G01 X73.793 Z-2.067
N7090G01 X72.993 Z-2.065
N7100G01 X72.793 Z-2.067
N7110G01 X70.993 Z-2.065
N7120G01 X70.793 Z-2.067
N7130G01 X69.993 Z-2.066
N7140G01 X69.593 Z-2.067
N7150G01 X68.592 Z-2.065
N7160G01 X67.992 Z-2.067
N7170G01 X67.392 Z-2.065
N7180G01 X66.992 Z-2.068
N7190G01 X66.792 Z-2.065
N7200G01 X66.392 Z-2.065
N7210G01 X66.192 Z-2.067
N7220G01 X65.992 Z-2.065
N7230G01 X65.592 Z-2.067
N7240G01 X65.392 Z-2.065
N7250G01 X65.192 Z-2.067
N7260G01 X64.992 Z-2.065
N7270G01 X64.792 Z-2.067
N7280G01 X64.592 Z-2.065
N7290G01 X64.392 Z-2.068
N7300G01 X63.592 Z-2.066
N7310G01 X63.392 Z-2.068
N7320G01 X63.192 Z-2.068
N7330G01 X62.992 Z-2.065
N7340G01 X62.792 Z-2.065
N7350G01 X62.592 Z-2.068
N7360G01 X62.392 Z-2.068
N7370G01 X62.192 Z-2.065
N7380G01 X61.992 Z-2.068
N7390G01 X61.792 Z-2.065
N7400G01 X61.192 Z-2.065
N7410G01 X60.992 Z-2.068
N7420G01 X60.792 Z-2.068
N7430G01 X60.592 Z-2.066
N7440G01 X60.392 Z-2.068
N7450G01 X60.192 Z-2.065
N7460G01 X59.192 Z-2.065
N7470G01 X58.992 Z-2.069
N7480G01 X58.792 Z-2.069
N7490G01 X58.592 Z-2.065
N7500G01 X57.792 Z-2.065
N7510G01 X57.592 Z-2.069
N7520G01 X57.392 Z-2.069
N7530G01 X57.192 Z-2.065
N7540G01 X56.992 Z-2.069
N7550G01 X56.792 Z-2.065
N7560G01 X56.392 Z-2.065
N7570G01 X56.192 Z-2.07
N7580G01 X55.992 Z-2.065
N7590G01 X55.792 Z-2.07
N7600G01 X55.592 Z-2.065
N7610G01 X55.192 Z-2.065
N7620G01 X54.992 Z-2.07
N7630G01 X54.792 Z-2.065
N7640G01 X53.392 Z-2.065
N7650G01 X53.192 Z-2.071
N7660G01 X52.992 Z-2.071
N7670G01 X52.792 Z-2.065
N7680G01 X51.592 Z-2.065
N7690G01 X51.392 Z-2.072
N7700G01 X50.992 Z-2.073
N7710G01 X50.792 Z-2.065
N7720G01 X50.592 Z-2.065
N7730G01 X50.392 Z-2.073
N7740G01 X50.192 Z-2.065
N7750G01 X49.592 Z-2.065
N7760G01 X49.392 Z-2.074
N7770G01 X49.192 Z-2.065
N7780G01 X48.392 Z-2.065
N7790G01 X48.192 Z-2.076
N7800G01 X47.992 Z-2.065
N7810G01 X0.192 Z-2.065
N7820 G00 Z9.999
N7830 G00 X349.997 Y249.29
N7840G01 Z-2.607 F500
N7850G01 X127.393 Z-2.606 F1000
N7860G01 X124.393 Z-2.607
N7870G01 X124.193 Z-2.605
N7880G01 X123.393 Z-2.607
N7890G01 X123.193 Z-2.605
N7900G01 X122.593 Z-2.607
N7910G01 X122.193 Z-2.606
N7920G01 X121.593 Z-2.607
N7930G01 X68.792 Z-2.607
N7940G01 X68.592 Z-2.608
N7950G01 X68.392 Z-2.607
N7960G01 X68.192 Z-2.608
N7970G01 X66.992 Z-2.607
N7980G01 X66.792 Z-2.608
N7990G01 X65.992 Z-2.607
N8000G01 X65.392 Z-2.608
N8010G01 X64.592 Z-2.607
N8020G01 X64.192 Z-2.608
N8030G01 X63.392 Z-2.607
N8040G01 X63.192 Z-2.608
N8050G01 X60.592 Z-2.607
N8060G01 X60.392 Z-2.608
N8070G01 X59.992 Z-2.607
N8080G01 X59.792 Z-2.608
N8090G01 X58.792 Z-2.607
N8100G01 X58.592 Z-2.608
N8110G01 X58.192 Z-2.607
N8120G01 X57.992 Z-2.609
N8130G01 X57.592 Z-2.607
N8140G01 X57.392 Z-2.609
N8150G01 X56.792 Z-2.607
N8160G01 X56.592 Z-2.609
N8170G01 X56.392 Z-2.607
N8180G01 X56.192 Z-2.609
N8190G01 X55.992 Z-2.607
N8200G01 X55.792 Z-2.607
N8210G01 X55.592 Z-2.609
N8220G01 X55.392 Z-2.607
N8230G01 X55.192 Z-2.607
N8240G01 X54.992 Z-2.609
N8250G01 X54.792 Z-2.607
N8260G01 X54.392 Z-2.607
N8270G01 X54.192 Z-2.609
N8280G01 X53.992 Z-2.607
N8290G01 X52.992 Z-2.607
N8300G01 X52.792 Z-2.61
N8310G01 X52.592 Z-2.607
N8320G01 X52.392 Z-2.607
N8330G01 X52.192 Z-2.61
N8340G01 X51.992 Z-2.607
N8350G01 X51.792 Z-2.61
N8360G01 X51.192 Z-2.61
N8370G01 X50.992 Z-2.607
N8380G01 X50.592 Z-2.607
N8390G01 X50.392 Z-2.61
N8400G01 X50.192 Z-2.61
N8410G01 X49.992 Z-2.607
N8420G01 X48.992 Z-2.607
N8430G01 X48.792 Z-2.611
N8440G01 X48.592 Z-2.607
N8450G01 X48.392 Z-2.611
N8460G01 X48.192 Z-2.611
N8470G01 X47.992 Z-2.607
N8480G01 X47.392 Z-2.607
N8490G01 X47.192 Z-2.612
N8500G01 X46.992 Z-2.607
N8510G01 X46.592 Z-2.607
N8520G01 X46.392 Z-2.612
N8530G01 X46.192 Z-2.607
N8540G01 X0.192 Z-2.607
N8550 G00 Z9.999
N8560 G00 X349.997 Y249.79
N8570G01 Z-3.05 F500
N8580G01 X0.192 F1000
N8590 G00 Z9.999
N8600 G00 X349.997 Y250.29
N8610G01 Z-3.05 F500
N8620G01 X0.192 F1000
N8630 G00 Z9.999
N8640 G00 X349.997 Y250.79
N8650G01 Z-3.05 F500
N8660G01 X0.192 F1000
N8670 G00 Z9.999
N8680 G00 X349.997 Y251.29
N8690G01 Z-3.05 F500
N8700G01 X0.192 F1000
N8710 G00 Z9.999
N8720 G00 X349.997 Y0.29
N8730G01 Z-4.05 F500
N8740G01 X0.193 Y0.289 F1000
N8750 G00 Z9.999
N8760 G00 X349.997 Y0.79
N8770G01 Z-4.05 F500
N8780G01 X0.193 Y0.789 F1000
N8790 G00 Z9.999
N8800 G00 X349.997 Y1.29
N8810G01 Z-4.05 F500
N8820G01 X0.193 Y1.289 F1000
N8830 G00 Z9.999
N8840 G00 X349.997 Y1.79
N8850G01 Z-4.05 F500
N8860G01 X0.193 Y1.789 F1000
N8870 G00 Z9.999
N8880 G00 X349.997 Y2.29
N8890G01 Z-4.05 F500
N8900G01 X0.193 Y2.289 F1000
N8910 G00 Z9.999
N8920 G00 X349.997 Y2.79
N8930G01 Z-4.05 F500
N8940G01 X0.193 Y2.789 F1000
N8950 G00 Z9.999
N8960 G00 X349.997 Y3.29
N8970G01 Z-3.883 F500
N8980G01 X201.795 Y3.289 Z-3.883 F1000
N8990G01 X201.595 Y3.289 Z-3.893
N9000G01 X201.395 Y3.289 Z-3.883
N9010G01 X201.195 Y3.289 Z-3.883
N9020G01 X200.995 Y3.289 Z-3.891
N9030G01 X200.795 Y3.289 Z-3.883
N9040G01 X200.595 Y3.289 Z-3.89
N9050G01 X200.395 Y3.289 Z-3.89
N9060G01 X200.195 Y3.289 Z-3.883
N9070G01 X199.395 Y3.289 Z-3.883
N9080G01 X199.195 Y3.289 Z-3.888
N9090G01 X198.995 Y3.289 Z-3.887
N9100G01 X198.795 Y3.289 Z-3.883
N9110G01 X198.395 Y3.289 Z-3.883
N9120G01 X198.195 Y3.289 Z-3.887
N9130G01 X197.995 Y3.289 Z-3.883
N9140G01 X197.795 Y3.289 Z-3.886
N9150G01 X197.595 Y3.289 Z-3.886
N9160G01 X197.395 Y3.289 Z-3.883
N9170G01 X197.195 Y3.289 Z-3.883
N9180G01 X196.995 Y3.289 Z-3.886
N9190G01 X196.395 Y3.289 Z-3.885
N9200G01 X196.195 Y3.289 Z-3.883
N9210G01 X195.995 Y3.289 Z-3.885
N9220G01 X195.395 Y3.289 Z-3.883
N9230G01 X194.995 Y3.289 Z-3.885
N9240G01 X0.193 Y3.289 Z-3.883
N9250 G00 Z9.999
N9260 G00 X349.997 Y3.79
N9270G01 Z-3.383 F500
N9280G01 X180.195 Y3.789 Z-3.383 F1000
N9290G01 X179.995 Y3.789 Z-3.396
N9300G01 X179.795 Y3.789 Z-3.383
N9310G01 X179.595 Y3.789 Z-3.383
N9320G01 X179.395 Y3.789 Z-3.394
N9330G01 X179.195 Y3.789 Z-3.383
N9340G01 X178.995 Y3.789 Z-3.383
N9350G01 X178.795 Y3.789 Z-3.392
N9360G01 X178.595 Y3.789 Z-3.383
N9370G01 X178.395 Y3.789 Z-3.383
N9380G01 X178.195 Y3.789 Z-3.39
N9390G01 X177.995 Y3.789 Z-3.39
N9400G01 X177.795 Y3.789 Z-3.383
N9410G01 X177.595 Y3.789 Z-3.383
N9420G01 X177.395 Y3.789 Z-3.389
N9430G01 X177.195 Y3.789 Z-3.383
N9440G01 X176.995 Y3.789 Z-3.388
N9450G01 X176.795 Y3.789 Z-3.383
N9460G01 X176.595 Y3.789 Z-3.388
N9470G01 X176.394 Y3.789 Z-3.387
N9480G01 X176.194 Y3.789 Z-3.383
N9490G01 X175.794 Y3.789 Z-3.383
N9500G01 X175.594 Y3.789 Z-3.387
N9510G01 X175.394 Y3.789 Z-3.383
N9520G01 X174.394 Y3.789 Z-3.383
N9530G01 X174.194 Y3.789 Z-3.386
N9540G01 X173.994 Y3.789 Z-3.383
N9550G01 X173.794 Y3.789 Z-3.385
N9560G01 X173.594 Y3.789 Z-3.383
N9570G01 X173.194 Y3.789 Z-3.383
N9580G01 X172.794 Y3.789 Z-3.385
N9590G01 X172.594 Y3.789 Z-3.383
N9600G01 X172.394 Y3.789 Z-3.385
N9610G01 X0.193 Y3.789 Z-3.383
N9620 G00 Z9.999
N9630 G00 X349.997 Y249.79
N9640G01 Z-3.191 F500
N9650G01 X94.593 Z-3.192 F1000
N9660G01 X94.393 Z-3.191
N9670G01 X94.193 Z-3.192
N9680G01 X93.993 Z-3.19
N9690G01 X91.593 Z-3.192
N9700G01 X91.393 Z-3.191
N9710G01 X91.193 Z-3.192
N9720G01 X90.993 Z-3.191
N9730G01 X90.793 Z-3.192
N9740G01 X90.593 Z-3.19
N9750G01 X89.993 Z-3.192
N9760G01 X89.793 Z-3.191
N9770G01 X87.393 Z-3.192
N9780G01 X86.993 Z-3.19
N9790G01 X86.793 Z-3.192
N9800G01 X86.593 Z-3.192
N9810G01 X86.393 Z-3.19
N9820G01 X86.193 Z-3.192
N9830G01 X85.593 Z-3.191
N9840G01 X85.393 Z-3.192
N9850G01 X84.993 Z-3.19
N9860G01 X81.593 Z-3.191
N9870G01 X81.393 Z-3.189
N9880G01 X80.193 Z-3.191
N9890G01 X42.792 Z-3.191
N9900G01 X42.592 Z-3.193
N9910G01 X41.592 Z-3.191
N9920G01 X41.392 Z-3.193
N9930G01 X41.192 Z-3.191
N9940G01 X39.192 Z-3.191
N9950G01 X38.992 Z-3.193
N9960G01 X38.792 Z-3.191
N9970G01 X38.592 Z-3.193
N9980G01 X38.392 Z-3.194
N9990G01 X38.192 Z-3.191
N10000G01 X36.992 Z-3.191
N10010G01 X36.792 Z-3.194
N10020G01 X36.592 Z-3.194
N10030G01 X36.392 Z-3.191
N10040G01 X33.992 Z-3.191
N10050G01 X33.792 Z-3.195
N10060G01 X33.592 Z-3.196
N10070G01 X33.392 Z-3.191
N10080G01 X0.192 Z-3.191
N10090 G00 Z9.999
N10100 G00 X349.997 Y250.29
N10110G01 Z-3.824 F500
N10120G01 X81.993 Z-3.823 F1000
N10130G01 X80.993 Z-3.824
N10140G01 X80.593 Z-3.823
N10150G01 X80.393 Z-3.824
N10160G01 X80.193 Z-3.823
N10170G01 X79.793 Z-3.824
N10180G01 X79.593 Z-3.823
N10190G01 X79.393 Z-3.825
N10200G01 X79.193 Z-3.823
N10210G01 X78.793 Z-3.825
N10220G01 X77.793 Z-3.823
N10230G01 X77.593 Z-3.825
N10240G01 X77.193 Z-3.823
N10250G01 X76.993 Z-3.825
N10260G01 X76.793 Z-3.823
N10270G01 X75.993 Z-3.825
N10280G01 X75.793 Z-3.823
N10290G01 X75.193 Z-3.825
N10300G01 X74.393 Z-3.823
N10310G01 X73.393 Z-3.825
N10320G01 X72.993 Z-3.823
N10330G01 X72.793 Z-3.825
N10340G01 X72.593 Z-3.823
N10350G01 X72.193 Z-3.825
N10360G01 X71.793 Z-3.823
N10370G01 X70.993 Z-3.825
N10380G01 X70.793 Z-3.823
N10390G01 X70.593 Z-3.825
N10400G01 X70.193 Z-3.823
N10410G01 X68.993 Z-3.825
N10420G01 X68.792 Z-3.823
N10430G01 X68.192 Z-3.825
N10440G01 X67.992 Z-3.823
N10450G01 X67.792 Z-3.825
N10460G01 X67.392 Z-3.823
N10470G01 X66.192 Z-3.825
N10480G01 X65.992 Z-3.823
N10490G01 X65.792 Z-3.825
N10500G01 X65.192 Z-3.825
N10510G01 X64.792 Z-3.823
N10520G01 X63.992 Z-3.825
N10530G01 X63.792 Z-3.823
N10540G01 X63.592 Z-3.825
N10550G01 X63.392 Z-3.823
N10560G01 X63.192 Z-3.826
N10570G01 X62.992 Z-3.826
N10580G01 X62.792 Z-3.823
N10590G01 X62.592 Z-3.826
N10600G01 X61.992 Z-3.826
N10610G01 X61.792 Z-3.823
N10620G01 X61.592 Z-3.826
N10630G01 X61.392 Z-3.826
N10640G01 X61.192 Z-3.823
N10650G01 X60.992 Z-3.826
N10660G01 X60.792 Z-3.826
N10670G01 X60.592 Z-3.823
N10680G01 X60.192 Z-3.823
N10690G01 X59.992 Z-3.826
N10700G01 X59.592 Z-3.826
N10710G01 X59.392 Z-3.823
N10720G01 X59.192 Z-3.823
N10730G01 X58.992 Z-3.826
N10740G01 X58.392 Z-3.826
N10750G01 X58.192 Z-3.823
N10760G01 X57.992 Z-3.826
N10770G01 X57.592 Z-3.826
N10780G01 X57.392 Z-3.823
N10790G01 X57.192 Z-3.823
N10800G01 X56.992 Z-3.826
N10810G01 X56.592 Z-3.826
N10820G01 X56.392 Z-3.823
N10830G01 X56.192 Z-3.826
N10840G01 X55.792 Z-3.826
N10850G01 X55.592 Z-3.823
N10860G01 X55.392 Z-3.823
N10870G01 X55.192 Z-3.826
N10880G01 X54.592 Z-3.827
N10890G01 X54.392 Z-3.823
N10900G01 X54.192 Z-3.827
N10910G01 X53.792 Z-3.827
N10920G01 X53.592 Z-3.823
N10930G01 X53.392 Z-3.827
N10940G01 X52.592 Z-3.827
N10950G01 X52.392 Z-3.823
N10960G01 X52.192 Z-3.827
N10970G01 X51.992 Z-3.823
N10980G01 X51.792 Z-3.827
N10990G01 X51.592 Z-3.823
N11000G01 X51.392 Z-3.827
N11010G01 X51.192 Z-3.823
N11020G01 X50.992 Z-3.823
N11030G01 X50.792 Z-3.827
N11040G01 X49.792 Z-3.827
N11050G01 X49.592 Z-3.823
N11060G01 X49.392 Z-3.827
N11070G01 X48.992 Z-3.828
N11080G01 X48.792 Z-3.823
N11090G01 X48.592 Z-3.823
N11100G01 X48.392 Z-3.828
N11110G01 X47.392 Z-3.828
N11120G01 X47.192 Z-3.823
N11130G01 X46.992 Z-3.828
N11140G01 X46.792 Z-3.828
N11150G01 X46.592 Z-3.823
N11160G01 X46.192 Z-3.823
N11170G01 X45.992 Z-3.828
N11180G01 X45.792 Z-3.823
N11190G01 X45.592 Z-3.823
N11200G01 X45.392 Z-3.829
N11210G01 X44.992 Z-3.829
N11220G01 X44.792 Z-3.823
N11230G01 X44.592 Z-3.823
N11240G01 X44.392 Z-3.829
N11250G01 X44.192 Z-3.823
N11260G01 X43.592 Z-3.823
N11270G01 X43.392 Z-3.829
N11280G01 X43.192 Z-3.823
N11290G01 X42.992 Z-3.829
N11300G01 X42.792 Z-3.823
N11310G01 X42.592 Z-3.823
N11320G01 X42.392 Z-3.829
N11330G01 X42.192 Z-3.823
N11340G01 X41.992 Z-3.83
N11350G01 X41.192 Z-3.83
N11360G01 X40.992 Z-3.823
N11370G01 X40.792 Z-3.823
N11380G01 X40.592 Z-3.83
N11390G01 X40.392 Z-3.83
N11400G01 X40.192 Z-3.823
N11410G01 X39.992 Z-3.83
N11420G01 X39.792 Z-3.823
N11430G01 X39.592 Z-3.83
N11440G01 X39.392 Z-3.831
N11450G01 X39.192 Z-3.823
N11460G01 X38.792 Z-3.823
N11470G01 X38.592 Z-3.831
N11480G01 X38.392 Z-3.823
N11490G01 X38.192 Z-3.831
N11500G01 X37.792 Z-3.831
N11510G01 X37.592 Z-3.823
N11520G01 X36.992 Z-3.823
N11530G01 X36.792 Z-3.832
N11540G01 X36.592 Z-3.832
N11550G01 X36.392 Z-3.823
N11560G01 X36.192 Z-3.832
N11570G01 X35.992 Z-3.832
N11580G01 X35.792 Z-3.823
N11590G01 X35.592 Z-3.833
N11600G01 X35.392 Z-3.823
N11610G01 X35.192 Z-3.823
N11620G01 X34.992 Z-3.833
N11630G01 X34.592 Z-3.833
N11640G01 X34.392 Z-3.822
N11650G01 X34.192 Z-3.833
N11660G01 X33.992 Z-3.822
N11670G01 X33.792 Z-3.834
N11680G01 X33.592 Z-3.822
N11690G01 X33.392 Z-3.822
N11700G01 X33.192 Z-3.834
N11710G01 X32.992 Z-3.823
N11720G01 X32.792 Z-3.834
N11730G01 X32.592 Z-3.823
N11740G01 X32.392 Z-3.823
N11750G01 X32.192 Z-3.835
N11760G01 X31.992 Z-3.823
N11770G01 X31.792 Z-3.835
N11780G01 X31.392 Z-3.836
N11790G01 X31.192 Z-3.823
N11800G01 X30.992 Z-3.823
N11810G01 X30.792 Z-3.836
N11820G01 X30.592 Z-3.836
N11830G01 X30.392 Z-3.823
N11840G01 X29.992 Z-3.823
N11850G01 X29.792 Z-3.837
N11860G01 X29.592 Z-3.823
N11870G01 X28.992 Z-3.823
N11880G01 X28.792 Z-3.838
N11890G01 X28.592 Z-3.823
N11900G01 X28.192 Z-3.823
N11910G01 X27.992 Z-3.838
N11920G01 X27.792 Z-3.823
N11930G01 X27.192 Z-3.823
N11940G01 X26.992 Z-3.832
N11950G01 X26.792 Z-3.823
N11960G01 X25.192 Z-3.823
N11970G01 X24.992 Z-3.827
N11980G01 X24.792 Z-3.823
N11990G01 X19.792 Z-3.823
N12000G01 X0.192 Z-3.823
N12010 G00 Z9.999
N12020 G00 X349.997 Y250.79
N12030G01 Z-4.05 F500
N12040G01 X0.192 F1000
N12050 G00 Z9.999
N12060 G00 X349.997 Y251.29
N12070G01 Z-4.05 F500
N12080G01 X0.192 F1000
N12090 G00 Z9.999
N12100 G00 X349.997 Y0.29
N12110G01 Z-5.05 F500
N12120G01 X0.193 Y0.289 F1000
N12130 G00 Z9.999
N12140 G00 X349.997 Y0.79
N12150G01 Z-5.05 F500
N12160G01 X0.193 Y0.789 F1000
N12170 G00 Z9.999
N12180 G00 X349.997 Y1.29
N12190G01 Z-5.05 F500
N12200G01 X0.193 Y1.289 F1000
N12210 G00 Z9.999
N12220 G00 X349.997 Y1.79
N12230G01 Z-5.05 F500
N12240G01 X0.193 Y1.789 F1000
N12250 G00 Z9.999
N12260 G00 X349.997 Y2.29
N12270G01 Z-4.883 F500
N12280G01 X238.196 Y2.289 Z-4.883 F1000
N12290G01 X237.996 Y2.289 Z-4.892
N12300G01 X237.796 Y2.289 Z-4.891
N12310G01 X237.596 Y2.289 Z-4.883
N12320G01 X236.796 Y2.289 Z-4.883
N12330G01 X236.596 Y2.289 Z-4.89
N12340G01 X236.396 Y2.289 Z-4.883
N12350G01 X235.395 Y2.289 Z-4.883
N12360G01 X235.195 Y2.289 Z-4.888
N12370G01 X234.995 Y2.289 Z-4.888
N12380G01 X234.795 Y2.289 Z-4.883
N12390G01 X234.195 Y2.289 Z-4.883
N12400G01 X233.995 Y2.289 Z-4.887
N12410G01 X233.795 Y2.289 Z-4.887
N12420G01 X233.595 Y2.289 Z-4.883
N12430G01 X232.595 Y2.289 Z-4.883
N12440G01 X232.395 Y2.289 Z-4.887
N12450G01 X232.195 Y2.289 Z-4.886
N12460G01 X231.995 Y2.289 Z-4.883
N12470G01 X230.995 Y2.289 Z-4.883
N12480G01 X230.795 Y2.289 Z-4.886
N12490G01 X230.595 Y2.289 Z-4.886
N12500G01 X230.395 Y2.289 Z-4.883
N12510G01 X229.995 Y2.289 Z-4.883
N12520G01 X229.795 Y2.289 Z-4.885
N12530G01 X229.395 Y2.289 Z-4.885
N12540G01 X229.195 Y2.289 Z-4.883
N12550G01 X228.395 Y2.289 Z-4.883
N12560G01 X228.195 Y2.289 Z-4.885
N12570G01 X227.995 Y2.289 Z-4.883
N12580G01 X227.795 Y2.289 Z-4.885
N12590G01 X227.395 Y2.289 Z-4.883
N12600G01 X227.195 Y2.289 Z-4.885
N12610G01 X226.795 Y2.289 Z-4.883
N12620G01 X226.595 Y2.289 Z-4.885
N12630G01 X0.193 Y2.289 Z-4.883
N12640 G00 Z9.999
N12650 G00 X349.997 Y2.79
N12660G01 Z-4.383 F500
N12670G01 X224.195 Y2.789 Z-4.383 F1000
N12680G01 X223.995 Y2.789 Z-4.394
N12690G01 X223.795 Y2.789 Z-4.383
N12700G01 X222.795 Y2.789 Z-4.383
N12710G01 X222.595 Y2.789 Z-4.389
N12720G01 X222.395 Y2.789 Z-4.383
N12730G01 X222.195 Y2.789 Z-4.388
N12740G01 X221.995 Y2.789 Z-4.383
N12750G01 X221.595 Y2.789 Z-4.383
N12760G01 X221.395 Y2.789 Z-4.387
N12770G01 X221.195 Y2.789 Z-4.387
N12780G01 X220.995 Y2.789 Z-4.383
N12790G01 X220.195 Y2.789 Z-4.383
N12800G01 X219.995 Y2.789 Z-4.386
N12810G01 X219.795 Y2.789 Z-4.383
N12820G01 X219.195 Y2.789 Z-4.383
N12830G01 X218.995 Y2.789 Z-4.385
N12840G01 X218.595 Y2.789 Z-4.383
N12850G01 X218.195 Y2.789 Z-4.385
N12860G01 X167.394 Y2.789 Z-4.383
N12870G01 X167.194 Y2.789 Z-4.388
N12880G01 X166.994 Y2.789 Z-4.383
N12890G01 X166.794 Y2.789 Z-4.387
N12900G01 X166.594 Y2.789 Z-4.383
N12910G01 X166.394 Y2.789 Z-4.386
N12920G01 X165.994 Y2.789 Z-4.385
N12930G01 X165.794 Y2.789 Z-4.383
N12940G01 X165.594 Y2.789 Z-4.385
N12950G01 X133.994 Y2.789 Z-4.382
N12960G01 X0.193 Y2.789 Z-4.383
N12970 G00 Z9.999
N12980 G00 X349.997 Y250.79
N12990G01 Z-4.519 F500
N13000G01 X302.996 Z-4.517 F1000
N13010G01 X277.996 Z-4.519
N13020G01 X128.194 Z-4.519
N13030G01 X127.994 Z-4.52
N13040G01 X127.393 Z-4.519
N13050G01 X126.793 Z-4.52
N13060G01 X126.593 Z-4.519
N13070G01 X125.993 Z-4.52
N13080G01 X125.793 Z-4.519
N13090G01 X124.993 Z-4.52
N13100G01 X124.393 Z-4.519
N13110G01 X123.793 Z-4.52
N13120G01 X123.193 Z-4.519
N13130G01 X122.393 Z-4.52
N13140G01 X122.193 Z-4.519
N13150G01 X121.793 Z-4.52
N13160G01 X121.593 Z-4.519
N13170G01 X120.993 Z-4.52
N13180G01 X120.793 Z-4.519
N13190G01 X120.593 Z-4.52
N13200G01 X120.193 Z-4.519
N13210G01 X119.793 Z-4.52
N13220G01 X119.593 Z-4.519
N13230G01 X119.193 Z-4.52
N13240G01 X118.593 Z-4.519
N13250G01 X117.793 Z-4.52
N13260G01 X117.393 Z-4.519
N13270G01 X116.793 Z-4.52
N13280G01 X116.593 Z-4.519
N13290G01 X116.393 Z-4.52
N13300G01 X115.993 Z-4.519
N13310G01 X115.593 Z-4.52
N13320G01 X114.593 Z-4.519
N13330G01 X114.193 Z-4.521
N13340G01 X113.593 Z-4.519
N13350G01 X113.393 Z-4.521
N13360G01 X113.193 Z-4.519
N13370G01 X112.993 Z-4.521
N13380G01 X112.593 Z-4.521
N13390G01 X112.393 Z-4.519
N13400G01 X111.793 Z-4.519
N13410G01 X111.593 Z-4.521
N13420G01 X111.393 Z-4.521
N13430G01 X111.193 Z-4.519
N13440G01 X110.993 Z-4.521
N13450G01 X110.793 Z-4.519
N13460G01 X110.593 Z-4.521
N13470G01 X110.393 Z-4.519
N13480G01 X110.193 Z-4.521
N13490G01 X109.193 Z-4.521
N13500G01 X108.993 Z-4.519
N13510G01 X108.793 Z-4.521
N13520G01 X107.993 Z-4.521
N13530G01 X107.793 Z-4.519
N13540G01 X107.593 Z-4.519
N13550G01 X107.393 Z-4.521
N13560G01 X106.393 Z-4.522
N13570G01 X106.193 Z-4.519
N13580G01 X105.993 Z-4.522
N13590G01 X105.193 Z-4.521
N13600G01 X104.993 Z-4.519
N13610G01 X104.793 Z-4.519
N13620G01 X104.593 Z-4.522
N13630G01 X103.993 Z-4.522
N13640G01 X103.793 Z-4.519
N13650G01 X103.393 Z-4.519
N13660G01 X103.193 Z-4.522
N13670G01 X102.593 Z-4.522
N13680G01 X102.393 Z-4.519
N13690G01 X101.993 Z-4.519
N13700G01 X101.793 Z-4.522
N13710G01 X101.393 Z-4.523
N13720G01 X101.193 Z-4.519
N13730G01 X100.993 Z-4.519
N13740G01 X100.793 Z-4.523
N13750G01 X99.993 Z-4.523
N13760G01 X99.793 Z-4.519
N13770G01 X99.593 Z-4.523
N13780G01 X99.393 Z-4.519
N13790G01 X99.193 Z-4.519
N13800G01 X98.993 Z-4.523
N13810G01 X97.993 Z-4.524
N13820G01 X97.793 Z-4.519
N13830G01 X97.593 Z-4.524
N13840G01 X96.593 Z-4.523
N13850G01 X96.393 Z-4.519
N13860G01 X96.193 Z-4.519
N13870G01 X95.993 Z-4.524
N13880G01 X95.593 Z-4.524
N13890G01 X95.393 Z-4.519
N13900G01 X95.193 Z-4.524
N13910G01 X94.993 Z-4.519
N13920G01 X94.793 Z-4.525
N13930G01 X94.393 Z-4.525
N13940G01 X94.193 Z-4.519
N13950G01 X93.593 Z-4.519
N13960G01 X93.393 Z-4.525
N13970G01 X92.993 Z-4.525
N13980G01 X92.793 Z-4.519
N13990G01 X92.593 Z-4.519
N14000G01 X92.393 Z-4.526
N14010G01 X91.393 Z-4.526
N14020G01 X91.193 Z-4.519
N14030G01 X90.993 Z-4.526
N14040G01 X90.593 Z-4.526
N14050G01 X90.393 Z-4.519
N14060G01 X90.193 Z-4.526
N14070G01 X89.993 Z-4.519
N14080G01 X89.793 Z-4.519
N14090G01 X89.593 Z-4.526
N14100G01 X89.393 Z-4.519
N14110G01 X89.193 Z-4.526
N14120G01 X88.793 Z-4.527
N14130G01 X88.593 Z-4.519
N14140G01 X88.393 Z-4.519
N14150G01 X88.193 Z-4.528
N14160G01 X87.393 Z-4.528
N14170G01 X87.193 Z-4.519
N14180G01 X86.993 Z-4.519
N14190G01 X86.793 Z-4.528
N14200G01 X86.593 Z-4.528
N14210G01 X86.393 Z-4.519
N14220G01 X86.193 Z-4.529
N14230G01 X85.993 Z-4.519
N14240G01 X85.393 Z-4.519
N14250G01 X85.193 Z-4.53
N14260G01 X84.993 Z-4.519
N14270G01 X84.793 Z-4.529
N14280G01 X84.593 Z-4.53
N14290G01 X84.393 Z-4.519
N14300G01 X84.193 Z-4.519
N14310G01 X83.993 Z-4.53
N14320G01 X83.793 Z-4.519
N14330G01 X83.593 Z-4.519
N14340G01 X83.393 Z-4.531
N14350G01 X82.793 Z-4.531
N14360G01 X82.593 Z-4.533
N14370G01 X82.193 Z-4.532
N14380G01 X81.993 Z-4.534
N14390G01 X81.793 Z-4.519
N14400G01 X81.393 Z-4.519
N14410G01 X81.193 Z-4.535
N14420G01 X80.993 Z-4.535
N14430G01 X80.793 Z-4.519
N14440G01 X80.593 Z-4.534
N14450G01 X80.393 Z-4.519
N14460G01 X79.993 Z-4.519
N14470G01 X79.793 Z-4.535
N14480G01 X79.593 Z-4.519
N14490G01 X78.593 Z-4.519
N14500G01 X78.393 Z-4.538
N14510G01 X78.193 Z-4.538
N14520G01 X77.993 Z-4.519
N14530G01 X77.193 Z-4.519
N14540G01 X76.993 Z-4.54
N14550G01 X76.793 Z-4.519
N14560G01 X72.993 Z-4.519
N14570G01 X72.793 Z-4.552
N14580G01 X72.593 Z-4.519
N14590G01 X0.192 Z-4.518
N14600 G00 Z9.999
N14610 G00 X349.997 Y251.29
N14620G01 Z-5.05 F500
N14630G01 X0.192 F1000
N14640 G00 Z9.999
N14650 G00 X349.997 Y0.29
N14660G01 Z-6.05 F500
N14670G01 X0.193 Y0.289 F1000
N14680 G00 Z9.999
N14690 G00 X349.997 Y0.79
N14700G01 Z-6.05 F500
N14710G01 X0.193 Y0.789 F1000
N14720 G00 Z9.999
N14730 G00 X349.997 Y1.29
N14740G01 Z-5.883 F500
N14750G01 X284.796 Y1.29 Z-5.883 F1000
N14760G01 X284.596 Y1.29 Z-5.897
N14770G01 X284.396 Y1.29 Z-5.883
N14780G01 X284.196 Y1.29 Z-5.883
N14790G01 X283.996 Y1.29 Z-5.895
N14800G01 X283.796 Y1.29 Z-5.883
N14810G01 X279.596 Y1.29 Z-5.883
N14820G01 X279.396 Y1.29 Z-5.888
N14830G01 X279.196 Y1.29 Z-5.883
N14840G01 X278.996 Y1.29 Z-5.883
N14850G01 X278.796 Y1.29 Z-5.887
N14860G01 X278.596 Y1.29 Z-5.883
N14870G01 X277.996 Y1.29 Z-5.883
N14880G01 X277.796 Y1.29 Z-5.887
N14890G01 X277.596 Y1.29 Z-5.883
N14900G01 X276.796 Y1.29 Z-5.883
N14910G01 X276.596 Y1.29 Z-5.886
N14920G01 X276.396 Y1.29 Z-5.883
N14930G01 X276.196 Y1.29 Z-5.886
N14940G01 X275.996 Y1.29 Z-5.883
N14950G01 X275.796 Y1.29 Z-5.886
N14960G01 X275.596 Y1.29 Z-5.883
N14970G01 X275.396 Y1.29 Z-5.886
N14980G01 X274.996 Y1.29 Z-5.885
N14990G01 X274.796 Y1.29 Z-5.883
N15000G01 X274.596 Y1.29 Z-5.885
N15010G01 X274.396 Y1.29 Z-5.883
N15020G01 X272.796 Y1.29 Z-5.883
N15030G01 X272.596 Y1.29 Z-5.885
N15040G01 X0.193 Y1.289 Z-5.883
N15050 G00 Z9.999
N15060 G00 X349.997 Y1.79
N15070G01 Z-5.383 F500
N15080G01 X262.996 Y1.79 Z-5.383 F1000
N15090G01 X262.796 Y1.79 Z-5.398
N15100G01 X262.596 Y1.79 Z-5.383
N15110G01 X262.196 Y1.79 Z-5.383
N15120G01 X261.996 Y1.79 Z-5.395
N15130G01 X261.796 Y1.79 Z-5.383
N15140G01 X260.396 Y1.79 Z-5.383
N15150G01 X260.196 Y1.79 Z-5.392
N15160G01 X259.996 Y1.79 Z-5.383
N15170G01 X258.396 Y1.79 Z-5.383
N15180G01 X258.196 Y1.79 Z-5.389
N15190G01 X257.996 Y1.79 Z-5.383
N15200G01 X256.796 Y1.79 Z-5.383
N15210G01 X256.596 Y1.79 Z-5.388
N15220G01 X256.396 Y1.79 Z-5.383
N15230G01 X256.196 Y1.79 Z-5.387
N15240G01 X255.996 Y1.79 Z-5.387
N15250G01 X255.796 Y1.79 Z-5.383
N15260G01 X254.996 Y1.79 Z-5.383
N15270G01 X254.796 Y1.79 Z-5.386
N15280G01 X254.396 Y1.79 Z-5.386
N15290G01 X254.196 Y1.79 Z-5.383
N15300G01 X253.396 Y1.79 Z-5.383
N15310G01 X253.196 Y1.79 Z-5.386
N15320G01 X252.996 Y1.79 Z-5.386
N15330G01 X252.796 Y1.79 Z-5.383
N15340G01 X252.396 Y1.79 Z-5.383
N15350G01 X252.196 Y1.79 Z-5.385
N15360G01 X251.996 Y1.79 Z-5.383
N15370G01 X250.596 Y1.79 Z-5.383
N15380G01 X250.396 Y1.79 Z-5.385
N15390G01 X249.996 Y1.79 Z-5.383
N15400G01 X249.796 Y1.79 Z-5.385
N15410G01 X249.196 Y1.79 Z-5.383
N15420G01 X248.796 Y1.79 Z-5.384
N15430G01 X185.995 Y1.79 Z-5.382
N15440G01 X0.193 Y1.789 Z-5.383
N15450 G00 Z9.999
N15460 G00 X349.997 Y251.29
N15470G01 Z-5.284 F500
N15480G01 X184.994 Z-5.282 F1000
N15490G01 X154.394 Z-5.283
N15500G01 X87.793 Z-5.283
N15510G01 X87.593 Z-5.284
N15520G01 X86.993 Z-5.283
N15530G01 X86.793 Z-5.284
N15540G01 X85.593 Z-5.283
N15550G01 X85.393 Z-5.285
N15560G01 X85.193 Z-5.283
N15570G01 X84.993 Z-5.284
N15580G01 X84.393 Z-5.283
N15590G01 X83.993 Z-5.285
N15600G01 X83.793 Z-5.283
N15610G01 X83.593 Z-5.285
N15620G01 X82.193 Z-5.283
N15630G01 X81.993 Z-5.285
N15640G01 X81.393 Z-5.283
N15650G01 X80.993 Z-5.285
N15660G01 X79.993 Z-5.283
N15670G01 X79.793 Z-5.285
N15680G01 X78.593 Z-5.283
N15690G01 X78.393 Z-5.285
N15700G01 X76.793 Z-5.283
N15710G01 X76.593 Z-5.285
N15720G01 X74.393 Z-5.283
N15730G01 X74.193 Z-5.286
N15740G01 X73.993 Z-5.283
N15750G01 X72.593 Z-5.283
N15760G01 X72.393 Z-5.285
N15770G01 X71.593 Z-5.283
N15780G01 X70.993 Z-5.286
N15790G01 X69.793 Z-5.283
N15800G01 X69.593 Z-5.286
N15810G01 X68.592 Z-5.283
N15820G01 X68.392 Z-5.287
N15830G01 X67.992 Z-5.283
N15840G01 X67.792 Z-5.283
N15850G01 X67.592 Z-5.286
N15860G01 X67.392 Z-5.283
N15870G01 X67.192 Z-5.283
N15880G01 X66.992 Z-5.286
N15890G01 X66.792 Z-5.283
N15900G01 X65.792 Z-5.283
N15910G01 X65.592 Z-5.286
N15920G01 X65.392 Z-5.283
N15930G01 X64.392 Z-5.283
N15940G01 X64.192 Z-5.287
N15950G01 X63.992 Z-5.283
N15960G01 X62.992 Z-5.283
N15970G01 X62.792 Z-5.287
N15980G01 X62.592 Z-5.287
N15990G01 X62.392 Z-5.283
N16000G01 X62.192 Z-5.287
N16010G01 X61.792 Z-5.287
N16020G01 X61.592 Z-5.283
N16030G01 X61.192 Z-5.283
N16040G01 X60.992 Z-5.288
N16050G01 X60.792 Z-5.283
N16060G01 X60.392 Z-5.283
N16070G01 X60.192 Z-5.288
N16080G01 X59.792 Z-5.288
N16090G01 X59.592 Z-5.283
N16100G01 X59.192 Z-5.283
N16110G01 X58.992 Z-5.288
N16120G01 X58.792 Z-5.283
N16130G01 X58.592 Z-5.288
N16140G01 X58.392 Z-5.283
N16150G01 X57.792 Z-5.283
N16160G01 X57.592 Z-5.289
N16170G01 X57.392 Z-5.283
N16180G01 X57.192 Z-5.283
N16190G01 X56.992 Z-5.289
N16200G01 X56.792 Z-5.283
N16210G01 X56.592 Z-5.289
N16220G01 X56.392 Z-5.283
N16230G01 X56.192 Z-5.29
N16240G01 X55.992 Z-5.283
N16250G01 X55.792 Z-5.29
N16260G01 X55.592 Z-5.29
N16270G01 X55.392 Z-5.283
N16280G01 X55.192 Z-5.29
N16290G01 X54.992 Z-5.283
N16300G01 X53.992 Z-5.283
N16310G01 X53.792 Z-5.291
N16320G01 X53.592 Z-5.283
N16330G01 X53.392 Z-5.283
N16340G01 X53.192 Z-5.291
N16350G01 X52.992 Z-5.291
N16360G01 X52.792 Z-5.283
N16370G01 X52.392 Z-5.283
N16380G01 X52.192 Z-5.292
N16390G01 X51.992 Z-5.283
N16400G01 X51.792 Z-5.292
N16410G01 X51.592 Z-5.283
N16420G01 X51.392 Z-5.283
N16430G01 X51.192 Z-5.293
N16440G01 X50.992 Z-5.293
N16450G01 X50.792 Z-5.283
N16460G01 X49.392 Z-5.283
N16470G01 X49.192 Z-5.295
N16480G01 X48.992 Z-5.283
N16490G01 X48.592 Z-5.283
N16500G01 X48.392 Z-5.296
N16510G01 X48.192 Z-5.283
N16520G01 X47.992 Z-5.296
N16530G01 X47.792 Z-5.283
N16540G01 X0.192 Z-5.283
N16550 G00 Z9.999
N16560 G00 X349.997 Y0.29
N16570G01 Z-6.883 F500
N16580G01 X329.597 Y0.29 Z-6.883 F1000
N16590G01 X329.397 Y0.29 Z-6.898
N16600G01 X329.197 Y0.29 Z-6.883
N16610G01 X328.997 Y0.29 Z-6.897
N16620G01 X328.797 Y0.29 Z-6.883
N16630G01 X327.997 Y0.29 Z-6.883
N16640G01 X327.797 Y0.29 Z-6.893
N16650G01 X327.597 Y0.29 Z-6.883
N16660G01 X326.997 Y0.29 Z-6.883
N16670G01 X326.797 Y0.29 Z-6.891
N16680G01 X326.597 Y0.29 Z-6.883
N16690G01 X326.397 Y0.29 Z-6.883
N16700G01 X326.197 Y0.29 Z-6.89
N16710G01 X325.997 Y0.29 Z-6.883
N16720G01 X323.997 Y0.29 Z-6.883
N16730G01 X323.797 Y0.29 Z-6.888
N16740G01 X323.597 Y0.29 Z-6.883
N16750G01 X322.997 Y0.29 Z-6.883
N16760G01 X322.797 Y0.29 Z-6.887
N16770G01 X322.597 Y0.29 Z-6.887
N16780G01 X322.397 Y0.29 Z-6.883
N16790G01 X321.997 Y0.29 Z-6.883
N16800G01 X321.797 Y0.29 Z-6.886
N16810G01 X321.597 Y0.29 Z-6.883
N16820G01 X320.197 Y0.29 Z-6.883
N16830G01 X319.997 Y0.29 Z-6.885
N16840G01 X319.797 Y0.29 Z-6.885
N16850G01 X319.597 Y0.29 Z-6.883
N16860G01 X319.197 Y0.29 Z-6.883
N16870G01 X318.797 Y0.29 Z-6.885
N16880G01 X317.197 Y0.29 Z-6.883
N16890G01 X316.997 Y0.29 Z-6.885
N16900G01 X316.797 Y0.29 Z-6.883
N16910G01 X316.597 Y0.29 Z-6.885
N16920G01 X264.196 Y0.29 Z-6.883
N16930G01 X263.996 Y0.29 Z-6.882
N16940G01 X263.796 Y0.29 Z-6.883
N16950G01 X0.193 Y0.289 Z-6.883
N16960 G00 Z9.999
N16970 G00 X349.997 Y0.79
N16980G01 Z-6.383 F500
N16990G01 X303.797 Y0.79 Z-6.383 F1000
N17000G01 X303.597 Y0.79 Z-6.39
N17010G01 X303.397 Y0.79 Z-6.383
N17020G01 X302.397 Y0.79 Z-6.383
N17030G01 X302.197 Y0.79 Z-6.388
N17040G01 X301.997 Y0.79 Z-6.383
N17050G01 X301.597 Y0.79 Z-6.383
N17060G01 X301.397 Y0.79 Z-6.388
N17070G01 X301.197 Y0.79 Z-6.387
N17080G01 X300.997 Y0.79 Z-6.383
N17090G01 X300.797 Y0.79 Z-6.383
N17100G01 X300.597 Y0.79 Z-6.387
N17110G01 X300.397 Y0.79 Z-6.383
N17120G01 X299.797 Y0.79 Z-6.383
N17130G01 X299.597 Y0.79 Z-6.386
N17140G01 X299.197 Y0.79 Z-6.386
N17150G01 X298.997 Y0.79 Z-6.383
N17160G01 X298.797 Y0.79 Z-6.383
N17170G01 X298.597 Y0.79 Z-6.386
N17180G01 X298.397 Y0.79 Z-6.383
N17190G01 X298.197 Y0.79 Z-6.383
N17200G01 X297.997 Y0.79 Z-6.386
N17210G01 X297.797 Y0.79 Z-6.383
N17220G01 X297.597 Y0.79 Z-6.383
N17230G01 X297.397 Y0.79 Z-6.385
N17240G01 X297.197 Y0.79 Z-6.383
N17250G01 X296.797 Y0.79 Z-6.385
N17260G01 X296.597 Y0.79 Z-6.383
N17270G01 X295.797 Y0.79 Z-6.383
N17280G01 X295.197 Y0.79 Z-6.385
N17290G01 X0.193 Y0.789 Z-6.383
N17300 G00 Z9.999
N17310 M02
