(GCode created using the HeeksCNC Mach3 post processor)
(/home/user/git-repos/donation-box/designs/3D/blender/top panel/nut-pocket-tl-file.tap)
(G-code generated with BlenderCAM and NC library)
N10 G17 G21 G90
(Tool change)
N20G43H1
N30T1 M06
N40 G00 X0 Y0 Z9.999 S12000 M03
N50 G00 X29.936 Y219.745
N60G01 Z-1 F500
N70G01 X30.174 Y220.132 F1000
N80G01 X29.72
N90G01 X29.936 Y219.745
N100G01 X30.661 Y219.017
N110G01 X31.967 Y221.132
N120G01 X28.016
N130G01 X29.965 Y217.644
N140G01 X30.588 Y218.889
N150G01 X30.613 Y218.932
N160G01 X30.612 Y218.932
N170G01 X30.662 Y219.016
N180G01 X30.661 Y219.017
N190G01 X31.512 Y218.491
N200G01 X33.484 Y221.684
N210G01 X33.544 Y221.985
N220G01 X33.335 Y222.132
N230G01 X26.586
N240G01 X26.389 Y221.993
N250G01 X29.77 Y215.943
N260G01 X29.948 Y215.832
N270G01 X30.042
N280G01 X30.051 Y215.836
N290G01 X30.497 Y216.474
N300G01 X31.47 Y218.418
N310G01 X31.513 Y218.49
N320G01 X31.512 Y218.491
N330 G00 Z9.999
N340 G00 X29.936 Y219.745
N350G01 Z-2 F500
N360G01 X30.174 Y220.132 F1000
N370G01 X29.72
N380G01 X29.936 Y219.745
N390G01 X30.661 Y219.017
N400G01 X31.967 Y221.132
N410G01 X28.016
N420G01 X29.965 Y217.644
N430G01 X30.588 Y218.889
N440G01 X30.613 Y218.932
N450G01 X30.612 Y218.932
N460G01 X30.662 Y219.016
N470G01 X30.661 Y219.017
N480G01 X31.512 Y218.491
N490G01 X33.484 Y221.684
N500G01 X33.544 Y221.985
N510G01 X33.335 Y222.132
N520G01 X26.586
N530G01 X26.389 Y221.993
N540G01 X29.77 Y215.943
N550G01 X29.948 Y215.832
N560G01 X30.042
N570G01 X30.051 Y215.836
N580G01 X30.497 Y216.474
N590G01 X31.47 Y218.418
N600G01 X31.513 Y218.49
N610G01 X31.512 Y218.491
N620 G00 Z9.999
N630 G00 X29.936 Y219.745
N640G01 Z-3 F500
N650G01 X30.174 Y220.132 F1000
N660G01 X29.72
N670G01 X29.936 Y219.745
N680G01 X30.661 Y219.017
N690G01 X31.967 Y221.132
N700G01 X28.016
N710G01 X29.965 Y217.644
N720G01 X30.588 Y218.889
N730G01 X30.613 Y218.932
N740G01 X30.612 Y218.932
N750G01 X30.662 Y219.016
N760G01 X30.661 Y219.017
N770G01 X31.512 Y218.491
N780G01 X33.484 Y221.684
N790G01 X33.544 Y221.985
N800G01 X33.335 Y222.132
N810G01 X26.586
N820G01 X26.389 Y221.993
N830G01 X29.77 Y215.943
N840G01 X29.948 Y215.832
N850G01 X30.042
N860G01 X30.051 Y215.836
N870G01 X30.497 Y216.474
N880G01 X31.47 Y218.418
N890G01 X31.513 Y218.49
N900G01 X31.512 Y218.491
N910 G00 Z9.999
N920 G00 X29.936 Y219.745
N930G01 Z-3.049 F500
N940G01 X30.174 Y220.132 F1000
N950G01 X29.72
N960G01 X29.936 Y219.745
N970G01 X30.661 Y219.017
N980G01 X31.967 Y221.132
N990G01 X28.016
N1000G01 X29.965 Y217.644
N1010G01 X30.588 Y218.889
N1020G01 X30.613 Y218.932
N1030G01 X30.612 Y218.932
N1040G01 X30.662 Y219.016
N1050G01 X30.661 Y219.017
N1060G01 X31.512 Y218.491
N1070G01 X33.484 Y221.684
N1080G01 X33.544 Y221.985
N1090G01 X33.335 Y222.132
N1100G01 X26.586
N1110G01 X26.389 Y221.993
N1120G01 X29.77 Y215.943
N1130G01 X29.948 Y215.832
N1140G01 X30.042
N1150G01 X30.051 Y215.836
N1160G01 X30.497 Y216.474
N1170G01 X31.47 Y218.418
N1180G01 X31.513 Y218.49
N1190G01 X31.512 Y218.491
N1200 G00 Z9.999
N1210 M02
