(GCode created using the HeeksCNC Mach3 post processor)
(/home/user/git-repos/donation-box/designs/3D/blender/top panel/nut-pocket-br-file.tap)
(G-code generated with BlenderCAM and NC library)
N10 G17 G21 G90
(Tool change)
N20G43H1
N30T1 M06
N40 G00 X0 Y0 Z9.999 S12000 M03
N50 G00 X319.72 Y30.132
N60G01 Z-1 F500
N70G01 X319.936 Y29.745 F1000
N80G01 X320.174 Y30.132
N90G01 X319.72
N100G01 X320.661 Y29.017
N110G01 X321.967 Y31.132
N120G01 X318.016
N130G01 X319.965 Y27.644
N140G01 X320.588 Y28.889
N150G01 X320.613 Y28.931
N160G01 X320.612 Y28.932
N170G01 X320.662 Y29.016
N180G01 X320.661 Y29.017
N190G01 X321.512 Y28.491
N200G01 X323.484 Y31.684
N210G01 X323.544 Y31.985
N220G01 X323.335 Y32.132
N230G01 X316.586
N240G01 X316.389 Y31.993
N250G01 X319.77 Y25.943
N260G01 X319.948 Y25.832
N270G01 X319.973
N280G01 X320.181 Y25.961
N290G01 X320.482 Y26.443
N300G01 X321.47 Y28.418
N310G01 X321.513 Y28.49
N320G01 X321.512 Y28.491
N330 G00 Z9.999
N340 G00 X319.72 Y30.132
N350G01 Z-2 F500
N360G01 X319.936 Y29.745 F1000
N370G01 X320.174 Y30.132
N380G01 X319.72
N390G01 X320.661 Y29.017
N400G01 X321.967 Y31.132
N410G01 X318.016
N420G01 X319.965 Y27.644
N430G01 X320.588 Y28.889
N440G01 X320.613 Y28.931
N450G01 X320.612 Y28.932
N460G01 X320.662 Y29.016
N470G01 X320.661 Y29.017
N480G01 X321.512 Y28.491
N490G01 X323.484 Y31.684
N500G01 X323.544 Y31.985
N510G01 X323.335 Y32.132
N520G01 X316.586
N530G01 X316.389 Y31.993
N540G01 X319.77 Y25.943
N550G01 X319.948 Y25.832
N560G01 X319.973
N570G01 X320.181 Y25.961
N580G01 X320.482 Y26.443
N590G01 X321.47 Y28.418
N600G01 X321.513 Y28.49
N610G01 X321.512 Y28.491
N620 G00 Z9.999
N630 G00 X319.72 Y30.132
N640G01 Z-3 F500
N650G01 X319.936 Y29.745 F1000
N660G01 X320.174 Y30.132
N670G01 X319.72
N680G01 X320.661 Y29.017
N690G01 X321.967 Y31.132
N700G01 X318.016
N710G01 X319.965 Y27.644
N720G01 X320.588 Y28.889
N730G01 X320.613 Y28.931
N740G01 X320.612 Y28.932
N750G01 X320.662 Y29.016
N760G01 X320.661 Y29.017
N770G01 X321.512 Y28.491
N780G01 X323.484 Y31.684
N790G01 X323.544 Y31.985
N800G01 X323.335 Y32.132
N810G01 X316.586
N820G01 X316.389 Y31.993
N830G01 X319.77 Y25.943
N840G01 X319.948 Y25.832
N850G01 X319.973
N860G01 X320.181 Y25.961
N870G01 X320.482 Y26.443
N880G01 X321.47 Y28.418
N890G01 X321.513 Y28.49
N900G01 X321.512 Y28.491
N910 G00 Z9.999
N920 G00 X319.72 Y30.132
N930G01 Z-3.049 F500
N940G01 X319.936 Y29.745 F1000
N950G01 X320.174 Y30.132
N960G01 X319.72
N970G01 X320.661 Y29.017
N980G01 X321.967 Y31.132
N990G01 X318.016
N1000G01 X319.965 Y27.644
N1010G01 X320.588 Y28.889
N1020G01 X320.613 Y28.931
N1030G01 X320.612 Y28.932
N1040G01 X320.662 Y29.016
N1050G01 X320.661 Y29.017
N1060G01 X321.512 Y28.491
N1070G01 X323.484 Y31.684
N1080G01 X323.544 Y31.985
N1090G01 X323.335 Y32.132
N1100G01 X316.586
N1110G01 X316.389 Y31.993
N1120G01 X319.77 Y25.943
N1130G01 X319.948 Y25.832
N1140G01 X319.973
N1150G01 X320.181 Y25.961
N1160G01 X320.482 Y26.443
N1170G01 X321.47 Y28.418
N1180G01 X321.513 Y28.49
N1190G01 X321.512 Y28.491
N1200 G00 Z9.999
N1210 M02
