(GCode created using the HeeksCNC Mach3 post processor)
(/home/user/git-repos/donation-box/designs/3D/blender/top panel/top-slope-file.tap)
(G-code generated with BlenderCAM and NC library)
N10 G17 G21 G90
(Tool change)
N20G43H1
N30T1 M06
N40 G00 X0 Y0 Z9.999 S12000 M03
N50 G00 X195.595 Y235.452
N60G01 Z-0.056 F500
N70 G00 Z9.999
N80 G00 X231.595
N90G01 Z-0.05
N100 G00 Z9.999
N110 G00 X226.195
N120G01 Z-0.051
N130 G00 Z9.999
N140 G00 X220.395
N150G01 Z-0.052
N160 G00 Z9.999
N170 G00 X208.195
N180G01 Z-0.053
N190 G00 Z9.999
N200 G00 X202.595
N210G01 Z-0.055
N220 G00 Z9.999
N230 G00 X349.997 Y235.952
N240G01 Z-0.073
N250G01 X327.997 Z-0.073 F1000
N260G01 X327.797 Z-0.099
N270G01 X327.597 Z-0.073
N280G01 X318.197 Z-0.073
N290G01 X317.997 Z-0.099
N300G01 X317.797 Z-0.073
N310G01 X310.397 Z-0.073
N320G01 X310.197 Z-0.098
N330G01 X309.997 Z-0.073
N340G01 X288.996 Z-0.073
N350G01 X288.796 Z-0.098
N360G01 X288.596 Z-0.073
N370G01 X284.996 Z-0.073
N380G01 X284.796 Z-0.098
N390G01 X284.596 Z-0.073
N400G01 X276.396 Z-0.073
N410G01 X276.196 Z-0.098
N420G01 X275.996 Z-0.073
N430G01 X258.196 Z-0.073
N440G01 X257.996 Z-0.098
N450G01 X257.796 Z-0.072
N460G01 X238.196 Z-0.072
N470G01 X237.996 Z-0.098
N480G01 X237.796 Z-0.073
N490G01 X231.195 Z-0.072
N500G01 X230.995 Z-0.098
N510G01 X230.795 Z-0.072
N520G01 X225.595 Z-0.072
N530G01 X225.395 Z-0.098
N540G01 X225.195 Z-0.072
N550G01 X222.995 Z-0.072
N560G01 X222.795 Z-0.098
N570G01 X222.595 Z-0.098
N580G01 X222.395 Z-0.072
N590G01 X221.595 Z-0.072
N600G01 X221.395 Z-0.098
N610G01 X221.195 Z-0.098
N620G01 X220.995 Z-0.072
N630G01 X217.195 Z-0.072
N640G01 X216.995 Z-0.098
N650G01 X216.795 Z-0.072
N660G01 X202.195 Z-0.072
N670G01 X201.995 Z-0.098
N680G01 X201.795 Z-0.072
N690G01 X188.395 Z-0.072
N700G01 X188.195 Z-0.08
N710G01 X187.995 Z-0.072
N720G01 X184.795 Z-0.073
N730G01 X184.595 Z-0.071
N740G01 X176.394 Z-0.072
N750G01 X176.194 Z-0.074
N760G01 X175.394 Z-0.072
N770G01 X175.194 Z-0.074
N780G01 X174.994 Z-0.072
N790G01 X174.794 Z-0.073
N800G01 X174.594 Z-0.072
N810G01 X174.394 Z-0.073
N820G01 X173.394 Z-0.072
N830G01 X173.194 Z-0.074
N840G01 X171.194 Z-0.072
N850G01 X170.994 Z-0.075
N860G01 X170.794 Z-0.072
N870G01 X170.394 Z-0.072
N880G01 X170.194 Z-0.074
N890G01 X169.794 Z-0.072
N900G01 X169.394 Z-0.074
N910G01 X168.394 Z-0.072
N920G01 X168.194 Z-0.075
N930G01 X167.994 Z-0.072
N940G01 X166.994 Z-0.072
N950G01 X166.794 Z-0.075
N960G01 X166.594 Z-0.072
N970G01 X165.594 Z-0.072
N980G01 X165.394 Z-0.076
N990G01 X165.194 Z-0.072
N1000G01 X163.994 Z-0.072
N1010G01 X163.794 Z-0.075
N1020G01 X163.594 Z-0.072
N1030G01 X163.394 Z-0.075
N1040G01 X163.194 Z-0.072
N1050G01 X162.994 Z-0.072
N1060G01 X162.794 Z-0.075
N1070G01 X162.594 Z-0.072
N1080G01 X162.194 Z-0.072
N1090G01 X161.994 Z-0.076
N1100G01 X161.794 Z-0.072
N1110G01 X161.394 Z-0.072
N1120G01 X161.194 Z-0.075
N1130G01 X160.994 Z-0.072
N1140G01 X160.794 Z-0.076
N1150G01 X160.594 Z-0.072
N1160G01 X159.794 Z-0.072
N1170G01 X159.594 Z-0.076
N1180G01 X159.394 Z-0.076
N1190G01 X159.194 Z-0.072
N1200G01 X158.994 Z-0.072
N1210G01 X158.794 Z-0.078
N1220G01 X158.594 Z-0.072
N1230G01 X158.394 Z-0.072
N1240G01 X158.194 Z-0.076
N1250G01 X157.994 Z-0.072
N1260G01 X157.194 Z-0.072
N1270G01 X156.994 Z-0.076
N1280G01 X156.794 Z-0.077
N1290G01 X156.594 Z-0.072
N1300G01 X156.194 Z-0.072
N1310G01 X155.994 Z-0.077
N1320G01 X155.794 Z-0.072
N1330G01 X155.194 Z-0.072
N1340G01 X154.994 Z-0.077
N1350G01 X154.794 Z-0.072
N1360G01 X154.594 Z-0.079
N1370G01 X154.394 Z-0.072
N1380G01 X153.394 Z-0.072
N1390G01 X153.194 Z-0.077
N1400G01 X152.994 Z-0.072
N1410G01 X150.594 Z-0.072
N1420G01 X150.394 Z-0.078
N1430G01 X150.194 Z-0.072
N1440G01 X143.394 Z-0.072
N1450G01 X143.194 Z-0.079
N1460G01 X142.994 Z-0.072
N1470G01 X139.394 Z-0.072
N1480G01 X139.194 Z-0.08
N1490G01 X138.994 Z-0.072
N1500G01 X137.994 Z-0.072
N1510G01 X137.794 Z-0.08
N1520G01 X137.394 Z-0.08
N1530G01 X137.194 Z-0.072
N1540G01 X136.594 Z-0.072
N1550G01 X136.394 Z-0.079
N1560G01 X136.194 Z-0.072
N1570G01 X135.194 Z-0.072
N1580G01 X134.994 Z-0.081
N1590G01 X134.794 Z-0.072
N1600G01 X133.594 Z-0.072
N1610G01 X133.394 Z-0.081
N1620G01 X133.194 Z-0.072
N1630G01 X132.394 Z-0.072
N1640G01 X132.194 Z-0.081
N1650G01 X131.994 Z-0.072
N1660G01 X126.794 Z-0.072
N1670G01 X126.594 Z-0.082
N1680G01 X126.394 Z-0.072
N1690G01 X115.793 Z-0.072
N1700G01 X115.593 Z-0.084
N1710G01 X115.393 Z-0.072
N1720G01 X106.193 Z-0.072
N1730G01 X105.993 Z-0.086
N1740G01 X105.793 Z-0.072
N1750G01 X89.393 Z-0.072
N1760G01 X89.193 Z-0.073
N1770G01 X88.993 Z-0.072
N1780G01 X88.793 Z-0.073
N1790G01 X87.993 Z-0.072
N1800G01 X87.793 Z-0.074
N1810G01 X87.593 Z-0.072
N1820G01 X87.393 Z-0.074
N1830G01 X85.793 Z-0.072
N1840G01 X85.593 Z-0.076
N1850G01 X85.393 Z-0.072
N1860G01 X85.193 Z-0.076
N1870G01 X84.993 Z-0.077
N1880G01 X84.793 Z-0.072
N1890G01 X0.193 Z-0.072
N1900 G00 Z9.999
N1910 G00 X349.997 Y236.452
N1920G01 Z-0.115 F500
N1930G01 X349.597 Z-0.115 F1000
N1940G01 X349.397 Z-0.118
N1950G01 X349.197 Z-0.115
N1960G01 X347.597 Z-0.115
N1970G01 X347.397 Z-0.118
N1980G01 X347.197 Z-0.115
N1990G01 X344.997 Z-0.115
N2000G01 X344.797 Z-0.118
N2010G01 X344.597 Z-0.115
N2020G01 X338.797 Z-0.115
N2030G01 X338.597 Z-0.118
N2040G01 X338.397 Z-0.115
N2050G01 X337.397 Z-0.115
N2060G01 X337.197 Z-0.118
N2070G01 X336.997 Z-0.115
N2080G01 X333.597 Z-0.115
N2090G01 X333.397 Z-0.118
N2100G01 X333.197 Z-0.115
N2110G01 X330.797 Z-0.115
N2120G01 X330.597 Z-0.118
N2130G01 X330.397 Z-0.115
N2140G01 X328.397 Z-0.115
N2150G01 X328.197 Z-0.118
N2160G01 X327.997 Z-0.115
N2170G01 X320.797 Z-0.115
N2180G01 X320.597 Z-0.118
N2190G01 X320.397 Z-0.115
N2200G01 X313.997 Z-0.115
N2210G01 X313.797 Z-0.118
N2220G01 X313.597 Z-0.115
N2230G01 X313.197 Z-0.115
N2240G01 X312.997 Z-0.118
N2250G01 X312.797 Z-0.115
N2260G01 X308.597 Z-0.115
N2270G01 X308.397 Z-0.118
N2280G01 X308.197 Z-0.115
N2290G01 X307.997 Z-0.118
N2300G01 X307.797 Z-0.115
N2310G01 X300.197 Z-0.115
N2320G01 X299.997 Z-0.118
N2330G01 X299.797 Z-0.115
N2340G01 X296.197 Z-0.115
N2350G01 X295.997 Z-0.118
N2360G01 X293.596 Z-0.115
N2370G01 X293.396 Z-0.118
N2380G01 X293.196 Z-0.115
N2390G01 X292.796 Z-0.118
N2400G01 X292.596 Z-0.115
N2410G01 X291.396 Z-0.115
N2420G01 X291.196 Z-0.118
N2430G01 X290.996 Z-0.115
N2440G01 X290.396 Z-0.115
N2450G01 X290.196 Z-0.117
N2460G01 X289.996 Z-0.115
N2470G01 X289.596 Z-0.115
N2480G01 X289.396 Z-0.117
N2490G01 X288.996 Z-0.115
N2500G01 X287.596 Z-0.115
N2510G01 X287.396 Z-0.118
N2520G01 X287.196 Z-0.115
N2530G01 X286.396 Z-0.115
N2540G01 X286.196 Z-0.118
N2550G01 X285.996 Z-0.115
N2560G01 X282.196 Z-0.115
N2570G01 X281.996 Z-0.118
N2580G01 X281.796 Z-0.115
N2590G01 X278.996 Z-0.115
N2600G01 X278.796 Z-0.118
N2610G01 X278.596 Z-0.118
N2620G01 X278.396 Z-0.115
N2630G01 X268.196 Z-0.115
N2640G01 X267.996 Z-0.118
N2650G01 X264.196 Z-0.115
N2660G01 X263.996 Z-0.118
N2670G01 X263.796 Z-0.115
N2680G01 X263.396 Z-0.115
N2690G01 X263.196 Z-0.117
N2700G01 X262.996 Z-0.115
N2710G01 X262.396 Z-0.115
N2720G01 X262.196 Z-0.117
N2730G01 X261.796 Z-0.115
N2740G01 X260.196 Z-0.115
N2750G01 X259.996 Z-0.117
N2760G01 X259.396 Z-0.115
N2770G01 X259.196 Z-0.117
N2780G01 X258.996 Z-0.115
N2790G01 X253.396 Z-0.115
N2800G01 X253.196 Z-0.117
N2810G01 X252.996 Z-0.115
N2820G01 X239.396 Z-0.115
N2830G01 X239.196 Z-0.117
N2840G01 X238.996 Z-0.115
N2850G01 X237.996 Z-0.115
N2860G01 X237.796 Z-0.117
N2870G01 X236.396 Z-0.115
N2880G01 X229.595 Z-0.115
N2890G01 X229.395 Z-0.117
N2900G01 X229.195 Z-0.115
N2910G01 X225.595 Z-0.115
N2920G01 X225.395 Z-0.117
N2930G01 X224.395 Z-0.115
N2940G01 X222.995 Z-0.115
N2950G01 X222.795 Z-0.117
N2960G01 X222.595 Z-0.115
N2970G01 X221.595 Z-0.116
N2980G01 X221.395 Z-0.117
N2990G01 X219.795 Z-0.115
N3000G01 X217.195 Z-0.116
N3010G01 X216.995 Z-0.117
N3020G01 X216.795 Z-0.115
N3030G01 X214.795 Z-0.116
N3040G01 X213.595 Z-0.115
N3050G01 X213.195 Z-0.116
N3060G01 X212.995 Z-0.115
N3070G01 X211.595 Z-0.116
N3080G01 X211.395 Z-0.117
N3090G01 X211.195 Z-0.115
N3100G01 X210.395 Z-0.116
N3110G01 X210.195 Z-0.117
N3120G01 X209.795 Z-0.115
N3130G01 X209.195 Z-0.116
N3140G01 X208.995 Z-0.117
N3150G01 X208.795 Z-0.115
N3160G01 X207.395 Z-0.116
N3170G01 X207.195 Z-0.115
N3180G01 X206.795 Z-0.116
N3190G01 X206.595 Z-0.114
N3200G01 X206.195 Z-0.116
N3210G01 X205.995 Z-0.115
N3220G01 X204.995 Z-0.116
N3230G01 X204.595 Z-0.115
N3240G01 X204.395 Z-0.116
N3250G01 X204.195 Z-0.115
N3260G01 X203.595 Z-0.116
N3270G01 X203.195 Z-0.115
N3280G01 X202.595 Z-0.116
N3290G01 X202.395 Z-0.115
N3300G01 X202.195 Z-0.116
N3310G01 X201.595 Z-0.115
N3320G01 X200.795 Z-0.116
N3330G01 X200.595 Z-0.117
N3340G01 X200.395 Z-0.115
N3350G01 X199.395 Z-0.116
N3360G01 X198.995 Z-0.115
N3370G01 X198.795 Z-0.116
N3380G01 X198.595 Z-0.114
N3390G01 X197.795 Z-0.117
N3400G01 X197.595 Z-0.115
N3410G01 X196.395 Z-0.115
N3420G01 X196.195 Z-0.117
N3430G01 X195.995 Z-0.115
N3440G01 X194.995 Z-0.115
N3450G01 X194.795 Z-0.117
N3460G01 X194.595 Z-0.117
N3470G01 X194.395 Z-0.115
N3480G01 X191.995 Z-0.114
N3490G01 X191.795 Z-0.117
N3500G01 X191.595 Z-0.117
N3510G01 X191.395 Z-0.114
N3520G01 X190.395 Z-0.114
N3530G01 X190.195 Z-0.117
N3540G01 X189.995 Z-0.115
N3550G01 X188.395 Z-0.115
N3560G01 X188.195 Z-0.117
N3570G01 X187.995 Z-0.117
N3580G01 X187.795 Z-0.115
N3590G01 X187.595 Z-0.117
N3600G01 X187.395 Z-0.115
N3610G01 X186.795 Z-0.115
N3620G01 X186.595 Z-0.117
N3630G01 X186.395 Z-0.115
N3640G01 X185.595 Z-0.115
N3650G01 X185.395 Z-0.117
N3660G01 X185.195 Z-0.115
N3670G01 X184.995 Z-0.115
N3680G01 X184.795 Z-0.117
N3690G01 X184.595 Z-0.114
N3700G01 X184.395 Z-0.117
N3710G01 X184.195 Z-0.114
N3720G01 X182.795 Z-0.114
N3730G01 X182.595 Z-0.117
N3740G01 X182.395 Z-0.114
N3750G01 X182.195 Z-0.114
N3760G01 X181.995 Z-0.117
N3770G01 X181.795 Z-0.114
N3780G01 X181.595 Z-0.114
N3790G01 X181.395 Z-0.117
N3800G01 X181.195 Z-0.114
N3810G01 X178.595 Z-0.115
N3820G01 X178.395 Z-0.117
N3830G01 X178.195 Z-0.115
N3840G01 X176.595 Z-0.114
N3850G01 X176.394 Z-0.117
N3860G01 X176.194 Z-0.114
N3870G01 X175.794 Z-0.114
N3880G01 X175.594 Z-0.117
N3890G01 X175.394 Z-0.114
N3900G01 X172.794 Z-0.114
N3910G01 X172.594 Z-0.117
N3920G01 X172.394 Z-0.114
N3930G01 X171.594 Z-0.114
N3940G01 X171.394 Z-0.117
N3950G01 X171.194 Z-0.114
N3960G01 X170.394 Z-0.114
N3970G01 X170.194 Z-0.117
N3980G01 X169.794 Z-0.117
N3990G01 X169.594 Z-0.114
N4000G01 X169.394 Z-0.117
N4010G01 X169.194 Z-0.114
N4020G01 X168.794 Z-0.114
N4030G01 X168.594 Z-0.117
N4040G01 X168.394 Z-0.117
N4050G01 X168.194 Z-0.115
N4060G01 X167.394 Z-0.114
N4070G01 X167.194 Z-0.117
N4080G01 X166.994 Z-0.117
N4090G01 X166.794 Z-0.114
N4100G01 X166.194 Z-0.114
N4110G01 X165.994 Z-0.117
N4120G01 X165.794 Z-0.114
N4130G01 X165.194 Z-0.114
N4140G01 X164.994 Z-0.117
N4150G01 X164.794 Z-0.114
N4160G01 X162.994 Z-0.114
N4170G01 X162.794 Z-0.117
N4180G01 X162.594 Z-0.114
N4190G01 X162.394 Z-0.114
N4200G01 X162.194 Z-0.117
N4210G01 X161.994 Z-0.114
N4220G01 X161.794 Z-0.117
N4230G01 X161.594 Z-0.114
N4240G01 X160.194 Z-0.114
N4250G01 X159.994 Z-0.117
N4260G01 X159.794 Z-0.114
N4270G01 X158.794 Z-0.114
N4280G01 X158.594 Z-0.117
N4290G01 X158.394 Z-0.114
N4300G01 X157.394 Z-0.114
N4310G01 X157.194 Z-0.117
N4320G01 X156.994 Z-0.114
N4330G01 X155.994 Z-0.114
N4340G01 X155.794 Z-0.117
N4350G01 X155.594 Z-0.114
N4360G01 X153.794 Z-0.114
N4370G01 X153.594 Z-0.117
N4380G01 X153.394 Z-0.114
N4390G01 X153.194 Z-0.114
N4400G01 X152.994 Z-0.117
N4410G01 X152.794 Z-0.114
N4420G01 X152.594 Z-0.117
N4430G01 X152.394 Z-0.114
N4440G01 X151.794 Z-0.114
N4450G01 X151.594 Z-0.117
N4460G01 X151.394 Z-0.114
N4470G01 X148.594 Z-0.114
N4480G01 X148.394 Z-0.117
N4490G01 X148.194 Z-0.117
N4500G01 X147.994 Z-0.114
N4510G01 X147.594 Z-0.114
N4520G01 X147.394 Z-0.117
N4530G01 X147.194 Z-0.114
N4540G01 X146.594 Z-0.114
N4550G01 X146.394 Z-0.117
N4560G01 X146.194 Z-0.114
N4570G01 X145.394 Z-0.114
N4580G01 X145.194 Z-0.117
N4590G01 X144.994 Z-0.114
N4600G01 X143.994 Z-0.114
N4610G01 X143.794 Z-0.117
N4620G01 X143.594 Z-0.114
N4630G01 X139.994 Z-0.114
N4640G01 X139.794 Z-0.117
N4650G01 X139.594 Z-0.114
N4660G01 X138.194 Z-0.114
N4670G01 X137.994 Z-0.117
N4680G01 X137.794 Z-0.114
N4690G01 X136.794 Z-0.114
N4700G01 X136.594 Z-0.117
N4710G01 X136.394 Z-0.114
N4720G01 X135.394 Z-0.114
N4730G01 X135.194 Z-0.117
N4740G01 X134.994 Z-0.114
N4750G01 X134.194 Z-0.114
N4760G01 X133.994 Z-0.117
N4770G01 X133.794 Z-0.114
N4780G01 X132.994 Z-0.114
N4790G01 X132.794 Z-0.117
N4800G01 X132.594 Z-0.114
N4810G01 X130.194 Z-0.114
N4820G01 X129.994 Z-0.117
N4830G01 X129.794 Z-0.114
N4840G01 X128.994 Z-0.114
N4850G01 X128.794 Z-0.117
N4860G01 X128.594 Z-0.114
N4870G01 X128.394 Z-0.117
N4880G01 X128.194 Z-0.114
N4890G01 X127.194 Z-0.114
N4900G01 X126.994 Z-0.117
N4910G01 X126.794 Z-0.117
N4920G01 X126.594 Z-0.114
N4930G01 X126.394 Z-0.114
N4940G01 X126.194 Z-0.117
N4950G01 X125.994 Z-0.114
N4960G01 X124.194 Z-0.114
N4970G01 X123.994 Z-0.117
N4980G01 X123.794 Z-0.114
N4990G01 X123.194 Z-0.114
N5000G01 X122.994 Z-0.117
N5010G01 X122.594 Z-0.117
N5020G01 X122.394 Z-0.114
N5030G01 X121.994
N5040G01 X121.794 Z-0.117
N5050G01 X121.594 Z-0.114
N5060G01 X121.394 Z-0.117
N5070G01 X121.194 Z-0.117
N5080G01 X120.994 Z-0.114
N5090G01 X120.594
N5100G01 X120.394 Z-0.117
N5110G01 X119.994 Z-0.117
N5120G01 X119.794 Z-0.114
N5130G01 X118.794 Z-0.114
N5140G01 X118.594 Z-0.117
N5150G01 X118.394 Z-0.114
N5160G01 X110.593 Z-0.114
N5170G01 X110.393 Z-0.117
N5180G01 X110.193 Z-0.114
N5190G01 X104.993 Z-0.114
N5200G01 X104.793 Z-0.117
N5210G01 X104.593 Z-0.114
N5220G01 X103.793
N5230G01 X103.593 Z-0.117
N5240G01 X103.393 Z-0.114
N5250G01 X100.793 Z-0.114
N5260G01 X100.593 Z-0.117
N5270G01 X100.393 Z-0.114
N5280G01 X98.193 Z-0.114
N5290G01 X97.993 Z-0.117
N5300G01 X97.793 Z-0.114
N5310G01 X95.393
N5320G01 X95.193 Z-0.117
N5330G01 X94.993 Z-0.114
N5340G01 X93.793
N5350G01 X93.593 Z-0.117
N5360G01 X93.393 Z-0.114
N5370G01 X89.793 Z-0.114
N5380G01 X89.593 Z-0.117
N5390G01 X89.393 Z-0.114
N5400G01 X86.393 Z-0.114
N5410G01 X86.193 Z-0.117
N5420G01 X85.993 Z-0.114
N5430G01 X67.593 Z-0.114
N5440G01 X67.393 Z-0.117
N5450G01 X67.193 Z-0.114
N5460G01 X64.993 Z-0.114
N5470G01 X64.793 Z-0.117
N5480G01 X64.593 Z-0.114
N5490G01 X57.393 Z-0.114
N5500G01 X57.193 Z-0.117
N5510G01 X56.993 Z-0.114
N5520G01 X27.193 Z-0.115
N5530G01 X26.993 Z-0.114
N5540G01 X26.793 Z-0.115
N5550G01 X26.193 Z-0.114
N5560G01 X24.593 Z-0.116
N5570G01 X24.193 Z-0.114
N5580G01 X23.593 Z-0.116
N5590G01 X23.193 Z-0.113
N5600G01 X22.993 Z-0.114
N5610G01 X22.793 Z-0.113
N5620G01 X0.193 Z-0.114
N5630 G00 Z9.999
N5640 G00 X349.997 Y236.952
N5650G01 Z-0.181 F500
N5660G01 X198.595 Z-0.181 F1000
N5670G01 X198.395 Z-0.184
N5680G01 X198.195 Z-0.181
N5690G01 X195.795 Z-0.181
N5700G01 X195.595 Z-0.184
N5710G01 X195.395 Z-0.181
N5720G01 X193.595 Z-0.181
N5730G01 X193.395 Z-0.185
N5740G01 X193.195 Z-0.181
N5750G01 X180.595 Z-0.181
N5760G01 X180.395 Z-0.189
N5770G01 X180.195 Z-0.181
N5780G01 X179.595 Z-0.181
N5790G01 X179.395 Z-0.189
N5800G01 X179.195 Z-0.181
N5810G01 X178.195 Z-0.181
N5820G01 X177.995 Z-0.19
N5830G01 X177.795 Z-0.181
N5840G01 X176.795 Z-0.181
N5850G01 X176.595 Z-0.19
N5860G01 X176.394 Z-0.181
N5870G01 X171.194 Z-0.181
N5880G01 X170.994 Z-0.192
N5890G01 X170.794 Z-0.181
N5900G01 X143.594 Z-0.181
N5910G01 X143.394 Z-0.199
N5920G01 X143.194 Z-0.181
N5930G01 X104.193 Z-0.182
N5940G01 X103.593 Z-0.181
N5950G01 X102.393 Z-0.182
N5960G01 X101.993 Z-0.181
N5970G01 X101.793 Z-0.182
N5980G01 X101.593 Z-0.181
N5990G01 X101.393 Z-0.183
N6000G01 X100.593 Z-0.181
N6010G01 X100.393 Z-0.183
N6020G01 X100.193 Z-0.183
N6030G01 X99.993 Z-0.181
N6040G01 X99.193 Z-0.181
N6050G01 X98.993 Z-0.184
N6060G01 X98.393 Z-0.185
N6070G01 X98.193 Z-0.181
N6080G01 X97.793 Z-0.181
N6090G01 X97.593 Z-0.186
N6100G01 X97.393 Z-0.187
N6110G01 X97.193 Z-0.181
N6120G01 X96.393 Z-0.181
N6130G01 X96.193 Z-0.19
N6140G01 X95.993 Z-0.181
N6150G01 X0.193 Z-0.18
N6160 G00 Z9.999
N6170 G00 X349.997 Y237.452
N6180G01 Z-0.251 F500
N6190G01 X347.997 Z-0.251 F1000
N6200G01 X347.797 Z-0.262
N6210G01 X347.597 Z-0.251
N6220G01 X341.797 Z-0.251
N6230G01 X341.597 Z-0.262
N6240G01 X341.397 Z-0.251
N6250G01 X187.795 Z-0.25
N6260G01 X187.595 Z-0.261
N6270G01 X187.395 Z-0.25
N6280G01 X182.195 Z-0.25
N6290G01 X181.995 Z-0.261
N6300G01 X181.795 Z-0.25
N6310G01 X177.195 Z-0.25
N6320G01 X176.995 Z-0.261
N6330G01 X176.795 Z-0.251
N6340G01 X174.194 Z-0.25
N6350G01 X173.994 Z-0.261
N6360G01 X173.794 Z-0.25
N6370G01 X168.594 Z-0.25
N6380G01 X168.394 Z-0.261
N6390G01 X168.194 Z-0.25
N6400G01 X164.394 Z-0.251
N6410G01 X164.194 Z-0.261
N6420G01 X163.994 Z-0.25
N6430G01 X158.794 Z-0.25
N6440G01 X158.594 Z-0.261
N6450G01 X158.394 Z-0.25
N6460G01 X149.394 Z-0.25
N6470G01 X149.194 Z-0.261
N6480G01 X148.994 Z-0.25
N6490G01 X146.594 Z-0.25
N6500G01 X146.394 Z-0.261
N6510G01 X146.194 Z-0.25
N6520G01 X145.394 Z-0.25
N6530G01 X145.194 Z-0.261
N6540G01 X144.994 Z-0.25
N6550G01 X131.194 Z-0.25
N6560G01 X130.994 Z-0.261
N6570G01 X130.794 Z-0.25
N6580G01 X49.393 Z-0.251
N6590G01 X49.193 Z-0.249
N6600G01 X48.993 Z-0.251
N6610G01 X0.193 Z-0.25
N6620 G00 Z9.999
N6630 G00 X349.997 Y237.952
N6640G01 Z-0.34 F500
N6650G01 X117.193 Z-0.34 F1000
N6660G01 X116.193 Z-0.341
N6670G01 X115.993 Z-0.34
N6680G01 X114.993 Z-0.341
N6690G01 X114.593 Z-0.34
N6700G01 X114.193 Z-0.342
N6710G01 X113.993 Z-0.34
N6720G01 X113.793 Z-0.342
N6730G01 X113.193 Z-0.34
N6740G01 X112.993 Z-0.342
N6750G01 X112.793 Z-0.34
N6760G01 X112.593 Z-0.342
N6770G01 X112.393 Z-0.343
N6780G01 X112.193 Z-0.34
N6790G01 X111.993 Z-0.34
N6800G01 X111.793 Z-0.343
N6810G01 X111.593 Z-0.343
N6820G01 X111.393 Z-0.34
N6830G01 X111.193 Z-0.343
N6840G01 X110.793 Z-0.343
N6850G01 X110.593 Z-0.34
N6860G01 X110.193 Z-0.34
N6870G01 X109.993 Z-0.344
N6880G01 X109.793 Z-0.34
N6890G01 X108.993 Z-0.34
N6900G01 X108.793 Z-0.346
N6910G01 X108.593 Z-0.347
N6920G01 X108.393 Z-0.34
N6930G01 X108.193 Z-0.348
N6940G01 X107.993 Z-0.34
N6950G01 X107.393 Z-0.34
N6960G01 X107.193 Z-0.351
N6970G01 X106.993 Z-0.34
N6980G01 X106.193 Z-0.34
N6990G01 X105.993 Z-0.357
N7000G01 X105.793 Z-0.34
N7010G01 X0.193 Z-0.34
N7020 G00 Z9.999
N7030 G00 X349.997 Y238.452
N7040G01 Z-0.438 F500
N7050G01 X154.594 Z-0.438 F1000
N7060G01 X154.394 Z-0.46
N7070G01 X154.194 Z-0.438
N7080G01 X38.393 Z-0.437
N7090G01 X38.193 Z-0.438
N7100G01 X37.593 Z-0.437
N7110G01 X37.393 Z-0.439
N7120G01 X36.593 Z-0.437
N7130G01 X36.393 Z-0.439
N7140G01 X33.993 Z-0.437
N7150G01 X33.793 Z-0.441
N7160G01 X33.593 Z-0.437
N7170G01 X0.193 Z-0.437
N7180 G00 Z9.999
N7190 G00 X349.997 Y238.952
N7200G01 Z-0.552 F500
N7210G01 X127.794 Z-0.553 F1000
N7220G01 X127.394 Z-0.552
N7230G01 X127.194 Z-0.553
N7240G01 X126.794 Z-0.552
N7250G01 X126.394 Z-0.553
N7260G01 X126.194 Z-0.552
N7270G01 X125.994 Z-0.553
N7280G01 X125.394 Z-0.552
N7290G01 X124.994 Z-0.553
N7300G01 X124.594 Z-0.552
N7310G01 X124.394 Z-0.553
N7320G01 X123.994 Z-0.552
N7330G01 X123.394 Z-0.554
N7340G01 X122.594 Z-0.552
N7350G01 X122.394 Z-0.554
N7360G01 X122.194 Z-0.552
N7370G01 X121.994 Z-0.554
N7380G01 X121.794 Z-0.552
N7390G01 X121.594 Z-0.552
N7400G01 X121.394 Z-0.554
N7410G01 X121.194 Z-0.552
N7420G01 X120.994 Z-0.555
N7430G01 X120.794 Z-0.552
N7440G01 X120.594 Z-0.555
N7450G01 X120.394 Z-0.555
N7460G01 X120.194 Z-0.552
N7470G01 X119.994 Z-0.552
N7480G01 X119.794 Z-0.556
N7490G01 X119.594 Z-0.552
N7500G01 X119.394 Z-0.556
N7510G01 X119.194 Z-0.552
N7520G01 X118.594 Z-0.552
N7530G01 X118.394 Z-0.557
N7540G01 X118.194 Z-0.558
N7550G01 X117.994 Z-0.552
N7560G01 X117.794 Z-0.559
N7570G01 X117.594 Z-0.552
N7580G01 X117.394 Z-0.552
N7590G01 X117.193 Z-0.56
N7600G01 X116.993 Z-0.552
N7610G01 X116.793 Z-0.561
N7620G01 X116.593 Z-0.552
N7630G01 X116.393 Z-0.562
N7640G01 X116.193 Z-0.552
N7650G01 X115.993 Z-0.552
N7660G01 X115.793 Z-0.565
N7670G01 X115.593 Z-0.552
N7680G01 X0.193 Z-0.551
N7690 G00 Z9.999
N7700 G00 X349.997 Y239.452
N7710G01 Z-0.678 F500
N7720G01 X87.193 Z-0.677 F1000
N7730G01 X48.393 Z-0.677
N7740G01 X48.193 Z-0.678
N7750G01 X47.593 Z-0.677
N7760G01 X47.393 Z-0.679
N7770G01 X46.993 Z-0.677
N7780G01 X46.793 Z-0.679
N7790G01 X46.593 Z-0.677
N7800G01 X46.393 Z-0.679
N7810G01 X45.393 Z-0.677
N7820G01 X45.193 Z-0.679
N7830G01 X44.993 Z-0.677
N7840G01 X44.193 Z-0.677
N7850G01 X43.993 Z-0.68
N7860G01 X43.793 Z-0.677
N7870G01 X0.193 Z-0.677
N7880 G00 Z9.999
N7890 G00 X349.997 Y239.952
N7900G01 Z-0.818 F500
N7910G01 X136.394 Z-0.817 F1000
N7920G01 X135.794 Z-0.818
N7930G01 X135.194 Z-0.817
N7940G01 X133.994 Z-0.818
N7950G01 X133.794 Z-0.817
N7960G01 X132.594 Z-0.819
N7970G01 X132.394 Z-0.817
N7980G01 X131.994 Z-0.819
N7990G01 X131.794 Z-0.817
N8000G01 X131.594 Z-0.819
N8010G01 X131.194 Z-0.817
N8020G01 X130.594 Z-0.819
N8030G01 X130.394 Z-0.817
N8040G01 X129.594 Z-0.817
N8050G01 X129.394 Z-0.82
N8060G01 X129.194 Z-0.817
N8070G01 X128.994 Z-0.82
N8080G01 X128.794 Z-0.817
N8090G01 X128.394 Z-0.817
N8100G01 X128.194 Z-0.82
N8110G01 X127.994 Z-0.821
N8120G01 X127.794 Z-0.817
N8130G01 X127.594 Z-0.821
N8140G01 X127.394 Z-0.817
N8150G01 X126.794 Z-0.817
N8160G01 X126.594 Z-0.822
N8170G01 X126.394 Z-0.817
N8180G01 X125.394 Z-0.817
N8190G01 X125.194 Z-0.824
N8200G01 X124.994 Z-0.824
N8210G01 X124.794 Z-0.817
N8220G01 X123.594 Z-0.817
N8230G01 X123.394 Z-0.827
N8240G01 X123.194 Z-0.817
N8250G01 X0.193 Z-0.817
N8260 G00 Z9.999
N8270 G00 X349.997 Y240.452
N8280G01 Z-0.973 F500
N8290G01 X55.993 Z-0.972 F1000
N8300G01 X55.593 Z-0.973
N8310G01 X55.193 Z-0.972
N8320G01 X54.993 Z-0.973
N8330G01 X54.193 Z-0.972
N8340G01 X53.993 Z-0.974
N8350G01 X53.793 Z-0.972
N8360G01 X53.593 Z-0.974
N8370G01 X53.393 Z-0.972
N8380G01 X53.193 Z-0.974
N8390G01 X52.393 Z-0.972
N8400G01 X52.193 Z-0.974
N8410G01 X51.993 Z-0.972
N8420G01 X51.393 Z-0.972
N8430G01 X51.193 Z-0.975
N8440G01 X50.993 Z-0.972
N8450G01 X0.193 Z-0.972
N8460 G00 Z9.999
N8470 G00 X349.997 Y240.952
N8480G01 Z-1.05 F500
N8490G01 X0.193 F1000
N8500 G00 Z9.999
N8510 G00 X349.997 Y241.452
N8520G01 Z-1.05 F500
N8530G01 X0.193 F1000
N8540 G00 Z9.999
N8550 G00 X349.997 Y241.952
N8560G01 Z-1.05 F500
N8570G01 X0.193 F1000
N8580 G00 Z9.999
N8590 G00 X349.997 Y242.452
N8600G01 Z-1.05 F500
N8610G01 X0.193 F1000
N8620 G00 Z9.999
N8630 G00 X349.997 Y242.952
N8640G01 Z-1.05 F500
N8650G01 X0.193 F1000
N8660 G00 Z9.999
N8670 G00 X349.997 Y243.452
N8680G01 Z-1.05 F500
N8690G01 X0.193 F1000
N8700 G00 Z9.999
N8710 G00 X349.997 Y243.952
N8720G01 Z-1.05 F500
N8730G01 X0.193 F1000
N8740 G00 Z9.999
N8750 G00 X349.997 Y244.452
N8760G01 Z-1.05 F500
N8770G01 X0.193 F1000
N8780 G00 Z9.999
N8790 G00 X349.997 Y244.952
N8800G01 Z-1.05 F500
N8810G01 X0.193 F1000
N8820 G00 Z9.999
N8830 G00 X349.998 Y8.952
N8840G01 Z-1.05 F500
N8850G01 X0.193 F1000
N8860 G00 Z9.999
N8870 G00 X349.998 Y9.452
N8880G01 Z-1.05 F500
N8890G01 X0.193 F1000
N8900 G00 Z9.999
N8910 G00 X349.998 Y9.952
N8920G01 Z-1.05 F500
N8930G01 X0.193 F1000
N8940 G00 Z9.999
N8950 G00 X349.998 Y10.452
N8960G01 Z-1.05 F500
N8970G01 X0.193 F1000
N8980 G00 Z9.999
N8990 G00 X349.998 Y10.952
N9000G01 Z-1.05 F500
N9010G01 X0.193 F1000
N9020 G00 Z9.999
N9030 G00 X349.998 Y11.452
N9040G01 Z-1.05 F500
N9050G01 X0.193 F1000
N9060 G00 Z9.999
N9070 G00 X349.998 Y11.952
N9080G01 Z-1.05 F500
N9090G01 X0.193 F1000
N9100 G00 Z9.999
N9110 G00 X349.998 Y12.452
N9120G01 Z-1.05 F500
N9130G01 X0.193 F1000
N9140 G00 Z9.999
N9150 G00 X349.998 Y12.952
N9160G01 Z-1.05 F500
N9170G01 X0.193 F1000
N9180 G00 Z9.999
N9190 G00 X349.998 Y13.452
N9200G01 Z-0.964 F500
N9210G01 X202.395 Z-0.964 F1000
N9220G01 X202.195 Z-0.967
N9230G01 X201.995 Z-0.964
N9240G01 X201.795 Z-0.964
N9250G01 X201.595 Z-0.971
N9260G01 X201.395 Z-0.964
N9270G01 X191.195 Z-0.964
N9280G01 X190.995 Z-0.969
N9290G01 X190.795 Z-0.964
N9300G01 X144.594 Z-0.963
N9310G01 X144.394 Z-0.967
N9320G01 X144.194 Z-0.963
N9330G01 X101.193 Z-0.963
N9340G01 X100.993 Z-0.965
N9350G01 X93.593 Z-0.963
N9360G01 X93.393 Z-0.965
N9370G01 X0.193 Z-0.963
N9380 G00 Z9.999
N9390 G00 X349.998 Y13.952
N9400G01 Z-0.809 F500
N9410G01 X93.993 Z-0.808 F1000
N9420G01 X93.793 Z-0.812
N9430G01 X93.593 Z-0.808
N9440G01 X0.193 Z-0.808
N9450 G00 Z9.999
N9460 G00 X349.998 Y14.452
N9470G01 Z-0.669 F500
N9480G01 X342.797 Z-0.669 F1000
N9490G01 X342.597 Z-0.685
N9500G01 X342.397 Z-0.669
N9510G01 X342.197 Z-0.683
N9520G01 X341.997 Z-0.669
N9530G01 X293.397 Z-0.669
N9540G01 X293.197 Z-0.675
N9550G01 X292.997 Z-0.669
N9560G01 X291.397 Z-0.669
N9570G01 X291.197 Z-0.675
N9580G01 X290.997 Z-0.669
N9590G01 X288.797 Z-0.669
N9600G01 X288.597 Z-0.674
N9610G01 X288.397 Z-0.669
N9620G01 X285.996 Z-0.669
N9630G01 X285.796 Z-0.675
N9640G01 X285.596 Z-0.669
N9650G01 X285.396 Z-0.669
N9660G01 X285.196 Z-0.674
N9670G01 X284.996 Z-0.669
N9680G01 X284.796 Z-0.669
N9690G01 X284.596 Z-0.674
N9700G01 X284.396 Z-0.669
N9710G01 X283.996 Z-0.669
N9720G01 X283.796 Z-0.673
N9730G01 X283.596 Z-0.669
N9740G01 X270.996 Z-0.669
N9750G01 X270.796 Z-0.671
N9760G01 X270.196 Z-0.669
N9770G01 X269.996 Z-0.672
N9780G01 X269.796 Z-0.669
N9790G01 X267.996 Z-0.669
N9800G01 X267.796 Z-0.671
N9810G01 X264.796 Z-0.669
N9820G01 X264.596 Z-0.67
N9830G01 X0.193 Z-0.669
N9840 G00 Z9.999
N9850 G00 X349.998 Y14.952
N9860G01 Z-0.544 F500
N9870G01 X179.395 Z-0.543 F1000
N9880G01 X179.195 Z-0.559
N9890G01 X178.995 Z-0.543
N9900G01 X176.595 Z-0.543
N9910G01 X176.395 Z-0.558
N9920G01 X176.195 Z-0.543
N9930G01 X164.394 Z-0.543
N9940G01 X164.194 Z-0.554
N9950G01 X163.994 Z-0.543
N9960G01 X131.194 Z-0.543
N9970G01 X130.994 Z-0.55
N9980G01 X130.794 Z-0.543
N9990G01 X129.794 Z-0.543
N10000G01 X129.594 Z-0.549
N10010G01 X129.394 Z-0.543
N10020G01 X106.393 Z-0.543
N10030G01 X106.193 Z-0.545
N10040G01 X105.993 Z-0.543
N10050G01 X103.593 Z-0.543
N10060G01 X103.393 Z-0.545
N10070G01 X92.393 Z-0.542
N10080G01 X0.193 Z-0.543
N10090 G00 Z9.999
N10100 G00 X349.998 Y15.452
N10110G01 Z-0.431 F500
N10120G01 X348.598 Z-0.43 F1000
N10130G01 X348.398 Z-0.441
N10140G01 X348.198 Z-0.43
N10150G01 X344.197 Z-0.43
N10160G01 X343.997 Z-0.442
N10170G01 X343.797 Z-0.43
N10180G01 X343.597 Z-0.439
N10190G01 X343.397 Z-0.43
N10200G01 X342.597 Z-0.43
N10210G01 X342.397 Z-0.437
N10220G01 X342.197 Z-0.43
N10230G01 X341.397 Z-0.43
N10240G01 X341.197 Z-0.439
N10250G01 X340.997 Z-0.43
N10260G01 X336.397 Z-0.43
N10270G01 X336.197 Z-0.437
N10280G01 X335.997 Z-0.43
N10290G01 X335.797 Z-0.438
N10300G01 X335.597 Z-0.43
N10310G01 X332.997 Z-0.43
N10320G01 X332.797 Z-0.438
N10330G01 X332.597 Z-0.43
N10340G01 X323.797 Z-0.43
N10350G01 X323.597 Z-0.436
N10360G01 X323.397 Z-0.43
N10370G01 X323.197 Z-0.43
N10380G01 X322.997 Z-0.437
N10390G01 X322.797 Z-0.43
N10400G01 X322.597 Z-0.43
N10410G01 X322.397 Z-0.437
N10420G01 X322.197 Z-0.43
N10430G01 X315.797 Z-0.43
N10440G01 X315.597 Z-0.435
N10450G01 X315.397 Z-0.43
N10460G01 X315.197 Z-0.43
N10470G01 X314.997 Z-0.436
N10480G01 X314.797 Z-0.43
N10490G01 X307.997 Z-0.43
N10500G01 X307.797 Z-0.433
N10510G01 X307.597 Z-0.43
N10520G01 X307.397 Z-0.434
N10530G01 X307.197 Z-0.43
N10540G01 X306.397 Z-0.43
N10550G01 X306.197 Z-0.434
N10560G01 X305.997 Z-0.434
N10570G01 X305.797 Z-0.43
N10580G01 X303.597 Z-0.43
N10590G01 X303.397 Z-0.434
N10600G01 X303.197 Z-0.43
N10610G01 X302.997 Z-0.43
N10620G01 X302.797 Z-0.433
N10630G01 X302.597 Z-0.43
N10640G01 X300.597 Z-0.43
N10650G01 X300.397 Z-0.433
N10660G01 X300.197 Z-0.43
N10670G01 X290.597 Z-0.43
N10680G01 X290.397 Z-0.433
N10690G01 X290.197 Z-0.43
N10700G01 X288.597 Z-0.43
N10710G01 X288.397 Z-0.431
N10720G01 X236.996 Z-0.43
N10730G01 X236.796 Z-0.439
N10740G01 X236.596 Z-0.43
N10750G01 X234.596 Z-0.43
N10760G01 X234.396 Z-0.435
N10770G01 X234.196 Z-0.43
N10780G01 X230.396 Z-0.43
N10790G01 X230.196 Z-0.434
N10800G01 X229.996 Z-0.43
N10810G01 X222.395 Z-0.43
N10820G01 X222.195 Z-0.434
N10830G01 X221.995 Z-0.43
N10840G01 X213.395 Z-0.43
N10850G01 X213.195 Z-0.435
N10860G01 X212.995 Z-0.43
N10870G01 X175.395 Z-0.43
N10880G01 X175.195 Z-0.431
N10890G01 X161.194 Z-0.43
N10900G01 X160.994 Z-0.442
N10910G01 X160.794 Z-0.43
N10920G01 X129.394 Z-0.43
N10930G01 X129.194 Z-0.437
N10940G01 X128.994 Z-0.43
N10950G01 X111.394 Z-0.43
N10960G01 X111.194 Z-0.431
N10970G01 X109.793 Z-0.43
N10980G01 X109.593 Z-0.436
N10990G01 X109.393 Z-0.43
N11000G01 X79.793 Z-0.43
N11010G01 X79.593 Z-0.431
N11020G01 X0.193 Z-0.43
N11030 G00 Z9.999
N11040 G00 X349.998 Y15.952
N11050G01 Z-0.333 F500
N11060G01 X347.598 Z-0.333 F1000
N11070G01 X347.398 Z-0.367
N11080G01 X347.198 Z-0.333
N11090G01 X270.796 Z-0.333
N11100G01 X270.596 Z-0.355
N11110G01 X270.396 Z-0.333
N11120G01 X261.396 Z-0.333
N11130G01 X261.196 Z-0.355
N11140G01 X260.996 Z-0.333
N11150G01 X259.796 Z-0.333
N11160G01 X259.596 Z-0.354
N11170G01 X259.396 Z-0.333
N11180G01 X207.395 Z-0.333
N11190G01 X207.195 Z-0.345
N11200G01 X206.995 Z-0.333
N11210G01 X196.795 Z-0.333
N11220G01 X196.595 Z-0.345
N11230G01 X196.395 Z-0.333
N11240G01 X194.995 Z-0.333
N11250G01 X194.795 Z-0.344
N11260G01 X194.595 Z-0.333
N11270G01 X190.795 Z-0.333
N11280G01 X190.595 Z-0.342
N11290G01 X190.395 Z-0.333
N11300G01 X186.395 Z-0.333
N11310G01 X186.195 Z-0.34
N11320G01 X185.995 Z-0.333
N11330G01 X178.595 Z-0.333
N11340G01 X178.395 Z-0.342
N11350G01 X178.195 Z-0.333
N11360G01 X176.595 Z-0.333
N11370G01 X176.395 Z-0.341
N11380G01 X176.195 Z-0.333
N11390G01 X172.995 Z-0.333
N11400G01 X172.795 Z-0.339
N11410G01 X172.595 Z-0.333
N11420G01 X167.394 Z-0.333
N11430G01 X167.194 Z-0.34
N11440G01 X166.994 Z-0.333
N11450G01 X164.394 Z-0.333
N11460G01 X164.194 Z-0.337
N11470G01 X163.994 Z-0.333
N11480G01 X163.394 Z-0.333
N11490G01 X163.194 Z-0.338
N11500G01 X162.994 Z-0.333
N11510G01 X160.194 Z-0.333
N11520G01 X159.994 Z-0.338
N11530G01 X159.794 Z-0.333
N11540G01 X158.794 Z-0.333
N11550G01 X158.594 Z-0.34
N11560G01 X158.394 Z-0.333
N11570G01 X154.594 Z-0.333
N11580G01 X154.394 Z-0.337
N11590G01 X154.194 Z-0.333
N11600G01 X150.394 Z-0.333
N11610G01 X150.194 Z-0.337
N11620G01 X149.994 Z-0.333
N11630G01 X146.194 Z-0.333
N11640G01 X145.994 Z-0.335
N11650G01 X145.794 Z-0.333
N11660G01 X143.394 Z-0.333
N11670G01 X143.194 Z-0.336
N11680G01 X142.994 Z-0.333
N11690G01 X142.794 Z-0.333
N11700G01 X142.594 Z-0.336
N11710G01 X142.394 Z-0.333
N11720G01 X138.194 Z-0.333
N11730G01 X137.994 Z-0.335
N11740G01 X137.794 Z-0.332
N11750G01 X136.794 Z-0.333
N11760G01 X136.594 Z-0.334
N11770G01 X136.394 Z-0.332
N11780G01 X131.794 Z-0.332
N11790G01 X131.594 Z-0.335
N11800G01 X131.394 Z-0.332
N11810G01 X129.994 Z-0.333
N11820G01 X129.794 Z-0.334
N11830G01 X125.794 Z-0.332
N11840G01 X125.594 Z-0.334
N11850G01 X124.594 Z-0.333
N11860G01 X123.994 Z-0.334
N11870G01 X122.794 Z-0.332
N11880G01 X122.594 Z-0.334
N11890G01 X0.193 Z-0.332
N11900 G00 Z9.999
N11910 G00 X349.998 Y16.452
N11920G01 Z-0.244 F500
N11930G01 X349.598 Z-0.244 F1000
N11940G01 X349.398 Z-0.249
N11950G01 X349.198 Z-0.249
N11960G01 X348.998 Z-0.244
N11970G01 X348.798 Z-0.248
N11980G01 X348.598 Z-0.244
N11990G01 X348.198 Z-0.244
N12000G01 X347.998 Z-0.25
N12010G01 X347.798 Z-0.244
N12020G01 X347.198 Z-0.244
N12030G01 X346.998 Z-0.249
N12040G01 X346.798 Z-0.244
N12050G01 X345.997 Z-0.244
N12060G01 X345.797 Z-0.249
N12070G01 X345.597 Z-0.244
N12080G01 X345.397 Z-0.246
N12090G01 X344.797 Z-0.244
N12100G01 X344.597 Z-0.25
N12110G01 X344.397 Z-0.244
N12120G01 X344.197 Z-0.246
N12130G01 X343.997 Z-0.25
N12140G01 X343.797 Z-0.244
N12150G01 X341.997 Z-0.244
N12160G01 X341.597 Z-0.25
N12170G01 X341.397 Z-0.244
N12180G01 X341.197 Z-0.249
N12190G01 X340.797 Z-0.244
N12200G01 X340.597 Z-0.249
N12210G01 X340.397 Z-0.249
N12220G01 X340.197 Z-0.244
N12230G01 X339.997 Z-0.248
N12240G01 X339.797 Z-0.244
N12250G01 X337.397 Z-0.244
N12260G01 X337.197 Z-0.247
N12270G01 X336.997 Z-0.244
N12280G01 X336.797 Z-0.248
N12290G01 X336.597 Z-0.244
N12300G01 X336.397 Z-0.248
N12310G01 X336.197 Z-0.244
N12320G01 X334.197 Z-0.244
N12330G01 X333.997 Z-0.249
N12340G01 X333.797 Z-0.244
N12350G01 X332.997 Z-0.244
N12360G01 X332.797 Z-0.247
N12370G01 X332.397 Z-0.246
N12380G01 X332.197 Z-0.244
N12390G01 X331.997 Z-0.244
N12400G01 X331.797 Z-0.248
N12410G01 X331.597 Z-0.244
N12420G01 X331.397 Z-0.244
N12430G01 X331.197 Z-0.247
N12440G01 X330.997 Z-0.244
N12450G01 X330.197 Z-0.244
N12460G01 X329.997 Z-0.246
N12470G01 X328.197 Z-0.244
N12480G01 X327.997 Z-0.247
N12490G01 X327.797 Z-0.244
N12500G01 X327.397 Z-0.244
N12510G01 X327.197 Z-0.247
N12520G01 X326.997 Z-0.244
N12530G01 X326.397 Z-0.244
N12540G01 X325.997 Z-0.247
N12550G01 X325.797 Z-0.244
N12560G01 X325.397 Z-0.246
N12570G01 X323.797 Z-0.244
N12580G01 X323.597 Z-0.247
N12590G01 X323.397 Z-0.244
N12600G01 X323.197 Z-0.244
N12610G01 X322.997 Z-0.247
N12620G01 X322.797 Z-0.244
N12630G01 X322.397 Z-0.246
N12640G01 X320.797 Z-0.244
N12650G01 X320.597 Z-0.247
N12660G01 X320.397 Z-0.244
N12670G01 X317.597 Z-0.244
N12680G01 X317.397 Z-0.246
N12690G01 X316.997 Z-0.244
N12700G01 X316.797 Z-0.245
N12710G01 X315.797 Z-0.244
N12720G01 X315.597 Z-0.246
N12730G01 X315.397 Z-0.244
N12740G01 X314.997 Z-0.246
N12750G01 X313.997 Z-0.244
N12760G01 X313.797 Z-0.246
N12770G01 X312.397 Z-0.244
N12780G01 X312.197 Z-0.246
N12790G01 X311.997 Z-0.244
N12800G01 X310.397 Z-0.244
N12810G01 X310.197 Z-0.246
N12820G01 X309.397 Z-0.244
N12830G01 X309.197 Z-0.246
N12840G01 X284.996 Z-0.244
N12850G01 X284.796 Z-0.256
N12860G01 X284.596 Z-0.244
N12870G01 X283.196 Z-0.244
N12880G01 X282.996 Z-0.256
N12890G01 X282.796 Z-0.244
N12900G01 X281.796 Z-0.244
N12910G01 X281.596 Z-0.256
N12920G01 X281.396 Z-0.244
N12930G01 X279.796 Z-0.244
N12940G01 X279.596 Z-0.255
N12950G01 X279.396 Z-0.256
N12960G01 X279.196 Z-0.244
N12970G01 X277.596 Z-0.244
N12980G01 X277.396 Z-0.256
N12990G01 X277.196 Z-0.244
N13000G01 X275.996 Z-0.244
N13010G01 X275.796 Z-0.256
N13020G01 X275.596 Z-0.244
N13030G01 X274.796 Z-0.244
N13040G01 X274.596 Z-0.256
N13050G01 X274.396 Z-0.244
N13060G01 X267.196 Z-0.244
N13070G01 X266.996 Z-0.256
N13080G01 X266.796 Z-0.244
N13090G01 X258.396 Z-0.244
N13100G01 X258.196 Z-0.256
N13110G01 X257.996 Z-0.244
N13120G01 X252.396 Z-0.244
N13130G01 X252.196 Z-0.25
N13140G01 X251.996 Z-0.244
N13150G01 X231.796 Z-0.244
N13160G01 X231.596 Z-0.255
N13170G01 X231.396 Z-0.244
N13180G01 X230.396 Z-0.244
N13190G01 X230.196 Z-0.249
N13200G01 X229.996 Z-0.244
N13210G01 X229.396 Z-0.244
N13220G01 X229.196 Z-0.252
N13230G01 X228.996 Z-0.244
N13240G01 X223.395 Z-0.244
N13250G01 X223.195 Z-0.256
N13260G01 X222.995 Z-0.244
N13270G01 X220.795 Z-0.244
N13280G01 X220.595 Z-0.256
N13290G01 X220.395 Z-0.244
N13300G01 X219.595 Z-0.244
N13310G01 X219.395 Z-0.246
N13320G01 X219.195 Z-0.256
N13330G01 X218.995 Z-0.244
N13340G01 X202.195 Z-0.244
N13350G01 X201.995 Z-0.256
N13360G01 X201.795 Z-0.244
N13370G01 X200.395 Z-0.244
N13380G01 X200.195 Z-0.252
N13390G01 X199.995 Z-0.244
N13400G01 X191.595 Z-0.244
N13410G01 X191.395 Z-0.256
N13420G01 X191.195 Z-0.244
N13430G01 X190.395 Z-0.244
N13440G01 X190.195 Z-0.253
N13450G01 X189.995 Z-0.244
N13460G01 X188.995 Z-0.244
N13470G01 X188.795 Z-0.256
N13480G01 X188.595 Z-0.244
N13490G01 X182.395 Z-0.244
N13500G01 X182.195 Z-0.256
N13510G01 X181.995 Z-0.244
N13520G01 X180.995 Z-0.244
N13530G01 X180.795 Z-0.256
N13540G01 X180.595 Z-0.244
N13550G01 X177.795 Z-0.244
N13560G01 X177.595 Z-0.256
N13570G01 X177.395 Z-0.244
N13580G01 X176.795 Z-0.244
N13590G01 X176.595 Z-0.256
N13600G01 X176.395 Z-0.244
N13610G01 X175.395 Z-0.244
N13620G01 X175.195 Z-0.256
N13630G01 X174.995 Z-0.244
N13640G01 X173.795 Z-0.244
N13650G01 X173.595 Z-0.256
N13660G01 X173.395 Z-0.244
N13670G01 X173.195 Z-0.256
N13680G01 X172.995 Z-0.244
N13690G01 X165.594 Z-0.244
N13700G01 X165.394 Z-0.256
N13710G01 X165.194 Z-0.244
N13720G01 X164.994 Z-0.246
N13730G01 X159.994 Z-0.244
N13740G01 X159.794 Z-0.256
N13750G01 X159.594 Z-0.244
N13760G01 X150.594 Z-0.244
N13770G01 X150.394 Z-0.254
N13780G01 X150.194 Z-0.244
N13790G01 X149.194 Z-0.244
N13800G01 X148.994 Z-0.256
N13810G01 X148.794 Z-0.244
N13820G01 X147.794 Z-0.244
N13830G01 X147.594 Z-0.256
N13840G01 X147.394 Z-0.244
N13850G01 X137.994 Z-0.244
N13860G01 X137.794 Z-0.256
N13870G01 X137.594 Z-0.244
N13880G01 X135.194 Z-0.244
N13890G01 X134.994 Z-0.255
N13900G01 X134.794 Z-0.244
N13910G01 X132.394 Z-0.244
N13920G01 X132.194 Z-0.256
N13930G01 X131.994 Z-0.244
N13940G01 X87.993 Z-0.244
N13950G01 X87.793 Z-0.246
N13960G01 X87.593 Z-0.244
N13970G01 X67.393 Z-0.244
N13980G01 X67.193 Z-0.245
N13990G01 X0.193 Z-0.244
N14000 G00 Z9.999
N14010 G00 X349.998 Y16.952
N14020G01 Z-0.175 F500
N14030G01 X348.398 Z-0.175 F1000
N14040G01 X348.198 Z-0.195
N14050G01 X347.998 Z-0.175
N14060G01 X338.997 Z-0.175
N14070G01 X338.797 Z-0.196
N14080G01 X338.597 Z-0.175
N14090G01 X331.997 Z-0.175
N14100G01 X331.797 Z-0.195
N14110G01 X331.597 Z-0.175
N14120G01 X331.397 Z-0.175
N14130G01 X331.197 Z-0.191
N14140G01 X330.997 Z-0.175
N14150G01 X325.797 Z-0.175
N14160G01 X325.597 Z-0.195
N14170G01 X325.397 Z-0.175
N14180G01 X307.797 Z-0.175
N14190G01 X307.597 Z-0.192
N14200G01 X307.397 Z-0.175
N14210G01 X301.597 Z-0.175
N14220G01 X301.397 Z-0.186
N14230G01 X301.197 Z-0.175
N14240G01 X294.597 Z-0.175
N14250G01 X294.397 Z-0.19
N14260G01 X294.197 Z-0.175
N14270G01 X292.997 Z-0.175
N14280G01 X292.797 Z-0.189
N14290G01 X292.597 Z-0.175
N14300G01 X291.997 Z-0.175
N14310G01 X291.797 Z-0.192
N14320G01 X291.597 Z-0.175
N14330G01 X273.996 Z-0.175
N14340G01 X273.796 Z-0.189
N14350G01 X273.596 Z-0.175
N14360G01 X269.396 Z-0.175
N14370G01 X269.196 Z-0.186
N14380G01 X268.996 Z-0.175
N14390G01 X265.196 Z-0.175
N14400G01 X264.996 Z-0.19
N14410G01 X264.796 Z-0.175
N14420G01 X260.996 Z-0.175
N14430G01 X260.796 Z-0.188
N14440G01 X260.596 Z-0.175
N14450G01 X259.396 Z-0.175
N14460G01 X259.196 Z-0.186
N14470G01 X258.996 Z-0.175
N14480G01 X257.196 Z-0.175
N14490G01 X256.996 Z-0.182
N14500G01 X256.796 Z-0.175
N14510G01 X253.196 Z-0.175
N14520G01 X252.996 Z-0.186
N14530G01 X252.796 Z-0.175
N14540G01 X251.996 Z-0.175
N14550G01 X251.796 Z-0.188
N14560G01 X251.596 Z-0.175
N14570G01 X248.996 Z-0.175
N14580G01 X248.796 Z-0.185
N14590G01 X248.596 Z-0.175
N14600G01 X244.796 Z-0.175
N14610G01 X244.596 Z-0.185
N14620G01 X244.396 Z-0.175
N14630G01 X243.396 Z-0.175
N14640G01 X243.196 Z-0.186
N14650G01 X242.996 Z-0.175
N14660G01 X233.796 Z-0.175
N14670G01 X233.596 Z-0.185
N14680G01 X233.396 Z-0.175
N14690G01 X226.995 Z-0.175
N14700G01 X226.795 Z-0.181
N14710G01 X226.595 Z-0.175
N14720G01 X225.595 Z-0.175
N14730G01 X225.395 Z-0.182
N14740G01 X225.195 Z-0.175
N14750G01 X221.395 Z-0.175
N14760G01 X221.195 Z-0.183
N14770G01 X220.995 Z-0.175
N14780G01 X220.195 Z-0.175
N14790G01 X219.995 Z-0.183
N14800G01 X219.795 Z-0.175
N14810G01 X217.395 Z-0.175
N14820G01 X217.195 Z-0.183
N14830G01 X216.995 Z-0.175
N14840G01 X215.995 Z-0.175
N14850G01 X215.795 Z-0.184
N14860G01 X215.595 Z-0.182
N14870G01 X215.395 Z-0.175
N14880G01 X214.595 Z-0.175
N14890G01 X214.395 Z-0.182
N14900G01 X214.195 Z-0.175
N14910G01 X210.795 Z-0.175
N14920G01 X210.595 Z-0.18
N14930G01 X210.395 Z-0.175
N14940G01 X210.195 Z-0.18
N14950G01 X209.995 Z-0.175
N14960G01 X207.395 Z-0.175
N14970G01 X207.195 Z-0.18
N14980G01 X206.995 Z-0.175
N14990G01 X206.195 Z-0.175
N15000G01 X205.995 Z-0.181
N15010G01 X205.795 Z-0.175
N15020G01 X200.795 Z-0.175
N15030G01 X200.595 Z-0.18
N15040G01 X200.395 Z-0.18
N15050G01 X200.195 Z-0.175
N15060G01 X197.995 Z-0.175
N15070G01 X197.795 Z-0.18
N15080G01 X197.595 Z-0.175
N15090G01 X196.395 Z-0.175
N15100G01 X196.195 Z-0.18
N15110G01 X195.995 Z-0.175
N15120G01 X193.795 Z-0.175
N15130G01 X193.595 Z-0.179
N15140G01 X193.395 Z-0.175
N15150G01 X192.195 Z-0.175
N15160G01 X191.995 Z-0.18
N15170G01 X191.795 Z-0.175
N15180G01 X189.595 Z-0.175
N15190G01 X189.395 Z-0.178
N15200G01 X189.195 Z-0.175
N15210G01 X188.195 Z-0.175
N15220G01 X187.995 Z-0.179
N15230G01 X187.795 Z-0.175
N15240G01 X187.595 Z-0.179
N15250G01 X187.395 Z-0.175
N15260G01 X186.795 Z-0.175
N15270G01 X186.595 Z-0.179
N15280G01 X186.395 Z-0.175
N15290G01 X184.995 Z-0.175
N15300G01 X184.795 Z-0.179
N15310G01 X184.595 Z-0.175
N15320G01 X183.595 Z-0.175
N15330G01 X183.395 Z-0.178
N15340G01 X183.195 Z-0.175
N15350G01 X182.195 Z-0.175
N15360G01 X181.995 Z-0.18
N15370G01 X181.795 Z-0.175
N15380G01 X179.395 Z-0.175
N15390G01 X179.195 Z-0.178
N15400G01 X178.995 Z-0.175
N15410G01 X178.595 Z-0.175
N15420G01 X178.395 Z-0.179
N15430G01 X177.995 Z-0.175
N15440G01 X176.595 Z-0.175
N15450G01 X176.395 Z-0.178
N15460G01 X176.195 Z-0.175
N15470G01 X174.195 Z-0.175
N15480G01 X173.995 Z-0.177
N15490G01 X173.795 Z-0.175
N15500G01 X171.595 Z-0.175
N15510G01 X171.395 Z-0.177
N15520G01 X171.195 Z-0.175
N15530G01 X168.794 Z-0.175
N15540G01 X168.594 Z-0.178
N15550G01 X168.394 Z-0.178
N15560G01 X168.194 Z-0.175
N15570G01 X163.394 Z-0.175
N15580G01 X163.194 Z-0.177
N15590G01 X162.994 Z-0.175
N15600G01 X162.394 Z-0.175
N15610G01 X162.194 Z-0.177
N15620G01 X161.994 Z-0.175
N15630G01 X161.594 Z-0.175
N15640G01 X161.394 Z-0.177
N15650G01 X161.194 Z-0.175
N15660G01 X160.194 Z-0.176
N15670G01 X159.194 Z-0.175
N15680G01 X158.994 Z-0.177
N15690G01 X158.794 Z-0.175
N15700G01 X157.394 Z-0.175
N15710G01 X157.194 Z-0.183
N15720G01 X156.994 Z-0.175
N15730G01 X156.594 Z-0.176
N15740G01 X149.394 Z-0.175
N15750G01 X149.194 Z-0.176
N15760G01 X148.194 Z-0.175
N15770G01 X0.193 Z-0.174
N15780 G00 Z9.999
N15790 G00 X349.998 Y17.452
N15800G01 Z-0.11 F500
N15810G01 X349.198 Z-0.11 F1000
N15820G01 X348.998 Z-0.112
N15830G01 X347.398 Z-0.11
N15840G01 X347.198 Z-0.112
N15850G01 X346.998 Z-0.11
N15860G01 X346.197 Z-0.11
N15870G01 X345.997 Z-0.115
N15880G01 X345.797 Z-0.11
N15890G01 X344.397 Z-0.11
N15900G01 X344.197 Z-0.112
N15910G01 X343.397 Z-0.11
N15920G01 X343.197 Z-0.112
N15930G01 X342.797 Z-0.11
N15940G01 X342.597 Z-0.111
N15950G01 X342.397 Z-0.11
N15960G01 X342.197 Z-0.115
N15970G01 X341.997 Z-0.11
N15980G01 X340.197 Z-0.11
N15990G01 X339.997 Z-0.111
N16000G01 X339.197 Z-0.11
N16010G01 X338.997 Z-0.111
N16020G01 X338.797 Z-0.11
N16030G01 X338.597 Z-0.114
N16040G01 X338.397 Z-0.11
N16050G01 X335.197 Z-0.111
N16060G01 X334.997 Z-0.113
N16070G01 X334.797 Z-0.11
N16080G01 X330.397 Z-0.11
N16090G01 X330.197 Z-0.111
N16100G01 X329.797 Z-0.11
N16110G01 X320.597 Z-0.11
N16120G01 X320.397 Z-0.113
N16130G01 X320.197 Z-0.11
N16140G01 X319.997 Z-0.114
N16150G01 X319.797 Z-0.111
N16160G01 X319.597 Z-0.114
N16170G01 X319.397 Z-0.11
N16180G01 X319.197 Z-0.114
N16190G01 X318.997 Z-0.11
N16200G01 X317.997 Z-0.11
N16210G01 X317.797 Z-0.114
N16220G01 X317.597 Z-0.11
N16230G01 X317.197 Z-0.11
N16240G01 X316.997 Z-0.114
N16250G01 X316.797 Z-0.114
N16260G01 X316.597 Z-0.11
N16270G01 X315.997 Z-0.11
N16280G01 X315.797 Z-0.114
N16290G01 X315.397 Z-0.113
N16300G01 X315.197 Z-0.116
N16310G01 X314.997 Z-0.11
N16320G01 X314.397 Z-0.11
N16330G01 X314.197 Z-0.114
N16340G01 X313.997 Z-0.11
N16350G01 X313.797 Z-0.116
N16360G01 X313.597 Z-0.11
N16370G01 X313.397 Z-0.114
N16380G01 X313.197 Z-0.11
N16390G01 X312.997 Z-0.116
N16400G01 X312.797 Z-0.11
N16410G01 X311.797 Z-0.11
N16420G01 X311.597 Z-0.116
N16430G01 X311.197 Z-0.11
N16440G01 X310.997 Z-0.11
N16450G01 X310.797 Z-0.117
N16460G01 X310.397 Z-0.11
N16470G01 X310.197 Z-0.114
N16480G01 X309.997 Z-0.11
N16490G01 X309.797 Z-0.114
N16500G01 X309.597 Z-0.11
N16510G01 X309.397 Z-0.114
N16520G01 X309.197 Z-0.115
N16530G01 X308.997 Z-0.11
N16540G01 X307.997 Z-0.11
N16550G01 X307.597 Z-0.117
N16560G01 X307.397 Z-0.11
N16570G01 X307.197 Z-0.11
N16580G01 X306.997 Z-0.114
N16590G01 X306.797 Z-0.11
N16600G01 X306.597 Z-0.116
N16610G01 X306.197 Z-0.11
N16620G01 X305.997 Z-0.11
N16630G01 X305.597 Z-0.116
N16640G01 X305.397 Z-0.11
N16650G01 X305.197 Z-0.112
N16660G01 X304.197 Z-0.11
N16670G01 X303.997 Z-0.114
N16680G01 X303.797 Z-0.11
N16690G01 X303.597 Z-0.11
N16700G01 X303.397 Z-0.114
N16710G01 X303.197 Z-0.11
N16720G01 X302.797 Z-0.11
N16730G01 X302.597 Z-0.114
N16740G01 X302.397 Z-0.114
N16750G01 X302.197 Z-0.11
N16760G01 X301.997 Z-0.114
N16770G01 X301.797 Z-0.11
N16780G01 X301.397 Z-0.11
N16790G01 X301.197 Z-0.114
N16800G01 X300.797 Z-0.113
N16810G01 X300.597 Z-0.11
N16820G01 X300.397 Z-0.11
N16830G01 X300.197 Z-0.114
N16840G01 X299.997 Z-0.11
N16850G01 X299.597 Z-0.11
N16860G01 X299.397 Z-0.113
N16870G01 X299.197 Z-0.11
N16880G01 X298.997 Z-0.11
N16890G01 X298.797 Z-0.113
N16900G01 X298.597 Z-0.11
N16910G01 X298.397 Z-0.114
N16920G01 X298.197 Z-0.11
N16930G01 X297.597 Z-0.11
N16940G01 X297.397 Z-0.114
N16950G01 X297.197 Z-0.11
N16960G01 X296.997 Z-0.11
N16970G01 X296.797 Z-0.114
N16980G01 X296.597 Z-0.11
N16990G01 X296.197 Z-0.11
N17000G01 X295.997 Z-0.116
N17010G01 X295.797 Z-0.11
N17020G01 X295.597 Z-0.114
N17030G01 X295.397 Z-0.11
N17040G01 X294.797 Z-0.11
N17050G01 X294.597 Z-0.114
N17060G01 X294.397 Z-0.11
N17070G01 X294.197 Z-0.11
N17080G01 X293.997 Z-0.113
N17090G01 X293.597 Z-0.114
N17100G01 X293.397 Z-0.11
N17110G01 X293.197 Z-0.114
N17120G01 X292.997 Z-0.11
N17130G01 X292.397 Z-0.111
N17140G01 X290.997 Z-0.11
N17150G01 X290.797 Z-0.113
N17160G01 X290.597 Z-0.11
N17170G01 X290.197 Z-0.11
N17180G01 X289.997 Z-0.113
N17190G01 X289.797 Z-0.11
N17200G01 X289.597 Z-0.11
N17210G01 X289.397 Z-0.114
N17220G01 X289.197 Z-0.114
N17230G01 X288.997 Z-0.11
N17240G01 X287.997 Z-0.11
N17250G01 X287.797 Z-0.114
N17260G01 X287.597 Z-0.11
N17270G01 X287.396 Z-0.114
N17280G01 X287.196 Z-0.11
N17290G01 X286.996 Z-0.113
N17300G01 X286.796 Z-0.11
N17310G01 X286.596 Z-0.11
N17320G01 X286.396 Z-0.116
N17330G01 X285.996 Z-0.11
N17340G01 X285.796 Z-0.113
N17350G01 X285.596 Z-0.11
N17360G01 X285.396 Z-0.11
N17370G01 X285.196 Z-0.113
N17380G01 X284.996 Z-0.11
N17390G01 X284.796 Z-0.11
N17400G01 X284.596 Z-0.114
N17410G01 X284.396 Z-0.11
N17420G01 X283.796 Z-0.11
N17430G01 X283.596 Z-0.114
N17440G01 X283.396 Z-0.11
N17450G01 X282.596 Z-0.11
N17460G01 X282.396 Z-0.113
N17470G01 X282.196 Z-0.114
N17480G01 X281.996 Z-0.116
N17490G01 X281.596 Z-0.11
N17500G01 X281.396 Z-0.113
N17510G01 X281.196 Z-0.114
N17520G01 X280.996 Z-0.116
N17530G01 X280.796 Z-0.11
N17540G01 X280.596 Z-0.116
N17550G01 X280.196 Z-0.11
N17560G01 X279.396 Z-0.11
N17570G01 X279.196 Z-0.114
N17580G01 X278.596 Z-0.114
N17590G01 X278.396 Z-0.11
N17600G01 X278.196 Z-0.114
N17610G01 X277.996 Z-0.11
N17620G01 X277.596 Z-0.11
N17630G01 X277.396 Z-0.114
N17640G01 X277.196 Z-0.114
N17650G01 X276.996 Z-0.11
N17660G01 X276.796 Z-0.113
N17670G01 X276.596 Z-0.114
N17680G01 X276.396 Z-0.11
N17690G01 X276.196 Z-0.114
N17700G01 X275.996 Z-0.11
N17710G01 X274.596 Z-0.11
N17720G01 X274.396 Z-0.116
N17730G01 X274.196 Z-0.11
N17740G01 X273.596 Z-0.11
N17750G01 X273.396 Z-0.113
N17760G01 X273.196 Z-0.11
N17770G01 X272.596 Z-0.11
N17780G01 X272.396 Z-0.114
N17790G01 X272.196 Z-0.11
N17800G01 X271.996 Z-0.116
N17810G01 X271.796 Z-0.11
N17820G01 X271.196 Z-0.11
N17830G01 X270.996 Z-0.116
N17840G01 X270.796 Z-0.116
N17850G01 X270.396 Z-0.11
N17860G01 X269.596 Z-0.11
N17870G01 X269.396 Z-0.116
N17880G01 X269.196 Z-0.11
N17890G01 X268.596 Z-0.11
N17900G01 X268.396 Z-0.113
N17910G01 X268.196 Z-0.113
N17920G01 X267.996 Z-0.11
N17930G01 X267.196 Z-0.11
N17940G01 X266.796 Z-0.114
N17950G01 X266.596 Z-0.11
N17960G01 X266.396 Z-0.11
N17970G01 X266.196 Z-0.116
N17980G01 X265.996 Z-0.11
N17990G01 X264.996 Z-0.11
N18000G01 X264.796 Z-0.116
N18010G01 X264.596 Z-0.11
N18020G01 X263.796 Z-0.11
N18030G01 X263.596 Z-0.116
N18040G01 X263.196 Z-0.11
N18050G01 X262.996 Z-0.114
N18060G01 X262.596 Z-0.11
N18070G01 X262.396 Z-0.11
N18080G01 X262.196 Z-0.114
N18090G01 X261.996 Z-0.11
N18100G01 X261.796 Z-0.113
N18110G01 X261.596 Z-0.113
N18120G01 X261.396 Z-0.11
N18130G01 X260.796 Z-0.11
N18140G01 X260.596 Z-0.116
N18150G01 X260.396 Z-0.11
N18160G01 X260.196 Z-0.114
N18170G01 X259.996 Z-0.11
N18180G01 X259.796 Z-0.116
N18190G01 X259.596 Z-0.11
N18200G01 X259.396 Z-0.11
N18210G01 X259.196 Z-0.113
N18220G01 X258.996 Z-0.11
N18230G01 X258.796 Z-0.114
N18240G01 X258.596 Z-0.11
N18250G01 X258.396 Z-0.116
N18260G01 X257.996 Z-0.11
N18270G01 X257.796 Z-0.11
N18280G01 X257.596 Z-0.116
N18290G01 X257.396 Z-0.11
N18300G01 X256.796 Z-0.116
N18310G01 X256.596 Z-0.11
N18320G01 X255.396 Z-0.11
N18330G01 X254.996 Z-0.116
N18340G01 X254.796 Z-0.11
N18350G01 X253.996 Z-0.11
N18360G01 X253.796 Z-0.116
N18370G01 X253.396 Z-0.11
N18380G01 X252.596 Z-0.11
N18390G01 X252.396 Z-0.116
N18400G01 X252.196 Z-0.113
N18410G01 X251.996 Z-0.114
N18420G01 X251.796 Z-0.11
N18430G01 X251.196 Z-0.11
N18440G01 X250.996 Z-0.116
N18450G01 X250.796 Z-0.116
N18460G01 X250.596 Z-0.11
N18470G01 X249.796 Z-0.11
N18480G01 X249.596 Z-0.116
N18490G01 X249.196 Z-0.11
N18500G01 X248.396 Z-0.11
N18510G01 X248.196 Z-0.116
N18520G01 X247.996 Z-0.11
N18530G01 X246.996 Z-0.11
N18540G01 X246.796 Z-0.113
N18550G01 X246.596 Z-0.11
N18560G01 X245.796 Z-0.11
N18570G01 X245.596 Z-0.114
N18580G01 X245.396 Z-0.114
N18590G01 X245.196 Z-0.11
N18600G01 X244.396 Z-0.11
N18610G01 X243.996 Z-0.113
N18620G01 X243.796 Z-0.11
N18630G01 X242.996 Z-0.11
N18640G01 X242.596 Z-0.116
N18650G01 X242.396 Z-0.11
N18660G01 X240.196 Z-0.11
N18670G01 X239.996 Z-0.113
N18680G01 X239.796 Z-0.113
N18690G01 X239.596 Z-0.11
N18700G01 X239.196 Z-0.11
N18710G01 X238.996 Z-0.112
N18720G01 X238.796 Z-0.11
N18730G01 X238.596 Z-0.113
N18740G01 X238.396 Z-0.113
N18750G01 X238.196 Z-0.11
N18760G01 X237.796 Z-0.11
N18770G01 X237.596 Z-0.113
N18780G01 X237.396 Z-0.11
N18790G01 X237.196 Z-0.113
N18800G01 X236.996 Z-0.113
N18810G01 X236.796 Z-0.11
N18820G01 X235.996 Z-0.11
N18830G01 X235.796 Z-0.116
N18840G01 X235.596 Z-0.11
N18850G01 X234.596 Z-0.11
N18860G01 X234.396 Z-0.116
N18870G01 X233.996 Z-0.11
N18880G01 X233.196 Z-0.11
N18890G01 X232.996 Z-0.114
N18900G01 X232.796 Z-0.113
N18910G01 X232.596 Z-0.11
N18920G01 X231.596 Z-0.11
N18930G01 X231.396 Z-0.116
N18940G01 X231.196 Z-0.11
N18950G01 X230.396 Z-0.11
N18960G01 X230.196 Z-0.113
N18970G01 X229.996 Z-0.11
N18980G01 X229.396 Z-0.11
N18990G01 X229.196 Z-0.113
N19000G01 X228.996 Z-0.113
N19010G01 X228.796 Z-0.11
N19020G01 X228.596 Z-0.11
N19030G01 X228.395 Z-0.114
N19040G01 X228.195 Z-0.11
N19050G01 X227.595 Z-0.11
N19060G01 X227.395 Z-0.116
N19070G01 X227.195 Z-0.11
N19080G01 X226.395 Z-0.11
N19090G01 X226.195 Z-0.114
N19100G01 X225.995 Z-0.114
N19110G01 X225.795 Z-0.11
N19120G01 X223.595 Z-0.11
N19130G01 X223.395 Z-0.113
N19140G01 X223.195 Z-0.113
N19150G01 X222.995 Z-0.11
N19160G01 X222.795 Z-0.116
N19170G01 X222.595 Z-0.11
N19180G01 X222.195 Z-0.11
N19190G01 X221.995 Z-0.114
N19200G01 X221.795 Z-0.11
N19210G01 X221.595 Z-0.114
N19220G01 X221.395 Z-0.11
N19230G01 X221.195 Z-0.11
N19240G01 X220.995 Z-0.116
N19250G01 X220.795 Z-0.11
N19260G01 X220.595 Z-0.116
N19270G01 X220.395 Z-0.11
N19280G01 X219.795 Z-0.11
N19290G01 X219.595 Z-0.113
N19300G01 X219.395 Z-0.113
N19310G01 X219.195 Z-0.116
N19320G01 X218.995 Z-0.116
N19330G01 X218.795 Z-0.113
N19340G01 X218.595 Z-0.114
N19350G01 X218.395 Z-0.11
N19360G01 X217.795 Z-0.11
N19370G01 X217.595 Z-0.116
N19380G01 X217.395 Z-0.11
N19390G01 X216.195 Z-0.11
N19400G01 X215.995 Z-0.113
N19410G01 X215.795 Z-0.11
N19420G01 X215.195 Z-0.11
N19430G01 X214.995 Z-0.116
N19440G01 X214.795 Z-0.11
N19450G01 X213.595 Z-0.11
N19460G01 X213.395 Z-0.114
N19470G01 X213.195 Z-0.113
N19480G01 X212.995 Z-0.11
N19490G01 X212.595 Z-0.11
N19500G01 X212.395 Z-0.114
N19510G01 X212.195 Z-0.113
N19520G01 X211.995 Z-0.11
N19530G01 X211.795 Z-0.113
N19540G01 X211.595 Z-0.11
N19550G01 X211.395 Z-0.11
N19560G01 X211.195 Z-0.113
N19570G01 X210.995 Z-0.11
N19580G01 X210.795 Z-0.113
N19590G01 X210.595 Z-0.11
N19600G01 X210.395 Z-0.113
N19610G01 X210.195 Z-0.11
N19620G01 X209.795 Z-0.111
N19630G01 X209.395 Z-0.11
N19640G01 X209.195 Z-0.113
N19650G01 X208.995 Z-0.11
N19660G01 X207.995 Z-0.111
N19670G01 X207.795 Z-0.113
N19680G01 X207.595 Z-0.113
N19690G01 X207.395 Z-0.11
N19700G01 X206.995 Z-0.11
N19710G01 X206.795 Z-0.113
N19720G01 X206.395 Z-0.113
N19730G01 X205.995 Z-0.11
N19740G01 X205.595 Z-0.11
N19750G01 X205.395 Z-0.113
N19760G01 X204.995 Z-0.11
N19770G01 X204.395 Z-0.11
N19780G01 X204.195 Z-0.113
N19790G01 X203.995 Z-0.11
N19800G01 X203.795 Z-0.113
N19810G01 X203.595 Z-0.113
N19820G01 X203.395 Z-0.11
N19830G01 X202.795 Z-0.11
N19840G01 X202.595 Z-0.113
N19850G01 X202.395 Z-0.113
N19860G01 X202.195 Z-0.11
N19870G01 X201.595 Z-0.11
N19880G01 X201.395 Z-0.113
N19890G01 X201.195 Z-0.113
N19900G01 X200.995 Z-0.116
N19910G01 X200.795 Z-0.11
N19920G01 X198.795 Z-0.11
N19930G01 X198.595 Z-0.113
N19940G01 X198.395 Z-0.113
N19950G01 X198.195 Z-0.11
N19960G01 X196.195 Z-0.11
N19970G01 X195.995 Z-0.113
N19980G01 X195.795 Z-0.11
N19990G01 X195.595 Z-0.113
N20000G01 X195.395 Z-0.11
N20010G01 X195.195 Z-0.113
N20020G01 X194.995 Z-0.11
N20030G01 X194.195 Z-0.11
N20040G01 X193.995 Z-0.113
N20050G01 X193.595 Z-0.113
N20060G01 X193.395 Z-0.11
N20070G01 X193.195 Z-0.11
N20080G01 X192.995 Z-0.113
N20090G01 X192.595 Z-0.11
N20100G01 X191.595 Z-0.11
N20110G01 X191.395 Z-0.114
N20120G01 X191.195 Z-0.11
N20130G01 X190.195 Z-0.11
N20140G01 X189.995 Z-0.116
N20150G01 X189.795 Z-0.11
N20160G01 X189.195 Z-0.11
N20170G01 X188.995 Z-0.114
N20180G01 X188.795 Z-0.114
N20190G01 X188.595 Z-0.11
N20200G01 X188.395 Z-0.11
N20210G01 X188.195 Z-0.112
N20220G01 X187.995 Z-0.11
N20230G01 X187.795 Z-0.116
N20240G01 X187.595 Z-0.11
N20250G01 X187.395 Z-0.11
N20260G01 X187.195 Z-0.113
N20270G01 X186.995 Z-0.11
N20280G01 X186.195 Z-0.11
N20290G01 X185.995 Z-0.113
N20300G01 X185.795 Z-0.114
N20310G01 X185.595 Z-0.11
N20320G01 X184.795 Z-0.11
N20330G01 X184.595 Z-0.116
N20340G01 X184.395 Z-0.11
N20350G01 X184.195 Z-0.11
N20360G01 X183.995 Z-0.113
N20370G01 X183.795 Z-0.11
N20380G01 X183.595 Z-0.113
N20390G01 X183.395 Z-0.11
N20400G01 X183.195 Z-0.11
N20410G01 X182.995 Z-0.113
N20420G01 X182.795 Z-0.11
N20430G01 X182.395 Z-0.11
N20440G01 X182.195 Z-0.116
N20450G01 X181.995 Z-0.11
N20460G01 X181.795 Z-0.116
N20470G01 X181.595 Z-0.116
N20480G01 X181.195 Z-0.11
N20490G01 X180.995 Z-0.11
N20500G01 X180.795 Z-0.112
N20510G01 X180.595 Z-0.11
N20520G01 X180.395 Z-0.113
N20530G01 X179.995 Z-0.113
N20540G01 X179.795 Z-0.11
N20550G01 X179.395 Z-0.113
N20560G01 X179.195 Z-0.11
N20570G01 X178.995 Z-0.113
N20580G01 X178.795 Z-0.113
N20590G01 X178.595 Z-0.11
N20600G01 X177.795 Z-0.11
N20610G01 X177.595 Z-0.116
N20620G01 X177.395 Z-0.11
N20630G01 X177.195 Z-0.111
N20640G01 X176.195 Z-0.11
N20650G01 X175.995 Z-0.114
N20660G01 X175.795 Z-0.11
N20670G01 X173.595 Z-0.11
N20680G01 X173.395 Z-0.116
N20690G01 X173.195 Z-0.11
N20700G01 X172.595 Z-0.11
N20710G01 X172.395 Z-0.116
N20720G01 X172.195 Z-0.11
N20730G01 X171.995 Z-0.113
N20740G01 X171.795 Z-0.11
N20750G01 X171.195 Z-0.11
N20760G01 X170.995 Z-0.113
N20770G01 X170.795 Z-0.113
N20780G01 X170.595 Z-0.11
N20790G01 X169.795 Z-0.11
N20800G01 X169.595 Z-0.113
N20810G01 X169.394 Z-0.11
N20820G01 X168.394 Z-0.11
N20830G01 X168.194 Z-0.113
N20840G01 X167.794 Z-0.113
N20850G01 X167.594 Z-0.11
N20860G01 X167.394 Z-0.111
N20870G01 X166.994 Z-0.11
N20880G01 X166.794 Z-0.116
N20890G01 X166.594 Z-0.116
N20900G01 X166.394 Z-0.11
N20910G01 X165.594 Z-0.11
N20920G01 X165.394 Z-0.116
N20930G01 X165.194 Z-0.11
N20940G01 X164.194 Z-0.11
N20950G01 X163.994 Z-0.116
N20960G01 X163.794 Z-0.116
N20970G01 X163.594 Z-0.11
N20980G01 X162.794 Z-0.11
N20990G01 X162.594 Z-0.113
N21000G01 X162.394 Z-0.11
N21010G01 X161.394 Z-0.11
N21020G01 X161.194 Z-0.116
N21030G01 X160.794 Z-0.11
N21040G01 X159.994 Z-0.11
N21050G01 X159.794 Z-0.116
N21060G01 X159.594 Z-0.116
N21070G01 X159.394 Z-0.11
N21080G01 X158.594 Z-0.11
N21090G01 X158.394 Z-0.116
N21100G01 X158.194 Z-0.11
N21110G01 X157.194 Z-0.11
N21120G01 X156.994 Z-0.113
N21130G01 X156.794 Z-0.11
N21140G01 X156.594 Z-0.113
N21150G01 X156.394 Z-0.11
N21160G01 X155.794 Z-0.11
N21170G01 X155.594 Z-0.113
N21180G01 X155.394 Z-0.11
N21190G01 X155.194 Z-0.11
N21200G01 X154.994 Z-0.113
N21210G01 X154.794 Z-0.11
N21220G01 X154.194 Z-0.11
N21230G01 X153.994 Z-0.113
N21240G01 X153.794 Z-0.11
N21250G01 X153.394 Z-0.11
N21260G01 X153.194 Z-0.113
N21270G01 X152.994 Z-0.11
N21280G01 X152.794 Z-0.11
N21290G01 X152.594 Z-0.113
N21300G01 X152.394 Z-0.11
N21310G01 X151.394 Z-0.11
N21320G01 X151.194 Z-0.113
N21330G01 X150.994 Z-0.11
N21340G01 X150.594 Z-0.11
N21350G01 X150.394 Z-0.113
N21360G01 X150.194 Z-0.11
N21370G01 X149.994 Z-0.11
N21380G01 X149.794 Z-0.113
N21390G01 X149.594 Z-0.11
N21400G01 X149.394 Z-0.114
N21410G01 X149.194 Z-0.11
N21420G01 X148.994 Z-0.116
N21430G01 X148.794 Z-0.11
N21440G01 X148.594 Z-0.113
N21450G01 X148.394 Z-0.113
N21460G01 X148.194 Z-0.11
N21470G01 X147.794 Z-0.11
N21480G01 X147.594 Z-0.113
N21490G01 X147.394 Z-0.11
N21500G01 X147.194 Z-0.113
N21510G01 X146.994 Z-0.11
N21520G01 X145.994 Z-0.11
N21530G01 X145.794 Z-0.113
N21540G01 X145.594 Z-0.11
N21550G01 X144.594 Z-0.11
N21560G01 X144.394 Z-0.116
N21570G01 X144.194 Z-0.11
N21580G01 X142.394 Z-0.11
N21590G01 X142.194 Z-0.113
N21600G01 X141.994 Z-0.113
N21610G01 X141.794 Z-0.11
N21620G01 X140.794 Z-0.11
N21630G01 X140.594 Z-0.113
N21640G01 X140.394 Z-0.11
N21650G01 X138.994 Z-0.11
N21660G01 X138.794 Z-0.116
N21670G01 X138.594 Z-0.11
N21680G01 X137.994 Z-0.11
N21690G01 X137.794 Z-0.113
N21700G01 X137.594 Z-0.11
N21710G01 X137.394 Z-0.113
N21720G01 X137.194 Z-0.11
N21730G01 X136.594 Z-0.11
N21740G01 X136.394 Z-0.116
N21750G01 X135.994 Z-0.11
N21760G01 X133.794 Z-0.11
N21770G01 X133.594 Z-0.116
N21780G01 X133.394 Z-0.11
N21790G01 X133.194 Z-0.113
N21800G01 X132.994 Z-0.11
N21810G01 X132.394 Z-0.11
N21820G01 X132.194 Z-0.113
N21830G01 X131.994 Z-0.11
N21840G01 X131.794 Z-0.113
N21850G01 X131.594 Z-0.11
N21860G01 X130.594 Z-0.11
N21870G01 X130.394 Z-0.113
N21880G01 X130.194 Z-0.113
N21890G01 X129.994 Z-0.11
N21900G01 X129.594 Z-0.11
N21910G01 X129.394 Z-0.113
N21920G01 X128.994 Z-0.113
N21930G01 X128.794 Z-0.11
N21940G01 X127.794 Z-0.11
N21950G01 X127.594 Z-0.113
N21960G01 X127.394 Z-0.11
N21970G01 X120.994 Z-0.11
N21980G01 X120.794 Z-0.113
N21990G01 X120.594 Z-0.11
N22000G01 X107.593 Z-0.11
N22010G01 X107.393 Z-0.113
N22020G01 X106.993 Z-0.11
N22030G01 X103.393 Z-0.11
N22040G01 X103.193 Z-0.113
N22050G01 X102.993 Z-0.11
N22060G01 X101.993 Z-0.11
N22070G01 X101.793 Z-0.113
N22080G01 X101.593 Z-0.113
N22090G01 X101.393 Z-0.11
N22100G01 X100.593 Z-0.11
N22110G01 X100.393 Z-0.113
N22120G01 X100.193 Z-0.11
N22130G01 X99.993 Z-0.113
N22140G01 X99.793 Z-0.11
N22150G01 X95.793 Z-0.11
N22160G01 X95.593 Z-0.113
N22170G01 X95.393 Z-0.11
N22180G01 X93.593 Z-0.11
N22190G01 X93.393 Z-0.113
N22200G01 X93.193 Z-0.11
N22210G01 X88.793 Z-0.11
N22220G01 X88.593 Z-0.113
N22230G01 X88.393 Z-0.11
N22240G01 X87.993 Z-0.11
N22250G01 X87.793 Z-0.113
N22260G01 X87.593 Z-0.11
N22270G01 X86.393 Z-0.11
N22280G01 X86.193 Z-0.113
N22290G01 X85.993 Z-0.11
N22300G01 X79.793 Z-0.11
N22310G01 X79.593 Z-0.111
N22320G01 X78.593 Z-0.11
N22330G01 X78.393 Z-0.113
N22340G01 X78.193 Z-0.11
N22350G01 X76.393 Z-0.11
N22360G01 X76.193 Z-0.111
N22370G01 X75.993 Z-0.11
N22380G01 X75.793 Z-0.113
N22390G01 X75.593 Z-0.11
N22400G01 X63.193 Z-0.11
N22410G01 X62.993 Z-0.113
N22420G01 X62.793 Z-0.11
N22430G01 X59.193 Z-0.11
N22440G01 X58.993 Z-0.113
N22450G01 X58.793 Z-0.11
N22460G01 X0.193 Z-0.11
N22470 G00 Z9.999
N22480 G00 X349.998 Y17.952
N22490G01 Z-0.069 F500
N22500G01 X349.798 Z-0.069 F1000
N22510G01 X349.398 Z-0.078
N22520G01 X349.198 Z-0.069
N22530G01 X348.998 Z-0.081
N22540G01 X348.798 Z-0.074
N22550G01 X348.598 Z-0.069
N22560G01 X348.398 Z-0.081
N22570G01 X348.198 Z-0.069
N22580G01 X347.998 Z-0.077
N22590G01 X347.798 Z-0.069
N22600G01 X347.598 Z-0.069
N22610G01 X347.398 Z-0.082
N22620G01 X347.198 Z-0.069
N22630G01 X346.998 Z-0.076
N22640G01 X346.798 Z-0.074
N22650G01 X346.597 Z-0.069
N22660G01 X346.197 Z-0.069
N22670G01 X345.997 Z-0.08
N22680G01 X345.797 Z-0.069
N22690G01 X345.597 Z-0.083
N22700G01 X345.397 Z-0.069
N22710G01 X344.997 Z-0.069
N22720G01 X344.797 Z-0.08
N22730G01 X344.597 Z-0.069
N22740G01 X344.397 Z-0.08
N22750G01 X344.197 Z-0.077
N22760G01 X343.997 Z-0.069
N22770G01 X343.797 Z-0.069
N22780G01 X343.597 Z-0.078
N22790G01 X343.397 Z-0.069
N22800G01 X342.997 Z-0.069
N22810G01 X342.797 Z-0.082
N22820G01 X342.597 Z-0.069
N22830G01 X342.197 Z-0.069
N22840G01 X341.997 Z-0.079
N22850G01 X341.797 Z-0.069
N22860G01 X341.397 Z-0.069
N22870G01 X341.197 Z-0.081
N22880G01 X340.797 Z-0.078
N22890G01 X340.597 Z-0.081
N22900G01 X340.397 Z-0.069
N22910G01 X339.997 Z-0.069
N22920G01 X339.797 Z-0.078
N22930G01 X339.597 Z-0.069
N22940G01 X338.597 Z-0.069
N22950G01 X338.397 Z-0.081
N22960G01 X338.197 Z-0.069
N22970G01 X337.997 Z-0.069
N22980G01 X337.797 Z-0.082
N22990G01 X337.597 Z-0.069
N23000G01 X336.797 Z-0.069
N23010G01 X336.597 Z-0.079
N23020G01 X336.397 Z-0.069
N23030G01 X335.197 Z-0.069
N23040G01 X334.997 Z-0.084
N23050G01 X334.797 Z-0.069
N23060G01 X333.997 Z-0.069
N23070G01 X333.797 Z-0.082
N23080G01 X333.597 Z-0.069
N23090G01 X333.397 Z-0.079
N23100G01 X333.197 Z-0.069
N23110G01 X332.797 Z-0.069
N23120G01 X332.597 Z-0.077
N23130G01 X332.397 Z-0.069
N23140G01 X332.197 Z-0.077
N23150G01 X331.997 Z-0.081
N23160G01 X331.797 Z-0.069
N23170G01 X330.797 Z-0.069
N23180G01 X330.597 Z-0.076
N23190G01 X330.397 Z-0.069
N23200G01 X330.197 Z-0.081
N23210G01 X329.997 Z-0.069
N23220G01 X329.797 Z-0.077
N23230G01 X329.597 Z-0.069
N23240G01 X328.997 Z-0.069
N23250G01 X328.797 Z-0.073
N23260G01 X328.597 Z-0.075
N23270G01 X328.397 Z-0.083
N23280G01 X328.197 Z-0.069
N23290G01 X327.997 Z-0.069
N23300G01 X327.797 Z-0.08
N23310G01 X327.597 Z-0.081
N23320G01 X327.397 Z-0.071
N23330G01 X327.197 Z-0.069
N23340G01 X324.997 Z-0.069
N23350G01 X324.797 Z-0.081
N23360G01 X324.597 Z-0.069
N23370G01 X323.797 Z-0.069
N23380G01 X323.597 Z-0.08
N23390G01 X323.397 Z-0.069
N23400G01 X322.597 Z-0.069
N23410G01 X322.397 Z-0.078
N23420G01 X322.197 Z-0.069
N23430G01 X321.997 Z-0.074
N23440G01 X321.797 Z-0.069
N23450G01 X321.597 Z-0.069
N23460G01 X321.397 Z-0.082
N23470G01 X321.197 Z-0.069
N23480G01 X320.797 Z-0.069
N23490G01 X320.597 Z-0.079
N23500G01 X320.397 Z-0.069
N23510G01 X319.797 Z-0.069
N23520G01 X319.597 Z-0.079
N23530G01 X319.397 Z-0.069
N23540G01 X318.797 Z-0.069
N23550G01 X318.597 Z-0.076
N23560G01 X318.397 Z-0.074
N23570G01 X318.197 Z-0.069
N23580G01 X317.397 Z-0.069
N23590G01 X317.197 Z-0.079
N23600G01 X316.997 Z-0.069
N23610G01 X316.597 Z-0.069
N23620G01 X316.397 Z-0.075
N23630G01 X316.197 Z-0.069
N23640G01 X315.197 Z-0.069
N23650G01 X314.997 Z-0.074
N23660G01 X314.797 Z-0.069
N23670G01 X314.597 Z-0.074
N23680G01 X314.397 Z-0.069
N23690G01 X313.197 Z-0.069
N23700G01 X312.997 Z-0.077
N23710G01 X312.797 Z-0.069
N23720G01 X312.597 Z-0.069
N23730G01 X312.397 Z-0.076
N23740G01 X312.197 Z-0.069
N23750G01 X311.997 Z-0.079
N23760G01 X311.797 Z-0.076
N23770G01 X311.597 Z-0.075
N23780G01 X311.397 Z-0.078
N23790G01 X311.197 Z-0.069
N23800G01 X309.797 Z-0.069
N23810G01 X309.597 Z-0.075
N23820G01 X309.397 Z-0.073
N23830G01 X309.197 Z-0.069
N23840G01 X308.797 Z-0.069
N23850G01 X308.597 Z-0.081
N23860G01 X308.397 Z-0.069
N23870G01 X307.397 Z-0.069
N23880G01 X307.197 Z-0.078
N23890G01 X306.997 Z-0.069
N23900G01 X306.597 Z-0.069
N23910G01 X306.397 Z-0.076
N23920G01 X305.997 Z-0.069
N23930G01 X304.797 Z-0.069
N23940G01 X304.597 Z-0.075
N23950G01 X304.397 Z-0.069
N23960G01 X303.797 Z-0.069
N23970G01 X303.597 Z-0.079
N23980G01 X303.397 Z-0.069
N23990G01 X303.197 Z-0.069
N24000G01 X302.997 Z-0.077
N24010G01 X302.797 Z-0.069
N24020G01 X302.197 Z-0.069
N24030G01 X301.997 Z-0.073
N24040G01 X301.797 Z-0.072
N24050G01 X301.597 Z-0.069
N24060G01 X301.397 Z-0.078
N24070G01 X301.197 Z-0.069
N24080G01 X300.997 Z-0.071
N24090G01 X300.597 Z-0.069
N24100G01 X300.397 Z-0.077
N24110G01 X300.197 Z-0.069
N24120G01 X298.997 Z-0.069
N24130G01 X298.797 Z-0.076
N24140G01 X298.597 Z-0.069
N24150G01 X298.397 Z-0.069
N24160G01 X298.197 Z-0.075
N24170G01 X297.997 Z-0.069
N24180G01 X297.797 Z-0.069
N24190G01 X297.597 Z-0.075
N24200G01 X297.397 Z-0.069
N24210G01 X297.197 Z-0.078
N24220G01 X296.997 Z-0.069
N24230G01 X295.597 Z-0.069
N24240G01 X295.397 Z-0.075
N24250G01 X295.197 Z-0.069
N24260G01 X293.397 Z-0.069
N24270G01 X293.197 Z-0.074
N24280G01 X292.997 Z-0.069
N24290G01 X292.797 Z-0.07
N24300G01 X292.597 Z-0.069
N24310G01 X292.397 Z-0.073
N24320G01 X292.197 Z-0.075
N24330G01 X291.997 Z-0.069
N24340G01 X291.197 Z-0.069
N24350G01 X290.997 Z-0.075
N24360G01 X290.797 Z-0.069
N24370G01 X289.397 Z-0.069
N24380G01 X289.197 Z-0.077
N24390G01 X288.997 Z-0.079
N24400G01 X288.797 Z-0.069
N24410G01 X288.597 Z-0.069
N24420G01 X288.397 Z-0.081
N24430G01 X288.197 Z-0.069
N24440G01 X287.196 Z-0.069
N24450G01 X286.996 Z-0.077
N24460G01 X286.796 Z-0.069
N24470G01 X285.396 Z-0.069
N24480G01 X285.196 Z-0.074
N24490G01 X284.996 Z-0.069
N24500G01 X284.196 Z-0.069
N24510G01 X283.996 Z-0.07
N24520G01 X281.396 Z-0.069
N24530G01 X281.196 Z-0.075
N24540G01 X280.996 Z-0.069
N24550G01 X280.596 Z-0.069
N24560G01 X280.396 Z-0.074
N24570G01 X280.196 Z-0.069
N24580G01 X278.996 Z-0.069
N24590G01 X278.796 Z-0.098
N24600G01 X278.596 Z-0.069
N24610G01 X278.396 Z-0.072
N24620G01 X278.196 Z-0.069
N24630G01 X275.596 Z-0.069
N24640G01 X275.396 Z-0.073
N24650G01 X275.196 Z-0.069
N24660G01 X274.796 Z-0.069
N24670G01 X274.596 Z-0.075
N24680G01 X274.396 Z-0.069
N24690G01 X274.196 Z-0.069
N24700G01 X273.996 Z-0.073
N24710G01 X273.796 Z-0.069
N24720G01 X270.996 Z-0.069
N24730G01 X270.796 Z-0.077
N24740G01 X270.596 Z-0.069
N24750G01 X270.396 Z-0.071
N24760G01 X269.796 Z-0.069
N24770G01 X269.596 Z-0.072
N24780G01 X269.396 Z-0.069
N24790G01 X268.596 Z-0.069
N24800G01 X268.396 Z-0.075
N24810G01 X268.196 Z-0.069
N24820G01 X266.196 Z-0.069
N24830G01 X265.996 Z-0.073
N24840G01 X265.796 Z-0.073
N24850G01 X265.596 Z-0.069
N24860G01 X265.396 Z-0.069
N24870G01 X265.196 Z-0.076
N24880G01 X264.996 Z-0.069
N24890G01 X264.796 Z-0.094
N24900G01 X264.596 Z-0.069
N24910G01 X263.996 Z-0.069
N24920G01 X263.796 Z-0.074
N24930G01 X263.596 Z-0.069
N24940G01 X262.796 Z-0.069
N24950G01 X262.596 Z-0.077
N24960G01 X262.396 Z-0.069
N24970G01 X262.196 Z-0.075
N24980G01 X261.996 Z-0.069
N24990G01 X261.796 Z-0.069
N25000G01 X261.596 Z-0.075
N25010G01 X261.396 Z-0.069
N25020G01 X259.796 Z-0.069
N25030G01 X259.596 Z-0.074
N25040G01 X259.396 Z-0.069
N25050G01 X259.196 Z-0.073
N25060G01 X258.996 Z-0.069
N25070G01 X258.796 Z-0.071
N25080G01 X258.596 Z-0.071
N25090G01 X258.396 Z-0.069
N25100G01 X257.996 Z-0.069
N25110G01 X257.796 Z-0.075
N25120G01 X257.396 Z-0.069
N25130G01 X256.796 Z-0.069
N25140G01 X256.596 Z-0.074
N25150G01 X256.196 Z-0.069
N25160G01 X255.996 Z-0.069
N25170G01 X255.796 Z-0.075
N25180G01 X255.596 Z-0.069
N25190G01 X254.596 Z-0.069
N25200G01 X254.396 Z-0.074
N25210G01 X254.196 Z-0.069
N25220G01 X253.196 Z-0.069
N25230G01 X252.996 Z-0.07
N25240G01 X251.996 Z-0.069
N25250G01 X251.796 Z-0.073
N25260G01 X251.396 Z-0.069
N25270G01 X250.596 Z-0.069
N25280G01 X250.396 Z-0.072
N25290G01 X250.196 Z-0.069
N25300G01 X249.996 Z-0.072
N25310G01 X249.796 Z-0.069
N25320G01 X249.196 Z-0.069
N25330G01 X248.996 Z-0.073
N25340G01 X248.796 Z-0.069
N25350G01 X246.196 Z-0.069
N25360G01 X245.996 Z-0.071
N25370G01 X245.796 Z-0.069
N25380G01 X245.196 Z-0.069
N25390G01 X244.996 Z-0.075
N25400G01 X244.796 Z-0.071
N25410G01 X243.396 Z-0.069
N25420G01 X243.196 Z-0.073
N25430G01 X242.996 Z-0.069
N25440G01 X241.996 Z-0.07
N25450G01 X241.796 Z-0.073
N25460G01 X241.596 Z-0.069
N25470G01 X240.796 Z-0.069
N25480G01 X240.596 Z-0.073
N25490G01 X240.196 Z-0.069
N25500G01 X238.996 Z-0.069
N25510G01 X238.796 Z-0.073
N25520G01 X238.596 Z-0.069
N25530G01 X237.996 Z-0.069
N25540G01 X237.796 Z-0.073
N25550G01 X237.596 Z-0.069
N25560G01 X236.196 Z-0.069
N25570G01 X235.996 Z-0.071
N25580G01 X235.796 Z-0.069
N25590G01 X233.996 Z-0.069
N25600G01 X233.796 Z-0.072
N25610G01 X233.596 Z-0.069
N25620G01 X232.596 Z-0.069
N25630G01 X232.396 Z-0.072
N25640G01 X232.196 Z-0.069
N25650G01 X231.196 Z-0.069
N25660G01 X230.996 Z-0.071
N25670G01 X230.796 Z-0.069
N25680G01 X229.596 Z-0.069
N25690G01 X229.396 Z-0.071
N25700G01 X229.196 Z-0.069
N25710G01 X228.395 Z-0.069
N25720G01 X228.195 Z-0.071
N25730G01 X227.995 Z-0.069
N25740G01 X227.195 Z-0.069
N25750G01 X226.995 Z-0.072
N25760G01 X226.795 Z-0.069
N25770G01 X226.595 Z-0.073
N25780G01 X226.395 Z-0.069
N25790G01 X225.595 Z-0.069
N25800G01 X225.395 Z-0.072
N25810G01 X224.995 Z-0.069
N25820G01 X224.195 Z-0.069
N25830G01 X223.995 Z-0.072
N25840G01 X223.795 Z-0.072
N25850G01 X223.595 Z-0.069
N25860G01 X222.795 Z-0.069
N25870G01 X222.595 Z-0.071
N25880G01 X222.395 Z-0.069
N25890G01 X220.195 Z-0.069
N25900G01 X219.995 Z-0.071
N25910G01 X219.795 Z-0.069
N25920G01 X217.395 Z-0.069
N25930G01 X216.995 Z-0.071
N25940G01 X216.795 Z-0.069
N25950G01 X216.595 Z-0.072
N25960G01 X216.395 Z-0.069
N25970G01 X214.395 Z-0.069
N25980G01 X214.195 Z-0.07
N25990G01 X212.795 Z-0.069
N26000G01 X212.595 Z-0.072
N26010G01 X212.395 Z-0.069
N26020G01 X210.395 Z-0.069
N26030G01 X210.195 Z-0.071
N26040G01 X209.995 Z-0.069
N26050G01 X208.995 Z-0.069
N26060G01 X208.795 Z-0.07
N26070G01 X206.595 Z-0.069
N26080G01 X206.395 Z-0.071
N26090G01 X205.995 Z-0.069
N26100G01 X205.795 Z-0.071
N26110G01 X205.595 Z-0.069
N26120G01 X204.795 Z-0.069
N26130G01 X204.595 Z-0.07
N26140G01 X201.995 Z-0.069
N26150G01 X201.795 Z-0.078
N26160G01 X201.595 Z-0.069
N26170G01 X200.595 Z-0.069
N26180G01 X200.395 Z-0.07
N26190G01 X197.995 Z-0.069
N26200G01 X197.795 Z-0.07
N26210G01 X196.395 Z-0.069
N26220G01 X196.195 Z-0.071
N26230G01 X195.995 Z-0.069
N26240G01 X194.995 Z-0.069
N26250G01 X194.795 Z-0.071
N26260G01 X194.595 Z-0.069
N26270G01 X193.595 Z-0.069
N26280G01 X193.395 Z-0.07
N26290G01 X190.995 Z-0.069
N26300G01 X190.795 Z-0.071
N26310G01 X190.595 Z-0.068
N26320G01 X188.395 Z-0.069
N26330G01 X188.195 Z-0.075
N26340G01 X187.995 Z-0.07
N26350G01 X186.395 Z-0.069
N26360G01 X186.195 Z-0.074
N26370G01 X185.995 Z-0.069
N26380G01 X184.995 Z-0.068
N26390G01 X184.795 Z-0.074
N26400G01 X184.595 Z-0.069
N26410G01 X182.795 Z-0.07
N26420G01 X182.595 Z-0.073
N26430G01 X182.395 Z-0.068
N26440G01 X182.195 Z-0.068
N26450G01 X181.995 Z-0.073
N26460G01 X181.795 Z-0.068
N26470G01 X180.795 Z-0.068
N26480G01 X180.595 Z-0.073
N26490G01 X180.395 Z-0.069
N26500G01 X176.595 Z-0.068
N26510G01 X176.395 Z-0.071
N26520G01 X176.195 Z-0.068
N26530G01 X171.395 Z-0.068
N26540G01 X171.195 Z-0.07
N26550G01 X161.394 Z-0.068
N26560G01 X161.194 Z-0.069
N26570G01 X160.394 Z-0.068
N26580G01 X158.594 Z-0.068
N26590G01 X158.394 Z-0.073
N26600G01 X158.194 Z-0.068
N26610G01 X150.594 Z-0.068
N26620G01 X150.394 Z-0.102
N26630G01 X150.194 Z-0.068
N26640G01 X139.394 Z-0.068
N26650G01 X139.194 Z-0.102
N26660G01 X138.994 Z-0.068
N26670G01 X136.594 Z-0.068
N26680G01 X136.394 Z-0.102
N26690G01 X136.194 Z-0.068
N26700G01 X135.194 Z-0.068
N26710G01 X134.994 Z-0.102
N26720G01 X134.794 Z-0.068
N26730G01 X130.594 Z-0.068
N26740G01 X130.394 Z-0.102
N26750G01 X130.194 Z-0.068
N26760G01 X0.193 Z-0.068
N26770 G00 Z9.999
N26780 G00 X349.998 Y8.952
N26790G01 Z-2.05 F500
N26800G01 X0.193 F1000
N26810 G00 Z9.999
N26820 G00 X349.998 Y9.452
N26830G01 Z-2.05 F500
N26840G01 X0.193 F1000
N26850 G00 Z9.999
N26860 G00 X349.998 Y9.952
N26870G01 Z-2.05 F500
N26880G01 X0.193 F1000
N26890 G00 Z9.999
N26900 G00 X349.998 Y10.452
N26910G01 Z-2.05 F500
N26920G01 X0.193 F1000
N26930 G00 Z9.999
N26940 G00 X349.998 Y10.952
N26950G01 Z-1.958 F500
N26960G01 X0.193 Z-1.957 F1000
N26970 G00 Z9.999
N26980 G00 X349.998 Y11.452
N26990G01 Z-1.729 F500
N27000G01 X244.996 Z-1.729 F1000
N27010G01 X244.796 Z-1.731
N27020G01 X198.995 Z-1.729
N27030G01 X198.795 Z-1.742
N27040G01 X198.595 Z-1.729
N27050G01 X174.995 Z-1.729
N27060G01 X174.795 Z-1.74
N27070G01 X174.595 Z-1.729
N27080G01 X158.194 Z-1.729
N27090G01 X157.994 Z-1.731
N27100G01 X157.794 Z-1.729
N27110G01 X156.194 Z-1.729
N27120G01 X155.994 Z-1.731
N27130G01 X135.394 Z-1.729
N27140G01 X135.194 Z-1.747
N27150G01 X134.994 Z-1.729
N27160G01 X112.994 Z-1.729
N27170G01 X112.794 Z-1.73
N27180G01 X0.193 Z-1.729
N27190 G00 Z9.999
N27200 G00 X349.998 Y11.952
N27210G01 Z-1.513 F500
N27220G01 X0.193 Z-1.512 F1000
N27230 G00 Z9.999
N27240 G00 X349.998 Y12.452
N27250G01 Z-1.316 F500
N27260G01 X273.996 Z-1.316 F1000
N27270G01 X273.796 Z-1.325
N27280G01 X273.596 Z-1.316
N27290G01 X258.396 Z-1.316
N27300G01 X258.196 Z-1.32
N27310G01 X257.996 Z-1.316
N27320G01 X256.596 Z-1.316
N27330G01 X256.396 Z-1.32
N27340G01 X256.196 Z-1.316
N27350G01 X181.995 Z-1.316
N27360G01 X181.795 Z-1.323
N27370G01 X181.595 Z-1.316
N27380G01 X175.995 Z-1.316
N27390G01 X175.795 Z-1.318
N27400G01 X175.595 Z-1.316
N27410G01 X159.394 Z-1.316
N27420G01 X159.194 Z-1.322
N27430G01 X158.994 Z-1.316
N27440G01 X144.394 Z-1.316
N27450G01 X144.194 Z-1.317
N27460G01 X137.594 Z-1.316
N27470G01 X137.394 Z-1.318
N27480G01 X137.194 Z-1.316
N27490G01 X113.794 Z-1.316
N27500G01 X113.594 Z-1.326
N27510G01 X113.394 Z-1.316
N27520G01 X103.993 Z-1.316
N27530G01 X103.793 Z-1.319
N27540G01 X103.593 Z-1.316
N27550G01 X100.393 Z-1.316
N27560G01 X100.193 Z-1.319
N27570G01 X99.993 Z-1.316
N27580G01 X0.193 Z-1.315
N27590 G00 Z9.999
N27600 G00 X349.998 Y12.952
N27610G01 Z-1.131 F500
N27620G01 X0.193 Z-1.13 F1000
N27630 G00 Z9.999
N27640 G00 X349.997 Y240.952
N27650G01 Z-1.14 F500
N27660G01 X142.394 Z-1.139 F1000
N27670G01 X142.194 Z-1.14
N27680G01 X141.794 Z-1.139
N27690G01 X141.394 Z-1.14
N27700G01 X140.994 Z-1.139
N27710G01 X140.794 Z-1.14
N27720G01 X140.594 Z-1.139
N27730G01 X139.994 Z-1.14
N27740G01 X139.794 Z-1.139
N27750G01 X139.394 Z-1.14
N27760G01 X139.194 Z-1.139
N27770G01 X138.794 Z-1.141
N27780G01 X138.594 Z-1.139
N27790G01 X137.994 Z-1.141
N27800G01 X137.794 Z-1.139
N27810G01 X137.194 Z-1.141
N27820G01 X136.994 Z-1.139
N27830G01 X135.794 Z-1.141
N27840G01 X135.594 Z-1.139
N27850G01 X135.394 Z-1.142
N27860G01 X135.194 Z-1.142
N27870G01 X134.994 Z-1.139
N27880G01 X134.794 Z-1.142
N27890G01 X133.794 Z-1.142
N27900G01 X133.594 Z-1.139
N27910G01 X133.394 Z-1.142
N27920G01 X133.194 Z-1.142
N27930G01 X132.994 Z-1.139
N27940G01 X132.794 Z-1.143
N27950G01 X131.394 Z-1.143
N27960G01 X131.194 Z-1.139
N27970G01 X130.994 Z-1.144
N27980G01 X130.794 Z-1.139
N27990G01 X130.594 Z-1.144
N28000G01 X130.394 Z-1.139
N28010G01 X130.194 Z-1.145
N28020G01 X129.994 Z-1.139
N28030G01 X129.794 Z-1.146
N28040G01 X129.394 Z-1.146
N28050G01 X129.194 Z-1.139
N28060G01 X128.994 Z-1.139
N28070G01 X128.794 Z-1.147
N28080G01 X127.994 Z-1.148
N28090G01 X127.794 Z-1.139
N28100G01 X127.594 Z-1.149
N28110G01 X127.394 Z-1.139
N28120G01 X126.594 Z-1.139
N28130G01 X126.394 Z-1.153
N28140G01 X126.194 Z-1.139
N28150G01 X0.193 Z-1.139
N28160 G00 Z9.999
N28170 G00 X349.997 Y241.452
N28180G01 Z-1.324 F500
N28190G01 X61.993 Z-1.324 F1000
N28200G01 X61.793 Z-1.325
N28210G01 X60.593 Z-1.324
N28220G01 X60.393 Z-1.325
N28230G01 X59.993 Z-1.324
N28240G01 X59.593 Z-1.325
N28250G01 X59.193 Z-1.324
N28260G01 X58.393 Z-1.325
N28270G01 X58.193 Z-1.324
N28280G01 X57.993 Z-1.325
N28290G01 X57.793 Z-1.324
N28300G01 X57.593 Z-1.326
N28310G01 X57.193 Z-1.324
N28320G01 X56.593 Z-1.326
N28330G01 X56.393 Z-1.324
N28340G01 X56.193 Z-1.326
N28350G01 X55.993 Z-1.324
N28360G01 X55.393 Z-1.324
N28370G01 X55.193 Z-1.327
N28380G01 X54.993 Z-1.324
N28390G01 X52.793 Z-1.324
N28400G01 X52.593 Z-1.329
N28410G01 X52.393 Z-1.329
N28420G01 X52.193 Z-1.324
N28430G01 X51.193 Z-1.324
N28440G01 X50.993 Z-1.331
N28450G01 X50.793 Z-1.324
N28460G01 X0.193 Z-1.324
N28470 G00 Z9.999
N28480 G00 X349.997 Y241.952
N28490G01 Z-1.521 F500
N28500G01 X144.794 Z-1.52 F1000
N28510G01 X144.394 Z-1.521
N28520G01 X143.994 Z-1.52
N28530G01 X143.794 Z-1.521
N28540G01 X143.394 Z-1.52
N28550G01 X142.994 Z-1.522
N28560G01 X142.794 Z-1.52
N28570G01 X142.594 Z-1.522
N28580G01 X142.394 Z-1.52
N28590G01 X142.194 Z-1.522
N28600G01 X141.994 Z-1.52
N28610G01 X141.594 Z-1.522
N28620G01 X141.394 Z-1.52
N28630G01 X140.794 Z-1.522
N28640G01 X140.594 Z-1.52
N28650G01 X139.394 Z-1.522
N28660G01 X139.194 Z-1.52
N28670G01 X138.794 Z-1.522
N28680G01 X138.594 Z-1.52
N28690G01 X138.394 Z-1.522
N28700G01 X136.594 Z-1.523
N28710G01 X136.394 Z-1.52
N28720G01 X136.194 Z-1.523
N28730G01 X135.994 Z-1.523
N28740G01 X135.794 Z-1.52
N28750G01 X135.594 Z-1.52
N28760G01 X135.394 Z-1.523
N28770G01 X135.194 Z-1.524
N28780G01 X134.994 Z-1.52
N28790G01 X134.794 Z-1.524
N28800G01 X133.794 Z-1.524
N28810G01 X133.594 Z-1.52
N28820G01 X133.394 Z-1.525
N28830G01 X133.194 Z-1.52
N28840G01 X132.994 Z-1.525
N28850G01 X132.794 Z-1.525
N28860G01 X132.594 Z-1.52
N28870G01 X132.394 Z-1.525
N28880G01 X132.194 Z-1.52
N28890G01 X131.994 Z-1.526
N28900G01 X131.794 Z-1.526
N28910G01 X131.594 Z-1.52
N28920G01 X131.194 Z-1.52
N28930G01 X130.994 Z-1.527
N28940G01 X130.794 Z-1.52
N28950G01 X130.594 Z-1.527
N28960G01 X130.394 Z-1.52
N28970G01 X130.194 Z-1.528
N28980G01 X129.994 Z-1.52
N28990G01 X129.794 Z-1.52
N29000G01 X129.594 Z-1.529
N29010G01 X129.194 Z-1.529
N29020G01 X128.994 Z-1.52
N29030G01 X128.394 Z-1.52
N29040G01 X128.194 Z-1.531
N29050G01 X127.994 Z-1.52
N29060G01 X127.794 Z-1.52
N29070G01 X127.594 Z-1.533
N29080G01 X127.394 Z-1.52
N29090G01 X125.394 Z-1.52
N29100G01 X125.194 Z-1.546
N29110G01 X124.994 Z-1.52
N29120G01 X0.193 Z-1.52
N29130 G00 Z9.999
N29140 G00 X349.997 Y242.452
N29150G01 Z-1.737 F500
N29160G01 X61.193 Z-1.736 F1000
N29170G01 X60.593 Z-1.737
N29180G01 X60.193 Z-1.736
N29190G01 X59.793 Z-1.738
N29200G01 X58.993 Z-1.736
N29210G01 X58.593 Z-1.738
N29220G01 X58.193 Z-1.736
N29230G01 X57.993 Z-1.738
N29240G01 X57.193 Z-1.736
N29250G01 X56.393 Z-1.739
N29260G01 X56.193 Z-1.736
N29270G01 X54.993 Z-1.736
N29280G01 X54.793 Z-1.739
N29290G01 X54.593 Z-1.736
N29300G01 X54.393 Z-1.736
N29310G01 X54.193 Z-1.74
N29320G01 X53.993 Z-1.736
N29330G01 X52.193 Z-1.736
N29340G01 X51.993 Z-1.742
N29350G01 X51.793 Z-1.736
N29360G01 X0.193 Z-1.736
N29370 G00 Z9.999
N29380 G00 X349.997 Y242.952
N29390G01 Z-1.965 F500
N29400G01 X143.194 Z-1.966 F1000
N29410G01 X142.994 Z-1.965
N29420G01 X142.594 Z-1.966
N29430G01 X142.394 Z-1.965
N29440G01 X142.194 Z-1.966
N29450G01 X141.594 Z-1.965
N29460G01 X141.194 Z-1.966
N29470G01 X140.994 Z-1.965
N29480G01 X140.794 Z-1.966
N29490G01 X140.594 Z-1.965
N29500G01 X139.994 Z-1.966
N29510G01 X139.794 Z-1.965
N29520G01 X139.394 Z-1.966
N29530G01 X139.194 Z-1.965
N29540G01 X138.394 Z-1.966
N29550G01 X138.194 Z-1.965
N29560G01 X136.594 Z-1.967
N29570G01 X136.394 Z-1.965
N29580G01 X136.194 Z-1.967
N29590G01 X135.194 Z-1.967
N29600G01 X134.994 Z-1.965
N29610G01 X134.794 Z-1.967
N29620G01 X134.594 Z-1.967
N29630G01 X134.394 Z-1.965
N29640G01 X134.194 Z-1.968
N29650G01 X133.594 Z-1.967
N29660G01 X133.394 Z-1.965
N29670G01 X133.194 Z-1.968
N29680G01 X132.794 Z-1.968
N29690G01 X132.594 Z-1.965
N29700G01 X132.394 Z-1.968
N29710G01 X132.194 Z-1.965
N29720G01 X131.994 Z-1.969
N29730G01 X131.594 Z-1.969
N29740G01 X131.394 Z-1.965
N29750G01 X131.194 Z-1.969
N29760G01 X130.794 Z-1.969
N29770G01 X130.594 Z-1.965
N29780G01 X130.394 Z-1.969
N29790G01 X129.994 Z-1.97
N29800G01 X129.794 Z-1.965
N29810G01 X129.594 Z-1.97
N29820G01 X129.194 Z-1.97
N29830G01 X128.994 Z-1.965
N29840G01 X128.794 Z-1.971
N29850G01 X127.994 Z-1.972
N29860G01 X127.794 Z-1.965
N29870G01 X126.794 Z-1.965
N29880G01 X126.594 Z-1.974
N29890G01 X126.394 Z-1.965
N29900G01 X126.194 Z-1.975
N29910G01 X125.994 Z-1.965
N29920G01 X125.194 Z-1.965
N29930G01 X124.994 Z-1.978
N29940G01 X124.794 Z-1.965
N29950G01 X124.194 Z-1.965
N29960G01 X123.994 Z-1.981
N29970G01 X123.794 Z-1.965
N29980G01 X0.193 Z-1.964
N29990 G00 Z9.999
N30000 G00 X349.997 Y243.452
N30010G01 Z-2.05 F500
N30020G01 X0.193 F1000
N30030 G00 Z9.999
N30040 G00 X349.997 Y243.952
N30050G01 Z-2.05 F500
N30060G01 X0.193 F1000
N30070 G00 Z9.999
N30080 G00 X349.997 Y244.452
N30090G01 Z-2.05 F500
N30100G01 X0.193 F1000
N30110 G00 Z9.999
N30120 G00 X349.997 Y244.952
N30130G01 Z-2.05 F500
N30140G01 X0.193 F1000
N30150 G00 Z9.999
N30160 G00 X349.998 Y8.952
N30170G01 Z-3.05 F500
N30180G01 X0.193 F1000
N30190 G00 Z9.999
N30200 G00 X349.998 Y9.452
N30210G01 Z-2.756 F500
N30220G01 X260.196 Z-2.756 F1000
N30230G01 X259.996 Z-2.757
N30240G01 X192.395 Z-2.756
N30250G01 X192.195 Z-2.759
N30260G01 X191.995 Z-2.756
N30270G01 X187.995 Z-2.756
N30280G01 X187.795 Z-2.765
N30290G01 X187.595 Z-2.756
N30300G01 X184.995 Z-2.756
N30310G01 X184.795 Z-2.766
N30320G01 X184.595 Z-2.756
N30330G01 X128.194 Z-2.756
N30340G01 X127.994 Z-2.757
N30350G01 X0.193 Z-2.755
N30360 G00 Z9.999
N30370 G00 X349.998 Y9.952
N30380G01 Z-2.472 F500
N30390G01 X0.193 Z-2.471 F1000
N30400 G00 Z9.999
N30410 G00 X349.998 Y10.452
N30420G01 Z-2.208 F500
N30430G01 X191.195 Z-2.207 F1000
N30440G01 X190.995 Z-2.218
N30450G01 X190.795 Z-2.207
N30460G01 X175.195 Z-2.207
N30470G01 X174.995 Z-2.212
N30480G01 X174.795 Z-2.207
N30490G01 X124.194 Z-2.207
N30500G01 X123.994 Z-2.212
N30510G01 X123.794 Z-2.212
N30520G01 X123.594 Z-2.207
N30530G01 X0.193 Z-2.207
N30540 G00 Z9.999
N30550 G00 X349.997 Y243.452
N30560G01 Z-2.214 F500
N30570G01 X57.793 Z-2.213 F1000
N30580G01 X57.593 Z-2.214
N30590G01 X57.393 Z-2.213
N30600G01 X57.193 Z-2.214
N30610G01 X56.793 Z-2.213
N30620G01 X56.593 Z-2.214
N30630G01 X55.793 Z-2.213
N30640G01 X55.593 Z-2.215
N30650G01 X55.393 Z-2.213
N30660G01 X55.193 Z-2.215
N30670G01 X54.793 Z-2.213
N30680G01 X54.393 Z-2.215
N30690G01 X53.793 Z-2.213
N30700G01 X53.593 Z-2.215
N30710G01 X53.393 Z-2.213
N30720G01 X52.793 Z-2.213
N30730G01 X52.593 Z-2.216
N30740G01 X52.393 Z-2.213
N30750G01 X51.993 Z-2.213
N30760G01 X51.793 Z-2.216
N30770G01 X51.593 Z-2.213
N30780G01 X50.793 Z-2.213
N30790G01 X50.593 Z-2.217
N30800G01 X50.393 Z-2.217
N30810G01 X50.193 Z-2.213
N30820G01 X49.993 Z-2.213
N30830G01 X49.793 Z-2.217
N30840G01 X49.593 Z-2.213
N30850G01 X0.193 Z-2.213
N30860 G00 Z9.999
N30870 G00 X349.997 Y243.952
N30880G01 Z-2.477 F500
N30890G01 X138.794 Z-2.477 F1000
N30900G01 X138.594 Z-2.478
N30910G01 X137.394 Z-2.477
N30920G01 X136.794 Z-2.478
N30930G01 X135.994 Z-2.477
N30940G01 X134.994 Z-2.478
N30950G01 X134.794 Z-2.477
N30960G01 X133.394 Z-2.478
N30970G01 X133.194 Z-2.477
N30980G01 X131.994 Z-2.479
N30990G01 X131.794 Z-2.477
N31000G01 X131.594 Z-2.479
N31010G01 X131.194 Z-2.477
N31020G01 X130.994 Z-2.479
N31030G01 X129.594 Z-2.479
N31040G01 X129.394 Z-2.477
N31050G01 X128.794 Z-2.477
N31060G01 X128.594 Z-2.48
N31070G01 X128.394 Z-2.48
N31080G01 X128.194 Z-2.477
N31090G01 X127.594 Z-2.477
N31100G01 X127.394 Z-2.48
N31110G01 X127.194 Z-2.477
N31120G01 X126.994 Z-2.48
N31130G01 X126.794 Z-2.477
N31140G01 X126.194 Z-2.477
N31150G01 X125.994 Z-2.481
N31160G01 X125.794 Z-2.481
N31170G01 X125.594 Z-2.477
N31180G01 X124.794 Z-2.477
N31190G01 X124.594 Z-2.482
N31200G01 X124.394 Z-2.477
N31210G01 X124.194 Z-2.482
N31220G01 X123.994 Z-2.477
N31230G01 X123.394 Z-2.477
N31240G01 X123.194 Z-2.483
N31250G01 X122.994 Z-2.482
N31260G01 X122.794 Z-2.477
N31270G01 X121.594 Z-2.477
N31280G01 X121.394 Z-2.484
N31290G01 X121.194 Z-2.477
N31300G01 X120.594 Z-2.477
N31310G01 X120.394 Z-2.487
N31320G01 X120.194 Z-2.477
N31330G01 X119.194 Z-2.477
N31340G01 X118.993 Z-2.488
N31350G01 X118.793 Z-2.477
N31360G01 X0.193 Z-2.477
N31370 G00 Z9.999
N31380 G00 X349.997 Y244.452
N31390G01 Z-2.76 F500
N31400G01 X48.993 Z-2.76 F1000
N31410G01 X48.793 Z-2.761
N31420G01 X48.593 Z-2.76
N31430G01 X48.393 Z-2.761
N31440G01 X47.993 Z-2.76
N31450G01 X47.793 Z-2.761
N31460G01 X46.193 Z-2.76
N31470G01 X45.993 Z-2.762
N31480G01 X44.993 Z-2.76
N31490G01 X44.793 Z-2.762
N31500G01 X44.593 Z-2.76
N31510G01 X0.193 Z-2.76
N31520 G00 Z9.999
N31530 G00 X349.997 Y244.952
N31540G01 Z-3.05 F500
N31550G01 X0.193 F1000
N31560 G00 Z9.999
N31570 G00 X349.998 Y8.952
N31580G01 Z-3.06 F500
N31590G01 X0.193 Z-3.06 F1000
N31600 G00 Z9.999
N31610 G00 X349.997 Y244.952
N31620G01 Z-3.064 F500
N31630G01 X129.594 Z-3.063 F1000
N31640G01 X129.394 Z-3.064
N31650G01 X128.394 Z-3.063
N31660G01 X128.194 Z-3.064
N31670G01 X127.994 Z-3.063
N31680G01 X127.794 Z-3.064
N31690G01 X127.594 Z-3.063
N31700G01 X127.394 Z-3.064
N31710G01 X126.194 Z-3.063
N31720G01 X125.594 Z-3.065
N31730G01 X124.794 Z-3.063
N31740G01 X124.394 Z-3.065
N31750G01 X124.194 Z-3.063
N31760G01 X123.794 Z-3.065
N31770G01 X123.394 Z-3.063
N31780G01 X122.994 Z-3.065
N31790G01 X122.794 Z-3.063
N31800G01 X122.394 Z-3.065
N31810G01 X121.994 Z-3.063
N31820G01 X121.794 Z-3.065
N31830G01 X121.394 Z-3.065
N31840G01 X120.594 Z-3.063
N31850G01 X120.394 Z-3.065
N31860G01 X120.194 Z-3.065
N31870G01 X119.994 Z-3.063
N31880G01 X119.194 Z-3.063
N31890G01 X118.993 Z-3.065
N31900G01 X118.593 Z-3.066
N31910G01 X118.393 Z-3.063
N31920G01 X117.793 Z-3.063
N31930G01 X117.593 Z-3.066
N31940G01 X117.193 Z-3.066
N31950G01 X116.993 Z-3.063
N31960G01 X116.393 Z-3.063
N31970G01 X116.193 Z-3.066
N31980G01 X115.993 Z-3.067
N31990G01 X115.793 Z-3.063
N32000G01 X114.993 Z-3.063
N32010G01 X114.793 Z-3.067
N32020G01 X114.593 Z-3.063
N32030G01 X113.593 Z-3.063
N32040G01 X113.393 Z-3.068
N32050G01 X113.193 Z-3.063
N32060G01 X112.393 Z-3.063
N32070G01 X112.193 Z-3.068
N32080G01 X111.793 Z-3.069
N32090G01 X111.593 Z-3.063
N32100G01 X111.193 Z-3.063
N32110G01 X110.993 Z-3.07
N32120G01 X110.393 Z-3.07
N32130G01 X110.193 Z-3.063
N32140G01 X109.593 Z-3.063
N32150G01 X109.393 Z-3.072
N32160G01 X109.193 Z-3.063
N32170G01 X108.393 Z-3.063
N32180G01 X108.193 Z-3.073
N32190G01 X107.993 Z-3.074
N32200G01 X107.793 Z-3.063
N32210G01 X106.793 Z-3.063
N32220G01 X106.593 Z-3.077
N32230G01 X106.393 Z-3.063
N32240G01 X105.593 Z-3.063
N32250G01 X105.393 Z-3.081
N32260G01 X105.193 Z-3.063
N32270G01 X104.193 Z-3.063
N32280G01 X103.993 Z-3.088
N32290G01 X103.793 Z-3.063
N32300G01 X0.193 Z-3.063
N32310 G00 Z9.999
N32320 M02
