(GCode created using the HeeksCNC Mach3 post processor)
(/home/user/git-repos/donation-box/designs/3D/blender/top panel/top-cutout-file.tap)
(G-code generated with BlenderCAM and NC library)
N10 G17 G21 G90
(Tool change)
N20G43H1
N30T1 M06
N40 G00 X0 Y0 Z9.999 S12000 M03
N50 G00 X68.827 Y63.189
N60G01 Z-1 F500
N70G01 X281.137 F1000
N80G01 X281.137 Y180.459
N90G01 X68.827 Y180.459
N100G01 Y63.189
N110 G00 Z9.999
N120 G00 X-0.154 Y7.395
N130G01 Z-1 F500
N140G01 X-0.285 Y7.415 F1000
N150G01 X-0.414 Y7.447
N160G01 X-0.539 Y7.492
N170G01 X-0.658 Y7.548
N180G01 X-0.772 Y7.617
N190G01 X-0.878 Y7.695
N200G01 X-0.977 Y7.784
N210G01 X-1.066 Y7.883
N220G01 X-1.144 Y7.989
N230G01 X-1.213 Y8.103
N240G01 X-1.269 Y8.222
N250G01 X-1.314 Y8.347
N260G01 X-1.346 Y8.476
N270G01 X-1.365 Y8.607
N280G01 X-1.372 Y8.739
N290G01 X-1.372 Y245.169
N300G01 X-1.365 Y245.301
N310G01 X-1.346 Y245.432
N320G01 X-1.314 Y245.561
N330G01 X-1.269 Y245.686
N340G01 X-1.213 Y245.805
N350G01 X-1.144 Y245.919
N360G01 X-1.066 Y246.025
N370G01 X-0.977 Y246.124
N380G01 X-0.878 Y246.213
N390G01 X-0.772 Y246.291
N400G01 X-0.658 Y246.36
N410G01 X-0.539 Y246.416
N420G01 X-0.414 Y246.461
N430G01 X-0.285 Y246.493
N440G01 X-0.154 Y246.512
N450G01 X-0.022 Y246.519
N460G01 X349.987
N470G01 X350.119 Y246.512
N480G01 X350.25 Y246.493
N490G01 X350.379 Y246.461
N500G01 X350.504 Y246.416
N510G01 X350.623 Y246.36
N520G01 X350.737 Y246.291
N530G01 X350.843 Y246.213
N540G01 X350.942 Y246.124
N550G01 X351.031 Y246.025
N560G01 X351.109 Y245.919
N570G01 X351.178 Y245.805
N580G01 X351.234 Y245.686
N590G01 X351.279 Y245.561
N600G01 X351.311 Y245.432
N610G01 X351.33 Y245.301
N620G01 X351.337 Y245.169
N630G01 X351.337 Y8.739
N640G01 X351.33 Y8.607
N650G01 X351.311 Y8.476
N660G01 X351.279 Y8.347
N670G01 X351.234 Y8.222
N680G01 X351.178 Y8.103
N690G01 X351.109 Y7.989
N700G01 X351.031 Y7.883
N710G01 X350.942 Y7.784
N720G01 X350.843 Y7.695
N730G01 X350.737 Y7.617
N740G01 X350.623 Y7.548
N750G01 X350.504 Y7.492
N760G01 X350.379 Y7.447
N770G01 X350.25 Y7.415
N780G01 X350.119 Y7.395
N790G01 X349.987 Y7.389
N800G01 X-0.154 Y7.395
N810 G00 Z9.999
N820 G00 X68.827 Y63.189
N830G01 Z-2 F500
N840G01 X281.137 F1000
N850G01 X281.137 Y180.459
N860G01 X68.827 Y180.459
N870G01 Y63.189
N880 G00 Z9.999
N890 G00 X-0.154 Y7.395
N900G01 Z-2 F500
N910G01 X-0.285 Y7.415 F1000
N920G01 X-0.414 Y7.447
N930G01 X-0.539 Y7.492
N940G01 X-0.658 Y7.548
N950G01 X-0.772 Y7.617
N960G01 X-0.878 Y7.695
N970G01 X-0.977 Y7.784
N980G01 X-1.066 Y7.883
N990G01 X-1.144 Y7.989
N1000G01 X-1.213 Y8.103
N1010G01 X-1.269 Y8.222
N1020G01 X-1.314 Y8.347
N1030G01 X-1.346 Y8.476
N1040G01 X-1.365 Y8.607
N1050G01 X-1.372 Y8.739
N1060G01 X-1.372 Y245.169
N1070G01 X-1.365 Y245.301
N1080G01 X-1.346 Y245.432
N1090G01 X-1.314 Y245.561
N1100G01 X-1.269 Y245.686
N1110G01 X-1.213 Y245.805
N1120G01 X-1.144 Y245.919
N1130G01 X-1.066 Y246.025
N1140G01 X-0.977 Y246.124
N1150G01 X-0.878 Y246.213
N1160G01 X-0.772 Y246.291
N1170G01 X-0.658 Y246.36
N1180G01 X-0.539 Y246.416
N1190G01 X-0.414 Y246.461
N1200G01 X-0.285 Y246.493
N1210G01 X-0.154 Y246.512
N1220G01 X-0.022 Y246.519
N1230G01 X349.987
N1240G01 X350.119 Y246.512
N1250G01 X350.25 Y246.493
N1260G01 X350.379 Y246.461
N1270G01 X350.504 Y246.416
N1280G01 X350.623 Y246.36
N1290G01 X350.737 Y246.291
N1300G01 X350.843 Y246.213
N1310G01 X350.942 Y246.124
N1320G01 X351.031 Y246.025
N1330G01 X351.109 Y245.919
N1340G01 X351.178 Y245.805
N1350G01 X351.234 Y245.686
N1360G01 X351.279 Y245.561
N1370G01 X351.311 Y245.432
N1380G01 X351.33 Y245.301
N1390G01 X351.337 Y245.169
N1400G01 X351.337 Y8.739
N1410G01 X351.33 Y8.607
N1420G01 X351.311 Y8.476
N1430G01 X351.279 Y8.347
N1440G01 X351.234 Y8.222
N1450G01 X351.178 Y8.103
N1460G01 X351.109 Y7.989
N1470G01 X351.031 Y7.883
N1480G01 X350.942 Y7.784
N1490G01 X350.843 Y7.695
N1500G01 X350.737 Y7.617
N1510G01 X350.623 Y7.548
N1520G01 X350.504 Y7.492
N1530G01 X350.379 Y7.447
N1540G01 X350.25 Y7.415
N1550G01 X350.119 Y7.395
N1560G01 X349.987 Y7.389
N1570G01 X-0.154 Y7.395
N1580 G00 Z9.999
N1590 G00 X68.827 Y63.189
N1600G01 Z-3 F500
N1610G01 X281.137 F1000
N1620G01 X281.137 Y180.459
N1630G01 X68.827 Y180.459
N1640G01 Y63.189
N1650 G00 Z9.999
N1660 G00 X-0.154 Y7.395
N1670G01 Z-3 F500
N1680G01 X-0.285 Y7.415 F1000
N1690G01 X-0.414 Y7.447
N1700G01 X-0.539 Y7.492
N1710G01 X-0.658 Y7.548
N1720G01 X-0.772 Y7.617
N1730G01 X-0.878 Y7.695
N1740G01 X-0.977 Y7.784
N1750G01 X-1.066 Y7.883
N1760G01 X-1.144 Y7.989
N1770G01 X-1.213 Y8.103
N1780G01 X-1.269 Y8.222
N1790G01 X-1.314 Y8.347
N1800G01 X-1.346 Y8.476
N1810G01 X-1.365 Y8.607
N1820G01 X-1.372 Y8.739
N1830G01 X-1.372 Y245.169
N1840G01 X-1.365 Y245.301
N1850G01 X-1.346 Y245.432
N1860G01 X-1.314 Y245.561
N1870G01 X-1.269 Y245.686
N1880G01 X-1.213 Y245.805
N1890G01 X-1.144 Y245.919
N1900G01 X-1.066 Y246.025
N1910G01 X-0.977 Y246.124
N1920G01 X-0.878 Y246.213
N1930G01 X-0.772 Y246.291
N1940G01 X-0.658 Y246.36
N1950G01 X-0.539 Y246.416
N1960G01 X-0.414 Y246.461
N1970G01 X-0.285 Y246.493
N1980G01 X-0.154 Y246.512
N1990G01 X-0.022 Y246.519
N2000G01 X349.987
N2010G01 X350.119 Y246.512
N2020G01 X350.25 Y246.493
N2030G01 X350.379 Y246.461
N2040G01 X350.504 Y246.416
N2050G01 X350.623 Y246.36
N2060G01 X350.737 Y246.291
N2070G01 X350.843 Y246.213
N2080G01 X350.942 Y246.124
N2090G01 X351.031 Y246.025
N2100G01 X351.109 Y245.919
N2110G01 X351.178 Y245.805
N2120G01 X351.234 Y245.686
N2130G01 X351.279 Y245.561
N2140G01 X351.311 Y245.432
N2150G01 X351.33 Y245.301
N2160G01 X351.337 Y245.169
N2170G01 X351.337 Y8.739
N2180G01 X351.33 Y8.607
N2190G01 X351.311 Y8.476
N2200G01 X351.279 Y8.347
N2210G01 X351.234 Y8.222
N2220G01 X351.178 Y8.103
N2230G01 X351.109 Y7.989
N2240G01 X351.031 Y7.883
N2250G01 X350.942 Y7.784
N2260G01 X350.843 Y7.695
N2270G01 X350.737 Y7.617
N2280G01 X350.623 Y7.548
N2290G01 X350.504 Y7.492
N2300G01 X350.379 Y7.447
N2310G01 X350.25 Y7.415
N2320G01 X350.119 Y7.395
N2330G01 X349.987 Y7.389
N2340G01 X-0.154 Y7.395
N2350 G00 Z9.999
N2360 G00 X68.827 Y63.189
N2370G01 Z-4 F500
N2380G01 X110.035 F1000
N2390G01 Z-3.3
N2400G01 X114.735
N2410G01 Z-4 F500
N2420G01 X192.43 F1000
N2430G01 Z-3.3
N2440G01 X197.13
N2450G01 Z-4 F500
N2460G01 X274.825 F1000
N2470G01 Z-3.3
N2480G01 X279.525
N2490G01 Z-4 F500
N2500G01 X281.137 F1000
N2510G01 X281.137 Y139.271
N2520G01 Z-3.3
N2530G01 Y143.971
N2540G01 Z-4 F500
N2550G01 Y180.459 F1000
N2560G01 X239.93
N2570G01 Z-3.3
N2580G01 X235.23
N2590G01 Z-4 F500
N2600G01 X157.535 Y180.459 F1000
N2610G01 Z-3.3
N2620G01 X152.835
N2630G01 Z-4 F500
N2640G01 X75.14 Y180.459 F1000
N2650G01 Z-3.3
N2660G01 X70.44
N2670G01 Z-4 F500
N2680G01 X68.827 F1000
N2690G01 Y104.376
N2700G01 Z-3.3
N2710G01 Y99.676
N2720G01 Z-4 F500
N2730G01 Y63.189 F1000
N2740 G00 Z9.999
N2750 G00 X-0.154 Y7.395
N2760G01 Z-4 F500
N2770G01 X-0.285 Y7.415 F1000
N2780G01 X-0.414 Y7.447
N2790G01 X-0.539 Y7.492
N2800G01 X-0.658 Y7.548
N2810G01 X-0.772 Y7.617
N2820G01 X-0.878 Y7.695
N2830G01 X-0.977 Y7.784
N2840G01 X-1.066 Y7.883
N2850G01 X-1.144 Y7.989
N2860G01 X-1.213 Y8.103
N2870G01 X-1.269 Y8.222
N2880G01 X-1.314 Y8.347
N2890G01 X-1.346 Y8.476
N2900G01 X-1.365 Y8.607
N2910G01 X-1.372 Y8.739
N2920G01 X-1.372 Y80.597
N2930G01 Z-3.3
N2940G01 X-1.372 Y85.297
N2950G01 Z-4 F500
N2960G01 X-1.372 Y228.267 F1000
N2970G01 Z-3.3
N2980G01 X-1.372 Y232.967
N2990G01 Z-4 F500
N3000G01 X-1.372 Y245.169 F1000
N3010G01 X-1.365 Y245.301
N3020G01 X-1.346 Y245.432
N3030G01 X-1.314 Y245.561
N3040G01 X-1.269 Y245.686
N3050G01 X-1.213 Y245.805
N3060G01 X-1.144 Y245.919
N3070G01 X-1.066 Y246.025
N3080G01 X-0.977 Y246.124
N3090G01 X-0.878 Y246.213
N3100G01 X-0.772 Y246.291
N3110G01 X-0.658 Y246.36
N3120G01 X-0.539 Y246.416
N3130G01 X-0.414 Y246.461
N3140G01 X-0.285 Y246.493
N3150G01 X-0.154 Y246.512
N3160G01 X-0.022 Y246.519
N3170G01 X128.625
N3180G01 Z-3.3
N3190G01 X133.325
N3200G01 Z-4 F500
N3210G01 X276.295 F1000
N3220G01 Z-3.3
N3230G01 X280.995
N3240G01 Z-4 F500
N3250G01 X349.987 F1000
N3260G01 X350.119 Y246.512
N3270G01 X350.25 Y246.493
N3280G01 X350.379 Y246.461
N3290G01 X350.504 Y246.416
N3300G01 X350.623 Y246.36
N3310G01 X350.737 Y246.291
N3320G01 X350.843 Y246.213
N3330G01 X350.942 Y246.124
N3340G01 X351.031 Y246.025
N3350G01 X351.109 Y245.919
N3360G01 X351.178 Y245.805
N3370G01 X351.234 Y245.686
N3380G01 X351.279 Y245.561
N3390G01 X351.311 Y245.432
N3400G01 X351.33 Y245.301
N3410G01 X351.337 Y245.169
N3420G01 Y173.311
N3430G01 Z-3.3
N3440G01 Y168.611
N3450G01 Z-4 F500
N3460G01 X351.337 Y25.642 F1000
N3470G01 Z-3.3
N3480G01 Y20.942
N3490G01 Z-4 F500
N3500G01 Y8.739 F1000
N3510G01 X351.33 Y8.607
N3520G01 X351.311 Y8.476
N3530G01 X351.279 Y8.347
N3540G01 X351.234 Y8.222
N3550G01 X351.178 Y8.103
N3560G01 X351.109 Y7.989
N3570G01 X351.031 Y7.883
N3580G01 X350.942 Y7.784
N3590G01 X350.843 Y7.695
N3600G01 X350.737 Y7.617
N3610G01 X350.623 Y7.548
N3620G01 X350.504 Y7.492
N3630G01 X350.379 Y7.447
N3640G01 X350.25 Y7.415
N3650G01 X350.119 Y7.395
N3660G01 X349.987 Y7.389
N3670G01 X221.339 Y7.391
N3680G01 Z-3.3
N3690G01 X216.639 Y7.391
N3700G01 Z-4 F500
N3710G01 X73.67 Y7.394 F1000
N3720G01 Z-3.3
N3730G01 X68.97 Y7.394
N3740G01 Z-4 F500
N3750G01 X-0.154 Y7.395 F1000
N3760 G00 Z9.999
N3770 G00 X68.827 Y63.189
N3780G01 Z-4.1 F500
N3790G01 X110.035 F1000
N3800G01 Z-3.3
N3810G01 X114.735
N3820G01 Z-4.1 F500
N3830G01 X192.43 F1000
N3840G01 Z-3.3
N3850G01 X197.13
N3860G01 Z-4.1 F500
N3870G01 X274.825 F1000
N3880G01 Z-3.3
N3890G01 X279.525
N3900G01 Z-4.1 F500
N3910G01 X281.137 F1000
N3920G01 X281.137 Y139.271
N3930G01 Z-3.3
N3940G01 Y143.971
N3950G01 Z-4.1 F500
N3960G01 Y180.459 F1000
N3970G01 X239.93
N3980G01 Z-3.3
N3990G01 X235.23
N4000G01 Z-4.1 F500
N4010G01 X157.535 Y180.459 F1000
N4020G01 Z-3.3
N4030G01 X152.835
N4040G01 Z-4.1 F500
N4050G01 X75.14 Y180.459 F1000
N4060G01 Z-3.3
N4070G01 X70.44
N4080G01 Z-4.1 F500
N4090G01 X68.827 F1000
N4100G01 Y104.376
N4110G01 Z-3.3
N4120G01 Y99.676
N4130G01 Z-4.1 F500
N4140G01 Y63.189 F1000
N4150 G00 Z9.999
N4160 G00 X-0.154 Y7.395
N4170G01 Z-4.1 F500
N4180G01 X-0.285 Y7.415 F1000
N4190G01 X-0.414 Y7.447
N4200G01 X-0.539 Y7.492
N4210G01 X-0.658 Y7.548
N4220G01 X-0.772 Y7.617
N4230G01 X-0.878 Y7.695
N4240G01 X-0.977 Y7.784
N4250G01 X-1.066 Y7.883
N4260G01 X-1.144 Y7.989
N4270G01 X-1.213 Y8.103
N4280G01 X-1.269 Y8.222
N4290G01 X-1.314 Y8.347
N4300G01 X-1.346 Y8.476
N4310G01 X-1.365 Y8.607
N4320G01 X-1.372 Y8.739
N4330G01 X-1.372 Y80.597
N4340G01 Z-3.3
N4350G01 X-1.372 Y85.297
N4360G01 Z-4.1 F500
N4370G01 X-1.372 Y228.267 F1000
N4380G01 Z-3.3
N4390G01 X-1.372 Y232.967
N4400G01 Z-4.1 F500
N4410G01 X-1.372 Y245.169 F1000
N4420G01 X-1.365 Y245.301
N4430G01 X-1.346 Y245.432
N4440G01 X-1.314 Y245.561
N4450G01 X-1.269 Y245.686
N4460G01 X-1.213 Y245.805
N4470G01 X-1.144 Y245.919
N4480G01 X-1.066 Y246.025
N4490G01 X-0.977 Y246.124
N4500G01 X-0.878 Y246.213
N4510G01 X-0.772 Y246.291
N4520G01 X-0.658 Y246.36
N4530G01 X-0.539 Y246.416
N4540G01 X-0.414 Y246.461
N4550G01 X-0.285 Y246.493
N4560G01 X-0.154 Y246.512
N4570G01 X-0.022 Y246.519
N4580G01 X128.625
N4590G01 Z-3.3
N4600G01 X133.325
N4610G01 Z-4.1 F500
N4620G01 X276.295 F1000
N4630G01 Z-3.3
N4640G01 X280.995
N4650G01 Z-4.1 F500
N4660G01 X349.987 F1000
N4670G01 X350.119 Y246.512
N4680G01 X350.25 Y246.493
N4690G01 X350.379 Y246.461
N4700G01 X350.504 Y246.416
N4710G01 X350.623 Y246.36
N4720G01 X350.737 Y246.291
N4730G01 X350.843 Y246.213
N4740G01 X350.942 Y246.124
N4750G01 X351.031 Y246.025
N4760G01 X351.109 Y245.919
N4770G01 X351.178 Y245.805
N4780G01 X351.234 Y245.686
N4790G01 X351.279 Y245.561
N4800G01 X351.311 Y245.432
N4810G01 X351.33 Y245.301
N4820G01 X351.337 Y245.169
N4830G01 Y173.311
N4840G01 Z-3.3
N4850G01 Y168.611
N4860G01 Z-4.1 F500
N4870G01 X351.337 Y25.642 F1000
N4880G01 Z-3.3
N4890G01 Y20.942
N4900G01 Z-4.1 F500
N4910G01 Y8.739 F1000
N4920G01 X351.33 Y8.607
N4930G01 X351.311 Y8.476
N4940G01 X351.279 Y8.347
N4950G01 X351.234 Y8.222
N4960G01 X351.178 Y8.103
N4970G01 X351.109 Y7.989
N4980G01 X351.031 Y7.883
N4990G01 X350.942 Y7.784
N5000G01 X350.843 Y7.695
N5010G01 X350.737 Y7.617
N5020G01 X350.623 Y7.548
N5030G01 X350.504 Y7.492
N5040G01 X350.379 Y7.447
N5050G01 X350.25 Y7.415
N5060G01 X350.119 Y7.395
N5070G01 X349.987 Y7.389
N5080G01 X221.339 Y7.391
N5090G01 Z-3.3
N5100G01 X216.639 Y7.391
N5110G01 Z-4.1 F500
N5120G01 X73.67 Y7.394 F1000
N5130G01 Z-3.3
N5140G01 X68.97 Y7.394
N5150G01 Z-4.1 F500
N5160G01 X-0.154 Y7.395 F1000
N5170 G00 Z9.999
N5180 M02
