(GCode created using the HeeksCNC Mach3 post processor)
(/home/user/git-repos/donation-box/designs/3D/blender/front panel/front-cutout-file.tap)
(G-code generated with BlenderCAM and NC library)
N10 G17 G21 G90
(Tool change)
N20G43H1
N30T1 M06
N40 G00 X0 Y0 Z9.999 S12000 M03
N50 G00 X-1.274 Y-0.024
N60G01 Z-1 F500
N70G01 X-1.321 Y77.011 F1000
N80G01 Z0
N90G01 X-1.375 Y166.175
N100G01 X-1.374 Y338.975
N110G01 X-1.368 Y339.107
N120G01 X-1.349 Y339.238
N130G01 X-1.316 Y339.366
N140G01 X-1.272 Y339.491
N150G01 X-1.215 Y339.611
N160G01 X-1.147 Y339.725
N170G01 X-1.068 Y339.831
N180G01 X-0.979 Y339.929
N190G01 X-0.881 Y340.018
N200G01 X-0.775 Y340.097
N210G01 X-0.661 Y340.165
N220G01 X-0.541 Y340.222
N230G01 X-0.416 Y340.266
N240G01 X-0.288 Y340.299
N250G01 X-0.157 Y340.318
N260G01 X-0.024 Y340.324
N270G01 X349.974
N280G01 X350.107 Y340.318
N290G01 X350.238 Y340.299
N300G01 X350.366 Y340.266
N310G01 X350.491 Y340.222
N320G01 X350.611 Y340.165
N330G01 X350.724 Y340.097
N340G01 X350.831 Y340.018
N350G01 X350.929 Y339.929
N360G01 X351.018 Y339.831
N370G01 X351.097 Y339.725
N380G01 X351.165 Y339.611
N390G01 X351.222 Y339.491
N400G01 X351.266 Y339.366
N410G01 X351.299 Y339.238
N420G01 X351.318 Y339.107
N430G01 X351.325 Y338.975
N440G01 X351.424 Y-0.024
N450G01 X351.418 Y-0.157
N460G01 X351.399 Y-0.288
N470G01 X351.366 Y-0.416
N480G01 X351.322 Y-0.541
N490G01 X351.265 Y-0.661
N500G01 X351.197 Y-0.775
N510G01 X351.118 Y-0.881
N520G01 X351.029 Y-0.979
N530G01 X350.931 Y-1.068
N540G01 X350.824 Y-1.147
N550G01 X350.711 Y-1.215
N560G01 X350.591 Y-1.272
N570G01 X350.466 Y-1.316
N580G01 X350.338 Y-1.349
N590G01 X350.207 Y-1.368
N600G01 X350.074 Y-1.374
N610G01 X0.075 Y-1.374
N620G01 X-0.057 Y-1.368
N630G01 X-0.188 Y-1.349
N640G01 X-0.316 Y-1.316
N650G01 X-0.441 Y-1.272
N660G01 X-0.561 Y-1.215
N670G01 X-0.675 Y-1.147
N680G01 X-0.781 Y-1.068
N690G01 X-0.879 Y-0.979
N700G01 X-0.968 Y-0.881
N710G01 X-1.047 Y-0.775
N720G01 X-1.115 Y-0.661
N730G01 X-1.172 Y-0.541
N740G01 X-1.216 Y-0.416
N750G01 X-1.249 Y-0.288
N760G01 X-1.268 Y-0.157
N770G01 X-1.274 Y-0.024
N780G01 Z-2 F500
N790G01 X-1.321 Y77.011 F1000
N800G01 Z0
N810G01 X-1.375 Y166.175
N820G01 X-1.374 Y338.975
N830G01 X-1.368 Y339.107
N840G01 X-1.349 Y339.238
N850G01 X-1.316 Y339.366
N860G01 X-1.272 Y339.491
N870G01 X-1.215 Y339.611
N880G01 X-1.147 Y339.725
N890G01 X-1.068 Y339.831
N900G01 X-0.979 Y339.929
N910G01 X-0.881 Y340.018
N920G01 X-0.775 Y340.097
N930G01 X-0.661 Y340.165
N940G01 X-0.541 Y340.222
N950G01 X-0.416 Y340.266
N960G01 X-0.288 Y340.299
N970G01 X-0.157 Y340.318
N980G01 X-0.024 Y340.324
N990G01 X349.974
N1000G01 X350.107 Y340.318
N1010G01 X350.238 Y340.299
N1020G01 X350.366 Y340.266
N1030G01 X350.491 Y340.222
N1040G01 X350.611 Y340.165
N1050G01 X350.724 Y340.097
N1060G01 X350.831 Y340.018
N1070G01 X350.929 Y339.929
N1080G01 X351.018 Y339.831
N1090G01 X351.097 Y339.725
N1100G01 X351.165 Y339.611
N1110G01 X351.222 Y339.491
N1120G01 X351.266 Y339.366
N1130G01 X351.299 Y339.238
N1140G01 X351.318 Y339.107
N1150G01 X351.325 Y338.975
N1160G01 X351.424 Y-0.024
N1170G01 X351.418 Y-0.157
N1180G01 X351.399 Y-0.288
N1190G01 X351.366 Y-0.416
N1200G01 X351.322 Y-0.541
N1210G01 X351.265 Y-0.661
N1220G01 X351.197 Y-0.775
N1230G01 X351.118 Y-0.881
N1240G01 X351.029 Y-0.979
N1250G01 X350.931 Y-1.068
N1260G01 X350.824 Y-1.147
N1270G01 X350.711 Y-1.215
N1280G01 X350.591 Y-1.272
N1290G01 X350.466 Y-1.316
N1300G01 X350.338 Y-1.349
N1310G01 X350.207 Y-1.368
N1320G01 X350.074 Y-1.374
N1330G01 X0.075 Y-1.374
N1340G01 X-0.057 Y-1.368
N1350G01 X-0.188 Y-1.349
N1360G01 X-0.316 Y-1.316
N1370G01 X-0.441 Y-1.272
N1380G01 X-0.561 Y-1.215
N1390G01 X-0.675 Y-1.147
N1400G01 X-0.781 Y-1.068
N1410G01 X-0.879 Y-0.979
N1420G01 X-0.968 Y-0.881
N1430G01 X-1.047 Y-0.775
N1440G01 X-1.115 Y-0.661
N1450G01 X-1.172 Y-0.541
N1460G01 X-1.216 Y-0.416
N1470G01 X-1.249 Y-0.288
N1480G01 X-1.268 Y-0.157
N1490G01 X-1.274 Y-0.024
N1500G01 Z-3 F500
N1510G01 X-1.321 Y77.011 F1000
N1520G01 Z0
N1530G01 X-1.375 Y166.175
N1540G01 X-1.374 Y338.975
N1550G01 X-1.368 Y339.107
N1560G01 X-1.349 Y339.238
N1570G01 X-1.316 Y339.366
N1580G01 X-1.272 Y339.491
N1590G01 X-1.215 Y339.611
N1600G01 X-1.147 Y339.725
N1610G01 X-1.068 Y339.831
N1620G01 X-0.979 Y339.929
N1630G01 X-0.881 Y340.018
N1640G01 X-0.775 Y340.097
N1650G01 X-0.661 Y340.165
N1660G01 X-0.541 Y340.222
N1670G01 X-0.416 Y340.266
N1680G01 X-0.288 Y340.299
N1690G01 X-0.157 Y340.318
N1700G01 X-0.024 Y340.324
N1710G01 X349.974
N1720G01 X350.107 Y340.318
N1730G01 X350.238 Y340.299
N1740G01 X350.366 Y340.266
N1750G01 X350.491 Y340.222
N1760G01 X350.611 Y340.165
N1770G01 X350.724 Y340.097
N1780G01 X350.831 Y340.018
N1790G01 X350.929 Y339.929
N1800G01 X351.018 Y339.831
N1810G01 X351.097 Y339.725
N1820G01 X351.165 Y339.611
N1830G01 X351.222 Y339.491
N1840G01 X351.266 Y339.366
N1850G01 X351.299 Y339.238
N1860G01 X351.318 Y339.107
N1870G01 X351.325 Y338.975
N1880G01 X351.424 Y-0.024
N1890G01 X351.418 Y-0.157
N1900G01 X351.399 Y-0.288
N1910G01 X351.366 Y-0.416
N1920G01 X351.322 Y-0.541
N1930G01 X351.265 Y-0.661
N1940G01 X351.197 Y-0.775
N1950G01 X351.118 Y-0.881
N1960G01 X351.029 Y-0.979
N1970G01 X350.931 Y-1.068
N1980G01 X350.824 Y-1.147
N1990G01 X350.711 Y-1.215
N2000G01 X350.591 Y-1.272
N2010G01 X350.466 Y-1.316
N2020G01 X350.338 Y-1.349
N2030G01 X350.207 Y-1.368
N2040G01 X350.074 Y-1.374
N2050G01 X0.075 Y-1.374
N2060G01 X-0.057 Y-1.368
N2070G01 X-0.188 Y-1.349
N2080G01 X-0.316 Y-1.316
N2090G01 X-0.441 Y-1.272
N2100G01 X-0.561 Y-1.215
N2110G01 X-0.675 Y-1.147
N2120G01 X-0.781 Y-1.068
N2130G01 X-0.879 Y-0.979
N2140G01 X-0.968 Y-0.881
N2150G01 X-1.047 Y-0.775
N2160G01 X-1.115 Y-0.661
N2170G01 X-1.172 Y-0.541
N2180G01 X-1.216 Y-0.416
N2190G01 X-1.249 Y-0.288
N2200G01 X-1.268 Y-0.157
N2210G01 X-1.274 Y-0.024
N2220G01 Z-4 F500
N2230G01 X-1.321 Y77.011 F1000
N2240G01 Z0
N2250G01 X-1.375 Y166.175
N2260G01 X-1.374 Y338.975
N2270G01 X-1.368 Y339.107
N2280G01 X-1.349 Y339.238
N2290G01 X-1.316 Y339.366
N2300G01 X-1.272 Y339.491
N2310G01 X-1.215 Y339.611
N2320G01 X-1.147 Y339.725
N2330G01 X-1.068 Y339.831
N2340G01 X-0.979 Y339.929
N2350G01 X-0.881 Y340.018
N2360G01 X-0.775 Y340.097
N2370G01 X-0.661 Y340.165
N2380G01 X-0.541 Y340.222
N2390G01 X-0.416 Y340.266
N2400G01 X-0.288 Y340.299
N2410G01 X-0.157 Y340.318
N2420G01 X-0.024 Y340.324
N2430G01 X349.974
N2440G01 X350.107 Y340.318
N2450G01 X350.238 Y340.299
N2460G01 X350.366 Y340.266
N2470G01 X350.491 Y340.222
N2480G01 X350.611 Y340.165
N2490G01 X350.724 Y340.097
N2500G01 X350.831 Y340.018
N2510G01 X350.929 Y339.929
N2520G01 X351.018 Y339.831
N2530G01 X351.097 Y339.725
N2540G01 X351.165 Y339.611
N2550G01 X351.222 Y339.491
N2560G01 X351.266 Y339.366
N2570G01 X351.299 Y339.238
N2580G01 X351.318 Y339.107
N2590G01 X351.325 Y338.975
N2600G01 X351.424 Y-0.024
N2610G01 X351.418 Y-0.157
N2620G01 X351.399 Y-0.288
N2630G01 X351.366 Y-0.416
N2640G01 X351.322 Y-0.541
N2650G01 X351.265 Y-0.661
N2660G01 X351.197 Y-0.775
N2670G01 X351.118 Y-0.881
N2680G01 X351.029 Y-0.979
N2690G01 X350.931 Y-1.068
N2700G01 X350.824 Y-1.147
N2710G01 X350.711 Y-1.215
N2720G01 X350.591 Y-1.272
N2730G01 X350.466 Y-1.316
N2740G01 X350.338 Y-1.349
N2750G01 X350.207 Y-1.368
N2760G01 X350.074 Y-1.374
N2770G01 X0.075 Y-1.374
N2780G01 X-0.057 Y-1.368
N2790G01 X-0.188 Y-1.349
N2800G01 X-0.316 Y-1.316
N2810G01 X-0.441 Y-1.272
N2820G01 X-0.561 Y-1.215
N2830G01 X-0.675 Y-1.147
N2840G01 X-0.781 Y-1.068
N2850G01 X-0.879 Y-0.979
N2860G01 X-0.968 Y-0.881
N2870G01 X-1.047 Y-0.775
N2880G01 X-1.115 Y-0.661
N2890G01 X-1.172 Y-0.541
N2900G01 X-1.216 Y-0.416
N2910G01 X-1.249 Y-0.288
N2920G01 X-1.268 Y-0.157
N2930G01 X-1.274 Y-0.024
N2940G01 Z-5 F500
N2950G01 X-1.321 Y77.011 F1000
N2960G01 Z0
N2970G01 X-1.375 Y166.175
N2980G01 X-1.374 Y338.975
N2990G01 X-1.368 Y339.107
N3000G01 X-1.349 Y339.238
N3010G01 X-1.316 Y339.366
N3020G01 X-1.272 Y339.491
N3030G01 X-1.215 Y339.611
N3040G01 X-1.147 Y339.725
N3050G01 X-1.068 Y339.831
N3060G01 X-0.979 Y339.929
N3070G01 X-0.881 Y340.018
N3080G01 X-0.775 Y340.097
N3090G01 X-0.661 Y340.165
N3100G01 X-0.541 Y340.222
N3110G01 X-0.416 Y340.266
N3120G01 X-0.288 Y340.299
N3130G01 X-0.157 Y340.318
N3140G01 X-0.024 Y340.324
N3150G01 X349.974
N3160G01 X350.107 Y340.318
N3170G01 X350.238 Y340.299
N3180G01 X350.366 Y340.266
N3190G01 X350.491 Y340.222
N3200G01 X350.611 Y340.165
N3210G01 X350.724 Y340.097
N3220G01 X350.831 Y340.018
N3230G01 X350.929 Y339.929
N3240G01 X351.018 Y339.831
N3250G01 X351.097 Y339.725
N3260G01 X351.165 Y339.611
N3270G01 X351.222 Y339.491
N3280G01 X351.266 Y339.366
N3290G01 X351.299 Y339.238
N3300G01 X351.318 Y339.107
N3310G01 X351.325 Y338.975
N3320G01 X351.424 Y-0.024
N3330G01 X351.418 Y-0.157
N3340G01 X351.399 Y-0.288
N3350G01 X351.366 Y-0.416
N3360G01 X351.322 Y-0.541
N3370G01 X351.265 Y-0.661
N3380G01 X351.197 Y-0.775
N3390G01 X351.118 Y-0.881
N3400G01 X351.029 Y-0.979
N3410G01 X350.931 Y-1.068
N3420G01 X350.824 Y-1.147
N3430G01 X350.711 Y-1.215
N3440G01 X350.591 Y-1.272
N3450G01 X350.466 Y-1.316
N3460G01 X350.338 Y-1.349
N3470G01 X350.207 Y-1.368
N3480G01 X350.074 Y-1.374
N3490G01 X0.075 Y-1.374
N3500G01 X-0.057 Y-1.368
N3510G01 X-0.188 Y-1.349
N3520G01 X-0.316 Y-1.316
N3530G01 X-0.441 Y-1.272
N3540G01 X-0.561 Y-1.215
N3550G01 X-0.675 Y-1.147
N3560G01 X-0.781 Y-1.068
N3570G01 X-0.879 Y-0.979
N3580G01 X-0.968 Y-0.881
N3590G01 X-1.047 Y-0.775
N3600G01 X-1.115 Y-0.661
N3610G01 X-1.172 Y-0.541
N3620G01 X-1.216 Y-0.416
N3630G01 X-1.249 Y-0.288
N3640G01 X-1.268 Y-0.157
N3650G01 X-1.274 Y-0.024
N3660G01 Z-6 F500
N3670G01 X-1.321 Y77.011 F1000
N3680G01 Z0
N3690G01 X-1.375 Y166.175
N3700G01 X-1.374 Y338.975
N3710G01 X-1.368 Y339.107
N3720G01 X-1.349 Y339.238
N3730G01 X-1.316 Y339.366
N3740G01 X-1.272 Y339.491
N3750G01 X-1.215 Y339.611
N3760G01 X-1.147 Y339.725
N3770G01 X-1.068 Y339.831
N3780G01 X-0.979 Y339.929
N3790G01 X-0.881 Y340.018
N3800G01 X-0.775 Y340.097
N3810G01 X-0.661 Y340.165
N3820G01 X-0.541 Y340.222
N3830G01 X-0.416 Y340.266
N3840G01 X-0.288 Y340.299
N3850G01 X-0.157 Y340.318
N3860G01 X-0.024 Y340.324
N3870G01 X349.974
N3880G01 X350.107 Y340.318
N3890G01 X350.238 Y340.299
N3900G01 X350.366 Y340.266
N3910G01 X350.491 Y340.222
N3920G01 X350.611 Y340.165
N3930G01 X350.724 Y340.097
N3940G01 X350.831 Y340.018
N3950G01 X350.929 Y339.929
N3960G01 X351.018 Y339.831
N3970G01 X351.097 Y339.725
N3980G01 X351.165 Y339.611
N3990G01 X351.222 Y339.491
N4000G01 X351.266 Y339.366
N4010G01 X351.299 Y339.238
N4020G01 X351.318 Y339.107
N4030G01 X351.325 Y338.975
N4040G01 X351.424 Y-0.024
N4050G01 X351.418 Y-0.157
N4060G01 X351.399 Y-0.288
N4070G01 X351.366 Y-0.416
N4080G01 X351.322 Y-0.541
N4090G01 X351.265 Y-0.661
N4100G01 X351.197 Y-0.775
N4110G01 X351.118 Y-0.881
N4120G01 X351.029 Y-0.979
N4130G01 X350.931 Y-1.068
N4140G01 X350.824 Y-1.147
N4150G01 X350.711 Y-1.215
N4160G01 X350.591 Y-1.272
N4170G01 X350.466 Y-1.316
N4180G01 X350.338 Y-1.349
N4190G01 X350.207 Y-1.368
N4200G01 X350.074 Y-1.374
N4210G01 X0.075 Y-1.374
N4220G01 X-0.057 Y-1.368
N4230G01 X-0.188 Y-1.349
N4240G01 X-0.316 Y-1.316
N4250G01 X-0.441 Y-1.272
N4260G01 X-0.561 Y-1.215
N4270G01 X-0.675 Y-1.147
N4280G01 X-0.781 Y-1.068
N4290G01 X-0.879 Y-0.979
N4300G01 X-0.968 Y-0.881
N4310G01 X-1.047 Y-0.775
N4320G01 X-1.115 Y-0.661
N4330G01 X-1.172 Y-0.541
N4340G01 X-1.216 Y-0.416
N4350G01 X-1.249 Y-0.288
N4360G01 X-1.268 Y-0.157
N4370G01 X-1.274 Y-0.024
N4380G01 Z-7 F500
N4390G01 X-1.321 Y77.011 F1000
N4400G01 Z0
N4410G01 X-1.375 Y166.175
N4420G01 X-1.374 Y338.975
N4430G01 X-1.368 Y339.107
N4440G01 X-1.349 Y339.238
N4450G01 X-1.316 Y339.366
N4460G01 X-1.272 Y339.491
N4470G01 X-1.215 Y339.611
N4480G01 X-1.147 Y339.725
N4490G01 X-1.068 Y339.831
N4500G01 X-0.979 Y339.929
N4510G01 X-0.881 Y340.018
N4520G01 X-0.775 Y340.097
N4530G01 X-0.661 Y340.165
N4540G01 X-0.541 Y340.222
N4550G01 X-0.416 Y340.266
N4560G01 X-0.288 Y340.299
N4570G01 X-0.157 Y340.318
N4580G01 X-0.024 Y340.324
N4590G01 X349.974
N4600G01 X350.107 Y340.318
N4610G01 X350.238 Y340.299
N4620G01 X350.366 Y340.266
N4630G01 X350.491 Y340.222
N4640G01 X350.611 Y340.165
N4650G01 X350.724 Y340.097
N4660G01 X350.831 Y340.018
N4670G01 X350.929 Y339.929
N4680G01 X351.018 Y339.831
N4690G01 X351.097 Y339.725
N4700G01 X351.165 Y339.611
N4710G01 X351.222 Y339.491
N4720G01 X351.266 Y339.366
N4730G01 X351.299 Y339.238
N4740G01 X351.318 Y339.107
N4750G01 X351.325 Y338.975
N4760G01 X351.424 Y-0.024
N4770G01 X351.418 Y-0.157
N4780G01 X351.399 Y-0.288
N4790G01 X351.366 Y-0.416
N4800G01 X351.322 Y-0.541
N4810G01 X351.265 Y-0.661
N4820G01 X351.197 Y-0.775
N4830G01 X351.118 Y-0.881
N4840G01 X351.029 Y-0.979
N4850G01 X350.931 Y-1.068
N4860G01 X350.824 Y-1.147
N4870G01 X350.711 Y-1.215
N4880G01 X350.591 Y-1.272
N4890G01 X350.466 Y-1.316
N4900G01 X350.338 Y-1.349
N4910G01 X350.207 Y-1.368
N4920G01 X350.074 Y-1.374
N4930G01 X0.075 Y-1.374
N4940G01 X-0.057 Y-1.368
N4950G01 X-0.188 Y-1.349
N4960G01 X-0.316 Y-1.316
N4970G01 X-0.441 Y-1.272
N4980G01 X-0.561 Y-1.215
N4990G01 X-0.675 Y-1.147
N5000G01 X-0.781 Y-1.068
N5010G01 X-0.879 Y-0.979
N5020G01 X-0.968 Y-0.881
N5030G01 X-1.047 Y-0.775
N5040G01 X-1.115 Y-0.661
N5050G01 X-1.172 Y-0.541
N5060G01 X-1.216 Y-0.416
N5070G01 X-1.249 Y-0.288
N5080G01 X-1.268 Y-0.157
N5090G01 X-1.274 Y-0.024
N5100G01 Z-8 F500
N5110G01 X-1.321 Y77.011 F1000
N5120G01 Z0
N5130G01 X-1.375 Y166.175
N5140G01 X-1.374 Y338.975
N5150G01 X-1.368 Y339.107
N5160G01 X-1.349 Y339.238
N5170G01 X-1.316 Y339.366
N5180G01 X-1.272 Y339.491
N5190G01 X-1.215 Y339.611
N5200G01 X-1.147 Y339.725
N5210G01 X-1.068 Y339.831
N5220G01 X-0.979 Y339.929
N5230G01 X-0.881 Y340.018
N5240G01 X-0.775 Y340.097
N5250G01 X-0.661 Y340.165
N5260G01 X-0.541 Y340.222
N5270G01 X-0.416 Y340.266
N5280G01 X-0.288 Y340.299
N5290G01 X-0.157 Y340.318
N5300G01 X-0.024 Y340.324
N5310G01 X349.974
N5320G01 X350.107 Y340.318
N5330G01 X350.238 Y340.299
N5340G01 X350.366 Y340.266
N5350G01 X350.491 Y340.222
N5360G01 X350.611 Y340.165
N5370G01 X350.724 Y340.097
N5380G01 X350.831 Y340.018
N5390G01 X350.929 Y339.929
N5400G01 X351.018 Y339.831
N5410G01 X351.097 Y339.725
N5420G01 X351.165 Y339.611
N5430G01 X351.222 Y339.491
N5440G01 X351.266 Y339.366
N5450G01 X351.299 Y339.238
N5460G01 X351.318 Y339.107
N5470G01 X351.325 Y338.975
N5480G01 X351.424 Y-0.024
N5490G01 X351.418 Y-0.157
N5500G01 X351.399 Y-0.288
N5510G01 X351.366 Y-0.416
N5520G01 X351.322 Y-0.541
N5530G01 X351.265 Y-0.661
N5540G01 X351.197 Y-0.775
N5550G01 X351.118 Y-0.881
N5560G01 X351.029 Y-0.979
N5570G01 X350.931 Y-1.068
N5580G01 X350.824 Y-1.147
N5590G01 X350.711 Y-1.215
N5600G01 X350.591 Y-1.272
N5610G01 X350.466 Y-1.316
N5620G01 X350.338 Y-1.349
N5630G01 X350.207 Y-1.368
N5640G01 X350.074 Y-1.374
N5650G01 X0.075 Y-1.374
N5660G01 X-0.057 Y-1.368
N5670G01 X-0.188 Y-1.349
N5680G01 X-0.316 Y-1.316
N5690G01 X-0.441 Y-1.272
N5700G01 X-0.561 Y-1.215
N5710G01 X-0.675 Y-1.147
N5720G01 X-0.781 Y-1.068
N5730G01 X-0.879 Y-0.979
N5740G01 X-0.968 Y-0.881
N5750G01 X-1.047 Y-0.775
N5760G01 X-1.115 Y-0.661
N5770G01 X-1.172 Y-0.541
N5780G01 X-1.216 Y-0.416
N5790G01 X-1.249 Y-0.288
N5800G01 X-1.268 Y-0.157
N5810G01 X-1.274 Y-0.024
N5820G01 Z-8.5 F500
N5830G01 X-1.321 Y77.011 F1000
N5840G01 Z0
N5850G01 X-1.375 Y166.175
N5860G01 X-1.374 Y338.975
N5870G01 X-1.368 Y339.107
N5880G01 X-1.349 Y339.238
N5890G01 X-1.316 Y339.366
N5900G01 X-1.272 Y339.491
N5910G01 X-1.215 Y339.611
N5920G01 X-1.147 Y339.725
N5930G01 X-1.068 Y339.831
N5940G01 X-0.979 Y339.929
N5950G01 X-0.881 Y340.018
N5960G01 X-0.775 Y340.097
N5970G01 X-0.661 Y340.165
N5980G01 X-0.541 Y340.222
N5990G01 X-0.416 Y340.266
N6000G01 X-0.288 Y340.299
N6010G01 X-0.157 Y340.318
N6020G01 X-0.024 Y340.324
N6030G01 X349.974
N6040G01 X350.107 Y340.318
N6050G01 X350.238 Y340.299
N6060G01 X350.366 Y340.266
N6070G01 X350.491 Y340.222
N6080G01 X350.611 Y340.165
N6090G01 X350.724 Y340.097
N6100G01 X350.831 Y340.018
N6110G01 X350.929 Y339.929
N6120G01 X351.018 Y339.831
N6130G01 X351.097 Y339.725
N6140G01 X351.165 Y339.611
N6150G01 X351.222 Y339.491
N6160G01 X351.266 Y339.366
N6170G01 X351.299 Y339.238
N6180G01 X351.318 Y339.107
N6190G01 X351.325 Y338.975
N6200G01 X351.424 Y-0.024
N6210G01 X351.418 Y-0.157
N6220G01 X351.399 Y-0.288
N6230G01 X351.366 Y-0.416
N6240G01 X351.322 Y-0.541
N6250G01 X351.265 Y-0.661
N6260G01 X351.197 Y-0.775
N6270G01 X351.118 Y-0.881
N6280G01 X351.029 Y-0.979
N6290G01 X350.931 Y-1.068
N6300G01 X350.824 Y-1.147
N6310G01 X350.711 Y-1.215
N6320G01 X350.591 Y-1.272
N6330G01 X350.466 Y-1.316
N6340G01 X350.338 Y-1.349
N6350G01 X350.207 Y-1.368
N6360G01 X350.074 Y-1.374
N6370G01 X0.075 Y-1.374
N6380G01 X-0.057 Y-1.368
N6390G01 X-0.188 Y-1.349
N6400G01 X-0.316 Y-1.316
N6410G01 X-0.441 Y-1.272
N6420G01 X-0.561 Y-1.215
N6430G01 X-0.675 Y-1.147
N6440G01 X-0.781 Y-1.068
N6450G01 X-0.879 Y-0.979
N6460G01 X-0.968 Y-0.881
N6470G01 X-1.047 Y-0.775
N6480G01 X-1.115 Y-0.661
N6490G01 X-1.172 Y-0.541
N6500G01 X-1.216 Y-0.416
N6510G01 X-1.249 Y-0.288
N6520G01 X-1.268 Y-0.157
N6530G01 X-1.274 Y-0.024
N6540 G00 Z9.999
N6550 M02
