(GCode created using the HeeksCNC Mach3 post processor)
(/home/user/git-repos/donation-box/designs/3D/blender/front panel/front-slope-file.tap)
(G-code generated with BlenderCAM and NC library)
N10 G17 G21 G90
(Tool change)
N20G43H1
N30T1 M06
N40 G00 X0 Y0 Z9.999 S12000 M03
N50 G00 X350 Y0.481
N60G01 Z-1.099 F500
N70G01 X0.195 Y0.481 F1000
N80 G00 Z9.999
N90 G00 X350 Y1.481
N100G01 Z-1.099 F500
N110G01 X0.195 Y1.481 F1000
N120 G00 Z9.999
N130 G00 X350 Y2.481
N140G01 Z-1.099 F500
N150G01 X0.195 Y2.481 F1000
N160 G00 Z9.999
N170 G00 X350 Y3.481
N180G01 Z-1.099 F500
N190G01 X0.195 Y3.481 F1000
N200 G00 Z9.999
N210 G00 X350 Y4.481
N220G01 Z-1.099 F500
N230G01 X0.195 F1000
N240 G00 Z9.999
N250 G00 X350 Y5.481
N260G01 Z-1.099 F500
N270G01 X0.195 F1000
N280 G00 Z9.999
N290 G00 X350 Y6.481
N300G01 Z-0.689 F500
N310G01 X0.195 Z-0.689 F1000
N320 G00 Z9.999
N330 G00 X350 Y0.481
N340G01 Z-2.1 F500
N350G01 X0.195 Y0.481 F1000
N360 G00 Z9.999
N370 G00 X350 Y1.481
N380G01 Z-2.1 F500
N390G01 X0.195 Y1.481 F1000
N400 G00 Z9.999
N410 G00 X350 Y2.481
N420G01 Z-2.1 F500
N430G01 X0.195 Y2.481 F1000
N440 G00 Z9.999
N450 G00 X350 Y3.481
N460G01 Z-2.1 F500
N470G01 X0.195 Y3.481 F1000
N480 G00 Z9.999
N490 G00 X350 Y4.481
N500G01 Z-2.1 F500
N510G01 X0.195 F1000
N520 G00 Z9.999
N530 G00 X350 Y5.481
N540G01 Z-1.69 F500
N550G01 X0.195 Z-1.69 F1000
N560 G00 Z9.999
N570 G00 X350 Y0.481
N580G01 Z-3.1 F500
N590G01 X0.195 Y0.481 F1000
N600 G00 Z9.999
N610 G00 X350 Y1.481
N620G01 Z-3.1 F500
N630G01 X0.195 Y1.481 F1000
N640 G00 Z9.999
N650 G00 X350 Y2.481
N660G01 Z-3.1 F500
N670G01 X0.195 Y2.481 F1000
N680 G00 Z9.999
N690 G00 X350 Y3.481
N700G01 Z-3.1 F500
N710G01 X0.195 Y3.481 F1000
N720 G00 Z9.999
N730 G00 X350 Y4.481
N740G01 Z-2.69 F500
N750G01 X0.195 Z-2.69 F1000
N760 G00 Z9.999
N770 G00 X350 Y0.481
N780G01 Z-4.1 F500
N790G01 X0.195 Y0.481 F1000
N800 G00 Z9.999
N810 G00 X350 Y1.481
N820G01 Z-4.1 F500
N830G01 X0.195 Y1.481 F1000
N840 G00 Z9.999
N850 G00 X350 Y2.481
N860G01 Z-4.1 F500
N870G01 X0.195 Y2.481 F1000
N880 G00 Z9.999
N890 G00 X350 Y3.481
N900G01 Z-3.69 F500
N910G01 X0.195 Y3.481 Z-3.691 F1000
N920 G00 Z9.999
N930 G00 X350 Y0.481
N940G01 Z-5.1 F500
N950G01 X0.195 Y0.481 F1000
N960 G00 Z9.999
N970 G00 X350 Y1.481
N980G01 Z-5.1 F500
N990G01 X0.195 Y1.481 F1000
N1000 G00 Z9.999
N1010 G00 X350 Y2.481
N1020G01 Z-4.691 F500
N1030G01 X191.197 Y2.481 Z-4.69 F1000
N1040G01 X0.195 Y2.481 Z-4.692
N1050 G00 Z9.999
N1060 G00 X350 Y0.481
N1070G01 Z-6.1 F500
N1080G01 X0.195 Y0.481 F1000
N1090 G00 Z9.999
N1100 G00 X350 Y1.481
N1110G01 Z-5.691 F500
N1120G01 X0.195 Y1.481 Z-5.691 F1000
N1130 G00 Z9.999
N1140 G00 X350 Y0.481
N1150G01 Z-6.691 F500
N1160G01 X273.399 Y0.481 Z-6.691 F1000
N1170G01 X0.195 Y0.481 Z-6.692
N1180 G00 Z9.999
N1190 M02
