(GCode created using the HeeksCNC Mach3 post processor)
(/home/user/git-repos/donation-box/designs/3D/blender/front panel/front-cutout-file.tap)
(G-code generated with BlenderCAM and NC library)
N10 G17 G21 G90
(Tool change)
N20G43H1
N30T1 M06
N40 G00 X0 Y0 Z9.999 S12000 M03
N50 G00 X-0.024 Y-1.374
N60G01 Z-1 F500
N70G01 X-0.157 Y-1.368 F1000
N80G01 X-0.288 Y-1.348
N90G01 X-0.416 Y-1.316
N100G01 X-0.541 Y-1.271
N110G01 X-0.661 Y-1.215
N120G01 X-0.774 Y-1.147
N130G01 X-0.881 Y-1.068
N140G01 X-0.979 Y-0.979
N150G01 X-1.068 Y-0.881
N160G01 X-1.147 Y-0.774
N170G01 X-1.215 Y-0.661
N180G01 X-1.271 Y-0.541
N190G01 X-1.316 Y-0.416
N200G01 X-1.348 Y-0.288
N210G01 X-1.368 Y-0.157
N220G01 X-1.374 Y-0.024
N230G01 X-1.368 Y339.083
N240G01 X-1.348 Y339.214
N250G01 X-1.316 Y339.343
N260G01 X-1.271 Y339.467
N270G01 X-1.215 Y339.587
N280G01 X-1.147 Y339.701
N290G01 X-1.068 Y339.807
N300G01 X-0.979 Y339.905
N310G01 X-0.881 Y339.994
N320G01 X-0.774 Y340.073
N330G01 X-0.661 Y340.141
N340G01 X-0.541 Y340.198
N350G01 X-0.416 Y340.243
N360G01 X-0.288 Y340.275
N370G01 X-0.157 Y340.294
N380G01 X-0.024 Y340.301
N390G01 X350.039
N400G01 X350.171 Y340.294
N410G01 X350.302 Y340.275
N420G01 X350.431 Y340.243
N430G01 X350.555 Y340.198
N440G01 X350.675 Y340.141
N450G01 X350.789 Y340.073
N460G01 X350.895 Y339.994
N470G01 X350.993 Y339.905
N480G01 X351.082 Y339.807
N490G01 X351.161 Y339.701
N500G01 X351.229 Y339.587
N510G01 X351.286 Y339.467
N520G01 X351.331 Y339.343
N530G01 X351.363 Y339.214
N540G01 X351.382 Y339.083
N550G01 X351.389 Y338.951
N560G01 X351.382 Y-0.157
N570G01 X351.363 Y-0.288
N580G01 X351.331 Y-0.416
N590G01 X351.286 Y-0.541
N600G01 X351.229 Y-0.661
N610G01 X351.161 Y-0.774
N620G01 X351.082 Y-0.881
N630G01 X350.993 Y-0.979
N640G01 X350.895 Y-1.068
N650G01 X350.789 Y-1.147
N660G01 X350.675 Y-1.215
N670G01 X350.555 Y-1.271
N680G01 X350.431 Y-1.316
N690G01 X350.302 Y-1.348
N700G01 X350.171 Y-1.368
N710G01 X350.039 Y-1.374
N720G01 X-0.024
N730G01 Z-2 F500
N740G01 X-0.157 Y-1.368 F1000
N750G01 X-0.288 Y-1.348
N760G01 X-0.416 Y-1.316
N770G01 X-0.541 Y-1.271
N780G01 X-0.661 Y-1.215
N790G01 X-0.774 Y-1.147
N800G01 X-0.881 Y-1.068
N810G01 X-0.979 Y-0.979
N820G01 X-1.068 Y-0.881
N830G01 X-1.147 Y-0.774
N840G01 X-1.215 Y-0.661
N850G01 X-1.271 Y-0.541
N860G01 X-1.316 Y-0.416
N870G01 X-1.348 Y-0.288
N880G01 X-1.368 Y-0.157
N890G01 X-1.374 Y-0.024
N900G01 X-1.368 Y339.083
N910G01 X-1.348 Y339.214
N920G01 X-1.316 Y339.343
N930G01 X-1.271 Y339.467
N940G01 X-1.215 Y339.587
N950G01 X-1.147 Y339.701
N960G01 X-1.068 Y339.807
N970G01 X-0.979 Y339.905
N980G01 X-0.881 Y339.994
N990G01 X-0.774 Y340.073
N1000G01 X-0.661 Y340.141
N1010G01 X-0.541 Y340.198
N1020G01 X-0.416 Y340.243
N1030G01 X-0.288 Y340.275
N1040G01 X-0.157 Y340.294
N1050G01 X-0.024 Y340.301
N1060G01 X350.039
N1070G01 X350.171 Y340.294
N1080G01 X350.302 Y340.275
N1090G01 X350.431 Y340.243
N1100G01 X350.555 Y340.198
N1110G01 X350.675 Y340.141
N1120G01 X350.789 Y340.073
N1130G01 X350.895 Y339.994
N1140G01 X350.993 Y339.905
N1150G01 X351.082 Y339.807
N1160G01 X351.161 Y339.701
N1170G01 X351.229 Y339.587
N1180G01 X351.286 Y339.467
N1190G01 X351.331 Y339.343
N1200G01 X351.363 Y339.214
N1210G01 X351.382 Y339.083
N1220G01 X351.389 Y338.951
N1230G01 X351.382 Y-0.157
N1240G01 X351.363 Y-0.288
N1250G01 X351.331 Y-0.416
N1260G01 X351.286 Y-0.541
N1270G01 X351.229 Y-0.661
N1280G01 X351.161 Y-0.774
N1290G01 X351.082 Y-0.881
N1300G01 X350.993 Y-0.979
N1310G01 X350.895 Y-1.068
N1320G01 X350.789 Y-1.147
N1330G01 X350.675 Y-1.215
N1340G01 X350.555 Y-1.271
N1350G01 X350.431 Y-1.316
N1360G01 X350.302 Y-1.348
N1370G01 X350.171 Y-1.368
N1380G01 X350.039 Y-1.374
N1390G01 X-0.024
N1400G01 Z-3 F500
N1410G01 X-0.157 Y-1.368 F1000
N1420G01 X-0.288 Y-1.348
N1430G01 X-0.416 Y-1.316
N1440G01 X-0.541 Y-1.271
N1450G01 X-0.661 Y-1.215
N1460G01 X-0.774 Y-1.147
N1470G01 X-0.881 Y-1.068
N1480G01 X-0.979 Y-0.979
N1490G01 X-1.068 Y-0.881
N1500G01 X-1.147 Y-0.774
N1510G01 X-1.215 Y-0.661
N1520G01 X-1.271 Y-0.541
N1530G01 X-1.316 Y-0.416
N1540G01 X-1.348 Y-0.288
N1550G01 X-1.368 Y-0.157
N1560G01 X-1.374 Y-0.024
N1570G01 X-1.368 Y339.083
N1580G01 X-1.348 Y339.214
N1590G01 X-1.316 Y339.343
N1600G01 X-1.271 Y339.467
N1610G01 X-1.215 Y339.587
N1620G01 X-1.147 Y339.701
N1630G01 X-1.068 Y339.807
N1640G01 X-0.979 Y339.905
N1650G01 X-0.881 Y339.994
N1660G01 X-0.774 Y340.073
N1670G01 X-0.661 Y340.141
N1680G01 X-0.541 Y340.198
N1690G01 X-0.416 Y340.243
N1700G01 X-0.288 Y340.275
N1710G01 X-0.157 Y340.294
N1720G01 X-0.024 Y340.301
N1730G01 X350.039
N1740G01 X350.171 Y340.294
N1750G01 X350.302 Y340.275
N1760G01 X350.431 Y340.243
N1770G01 X350.555 Y340.198
N1780G01 X350.675 Y340.141
N1790G01 X350.789 Y340.073
N1800G01 X350.895 Y339.994
N1810G01 X350.993 Y339.905
N1820G01 X351.082 Y339.807
N1830G01 X351.161 Y339.701
N1840G01 X351.229 Y339.587
N1850G01 X351.286 Y339.467
N1860G01 X351.331 Y339.343
N1870G01 X351.363 Y339.214
N1880G01 X351.382 Y339.083
N1890G01 X351.389 Y338.951
N1900G01 X351.382 Y-0.157
N1910G01 X351.363 Y-0.288
N1920G01 X351.331 Y-0.416
N1930G01 X351.286 Y-0.541
N1940G01 X351.229 Y-0.661
N1950G01 X351.161 Y-0.774
N1960G01 X351.082 Y-0.881
N1970G01 X350.993 Y-0.979
N1980G01 X350.895 Y-1.068
N1990G01 X350.789 Y-1.147
N2000G01 X350.675 Y-1.215
N2010G01 X350.555 Y-1.271
N2020G01 X350.431 Y-1.316
N2030G01 X350.302 Y-1.348
N2040G01 X350.171 Y-1.368
N2050G01 X350.039 Y-1.374
N2060G01 X-0.024
N2070G01 Z-4 F500
N2080G01 X-0.157 Y-1.368 F1000
N2090G01 X-0.288 Y-1.348
N2100G01 X-0.416 Y-1.316
N2110G01 X-0.541 Y-1.271
N2120G01 X-0.661 Y-1.215
N2130G01 X-0.774 Y-1.147
N2140G01 X-0.881 Y-1.068
N2150G01 X-0.979 Y-0.979
N2160G01 X-1.068 Y-0.881
N2170G01 X-1.147 Y-0.774
N2180G01 X-1.215 Y-0.661
N2190G01 X-1.271 Y-0.541
N2200G01 X-1.316 Y-0.416
N2210G01 X-1.348 Y-0.288
N2220G01 X-1.368 Y-0.157
N2230G01 X-1.374 Y-0.024
N2240G01 X-1.368 Y339.083
N2250G01 X-1.348 Y339.214
N2260G01 X-1.316 Y339.343
N2270G01 X-1.271 Y339.467
N2280G01 X-1.215 Y339.587
N2290G01 X-1.147 Y339.701
N2300G01 X-1.068 Y339.807
N2310G01 X-0.979 Y339.905
N2320G01 X-0.881 Y339.994
N2330G01 X-0.774 Y340.073
N2340G01 X-0.661 Y340.141
N2350G01 X-0.541 Y340.198
N2360G01 X-0.416 Y340.243
N2370G01 X-0.288 Y340.275
N2380G01 X-0.157 Y340.294
N2390G01 X-0.024 Y340.301
N2400G01 X350.039
N2410G01 X350.171 Y340.294
N2420G01 X350.302 Y340.275
N2430G01 X350.431 Y340.243
N2440G01 X350.555 Y340.198
N2450G01 X350.675 Y340.141
N2460G01 X350.789 Y340.073
N2470G01 X350.895 Y339.994
N2480G01 X350.993 Y339.905
N2490G01 X351.082 Y339.807
N2500G01 X351.161 Y339.701
N2510G01 X351.229 Y339.587
N2520G01 X351.286 Y339.467
N2530G01 X351.331 Y339.343
N2540G01 X351.363 Y339.214
N2550G01 X351.382 Y339.083
N2560G01 X351.389 Y338.951
N2570G01 X351.382 Y-0.157
N2580G01 X351.363 Y-0.288
N2590G01 X351.331 Y-0.416
N2600G01 X351.286 Y-0.541
N2610G01 X351.229 Y-0.661
N2620G01 X351.161 Y-0.774
N2630G01 X351.082 Y-0.881
N2640G01 X350.993 Y-0.979
N2650G01 X350.895 Y-1.068
N2660G01 X350.789 Y-1.147
N2670G01 X350.675 Y-1.215
N2680G01 X350.555 Y-1.271
N2690G01 X350.431 Y-1.316
N2700G01 X350.302 Y-1.348
N2710G01 X350.171 Y-1.368
N2720G01 X350.039 Y-1.374
N2730G01 X-0.024
N2740G01 Z-5 F500
N2750G01 X-0.157 Y-1.368 F1000
N2760G01 X-0.288 Y-1.348
N2770G01 X-0.416 Y-1.316
N2780G01 X-0.541 Y-1.271
N2790G01 X-0.661 Y-1.215
N2800G01 X-0.774 Y-1.147
N2810G01 X-0.881 Y-1.068
N2820G01 X-0.979 Y-0.979
N2830G01 X-1.068 Y-0.881
N2840G01 X-1.147 Y-0.774
N2850G01 X-1.215 Y-0.661
N2860G01 X-1.271 Y-0.541
N2870G01 X-1.316 Y-0.416
N2880G01 X-1.348 Y-0.288
N2890G01 X-1.368 Y-0.157
N2900G01 X-1.374 Y-0.024
N2910G01 X-1.368 Y339.083
N2920G01 X-1.348 Y339.214
N2930G01 X-1.316 Y339.343
N2940G01 X-1.271 Y339.467
N2950G01 X-1.215 Y339.587
N2960G01 X-1.147 Y339.701
N2970G01 X-1.068 Y339.807
N2980G01 X-0.979 Y339.905
N2990G01 X-0.881 Y339.994
N3000G01 X-0.774 Y340.073
N3010G01 X-0.661 Y340.141
N3020G01 X-0.541 Y340.198
N3030G01 X-0.416 Y340.243
N3040G01 X-0.288 Y340.275
N3050G01 X-0.157 Y340.294
N3060G01 X-0.024 Y340.301
N3070G01 X350.039
N3080G01 X350.171 Y340.294
N3090G01 X350.302 Y340.275
N3100G01 X350.431 Y340.243
N3110G01 X350.555 Y340.198
N3120G01 X350.675 Y340.141
N3130G01 X350.789 Y340.073
N3140G01 X350.895 Y339.994
N3150G01 X350.993 Y339.905
N3160G01 X351.082 Y339.807
N3170G01 X351.161 Y339.701
N3180G01 X351.229 Y339.587
N3190G01 X351.286 Y339.467
N3200G01 X351.331 Y339.343
N3210G01 X351.363 Y339.214
N3220G01 X351.382 Y339.083
N3230G01 X351.389 Y338.951
N3240G01 X351.382 Y-0.157
N3250G01 X351.363 Y-0.288
N3260G01 X351.331 Y-0.416
N3270G01 X351.286 Y-0.541
N3280G01 X351.229 Y-0.661
N3290G01 X351.161 Y-0.774
N3300G01 X351.082 Y-0.881
N3310G01 X350.993 Y-0.979
N3320G01 X350.895 Y-1.068
N3330G01 X350.789 Y-1.147
N3340G01 X350.675 Y-1.215
N3350G01 X350.555 Y-1.271
N3360G01 X350.431 Y-1.316
N3370G01 X350.302 Y-1.348
N3380G01 X350.171 Y-1.368
N3390G01 X350.039 Y-1.374
N3400G01 X-0.024
N3410G01 Z-6 F500
N3420G01 X-0.157 Y-1.368 F1000
N3430G01 X-0.288 Y-1.348
N3440G01 X-0.416 Y-1.316
N3450G01 X-0.541 Y-1.271
N3460G01 X-0.661 Y-1.215
N3470G01 X-0.774 Y-1.147
N3480G01 X-0.881 Y-1.068
N3490G01 X-0.979 Y-0.979
N3500G01 X-1.068 Y-0.881
N3510G01 X-1.147 Y-0.774
N3520G01 X-1.215 Y-0.661
N3530G01 X-1.271 Y-0.541
N3540G01 X-1.316 Y-0.416
N3550G01 X-1.348 Y-0.288
N3560G01 X-1.368 Y-0.157
N3570G01 X-1.374 Y-0.024
N3580G01 X-1.368 Y339.083
N3590G01 X-1.348 Y339.214
N3600G01 X-1.316 Y339.343
N3610G01 X-1.271 Y339.467
N3620G01 X-1.215 Y339.587
N3630G01 X-1.147 Y339.701
N3640G01 X-1.068 Y339.807
N3650G01 X-0.979 Y339.905
N3660G01 X-0.881 Y339.994
N3670G01 X-0.774 Y340.073
N3680G01 X-0.661 Y340.141
N3690G01 X-0.541 Y340.198
N3700G01 X-0.416 Y340.243
N3710G01 X-0.288 Y340.275
N3720G01 X-0.157 Y340.294
N3730G01 X-0.024 Y340.301
N3740G01 X350.039
N3750G01 X350.171 Y340.294
N3760G01 X350.302 Y340.275
N3770G01 X350.431 Y340.243
N3780G01 X350.555 Y340.198
N3790G01 X350.675 Y340.141
N3800G01 X350.789 Y340.073
N3810G01 X350.895 Y339.994
N3820G01 X350.993 Y339.905
N3830G01 X351.082 Y339.807
N3840G01 X351.161 Y339.701
N3850G01 X351.229 Y339.587
N3860G01 X351.286 Y339.467
N3870G01 X351.331 Y339.343
N3880G01 X351.363 Y339.214
N3890G01 X351.382 Y339.083
N3900G01 X351.389 Y338.951
N3910G01 X351.382 Y-0.157
N3920G01 X351.363 Y-0.288
N3930G01 X351.331 Y-0.416
N3940G01 X351.286 Y-0.541
N3950G01 X351.229 Y-0.661
N3960G01 X351.161 Y-0.774
N3970G01 X351.082 Y-0.881
N3980G01 X350.993 Y-0.979
N3990G01 X350.895 Y-1.068
N4000G01 X350.789 Y-1.147
N4010G01 X350.675 Y-1.215
N4020G01 X350.555 Y-1.271
N4030G01 X350.431 Y-1.316
N4040G01 X350.302 Y-1.348
N4050G01 X350.171 Y-1.368
N4060G01 X350.039 Y-1.374
N4070G01 X-0.024
N4080G01 Z-7 F500
N4090G01 X-0.157 Y-1.368 F1000
N4100G01 X-0.288 Y-1.348
N4110G01 X-0.416 Y-1.316
N4120G01 X-0.541 Y-1.271
N4130G01 X-0.661 Y-1.215
N4140G01 X-0.774 Y-1.147
N4150G01 X-0.881 Y-1.068
N4160G01 X-0.979 Y-0.979
N4170G01 X-1.068 Y-0.881
N4180G01 X-1.147 Y-0.774
N4190G01 X-1.215 Y-0.661
N4200G01 X-1.271 Y-0.541
N4210G01 X-1.316 Y-0.416
N4220G01 X-1.348 Y-0.288
N4230G01 X-1.368 Y-0.157
N4240G01 X-1.374 Y-0.024
N4250G01 X-1.368 Y339.083
N4260G01 X-1.348 Y339.214
N4270G01 X-1.316 Y339.343
N4280G01 X-1.271 Y339.467
N4290G01 X-1.215 Y339.587
N4300G01 X-1.147 Y339.701
N4310G01 X-1.068 Y339.807
N4320G01 X-0.979 Y339.905
N4330G01 X-0.881 Y339.994
N4340G01 X-0.774 Y340.073
N4350G01 X-0.661 Y340.141
N4360G01 X-0.541 Y340.198
N4370G01 X-0.416 Y340.243
N4380G01 X-0.288 Y340.275
N4390G01 X-0.157 Y340.294
N4400G01 X-0.024 Y340.301
N4410G01 X350.039
N4420G01 X350.171 Y340.294
N4430G01 X350.302 Y340.275
N4440G01 X350.431 Y340.243
N4450G01 X350.555 Y340.198
N4460G01 X350.675 Y340.141
N4470G01 X350.789 Y340.073
N4480G01 X350.895 Y339.994
N4490G01 X350.993 Y339.905
N4500G01 X351.082 Y339.807
N4510G01 X351.161 Y339.701
N4520G01 X351.229 Y339.587
N4530G01 X351.286 Y339.467
N4540G01 X351.331 Y339.343
N4550G01 X351.363 Y339.214
N4560G01 X351.382 Y339.083
N4570G01 X351.389 Y338.951
N4580G01 X351.382 Y-0.157
N4590G01 X351.363 Y-0.288
N4600G01 X351.331 Y-0.416
N4610G01 X351.286 Y-0.541
N4620G01 X351.229 Y-0.661
N4630G01 X351.161 Y-0.774
N4640G01 X351.082 Y-0.881
N4650G01 X350.993 Y-0.979
N4660G01 X350.895 Y-1.068
N4670G01 X350.789 Y-1.147
N4680G01 X350.675 Y-1.215
N4690G01 X350.555 Y-1.271
N4700G01 X350.431 Y-1.316
N4710G01 X350.302 Y-1.348
N4720G01 X350.171 Y-1.368
N4730G01 X350.039 Y-1.374
N4740G01 X-0.024
N4750G01 Z-8 F500
N4760G01 X-0.157 Y-1.368 F1000
N4770G01 X-0.288 Y-1.348
N4780G01 X-0.416 Y-1.316
N4790G01 X-0.541 Y-1.271
N4800G01 X-0.661 Y-1.215
N4810G01 X-0.774 Y-1.147
N4820G01 X-0.881 Y-1.068
N4830G01 X-0.979 Y-0.979
N4840G01 X-1.068 Y-0.881
N4850G01 X-1.147 Y-0.774
N4860G01 X-1.215 Y-0.661
N4870G01 X-1.271 Y-0.541
N4880G01 X-1.316 Y-0.416
N4890G01 X-1.348 Y-0.288
N4900G01 X-1.368 Y-0.157
N4910G01 X-1.374 Y-0.024
N4920G01 X-1.373 Y74.896
N4930G01 Z-7.5
N4940G01 X-1.373 Y80.596
N4950G01 Z-8 F500
N4960G01 X-1.37 Y228.958 F1000
N4970G01 Z-7.5
N4980G01 X-1.37 Y234.658
N4990G01 Z-8 F500
N5000G01 X-1.368 Y339.083 F1000
N5010G01 X-1.348 Y339.214
N5020G01 X-1.316 Y339.343
N5030G01 X-1.271 Y339.467
N5040G01 X-1.215 Y339.587
N5050G01 X-1.147 Y339.701
N5060G01 X-1.068 Y339.807
N5070G01 X-0.979 Y339.905
N5080G01 X-0.881 Y339.994
N5090G01 X-0.774 Y340.073
N5100G01 X-0.661 Y340.141
N5110G01 X-0.541 Y340.198
N5120G01 X-0.416 Y340.243
N5130G01 X-0.288 Y340.275
N5140G01 X-0.157 Y340.294
N5150G01 X-0.024 Y340.301
N5160G01 X41.925
N5170G01 Z-7.5
N5180G01 X47.625
N5190G01 Z-8 F500
N5200G01 X195.987 Y340.301 F1000
N5210G01 Z-7.5
N5220G01 X201.687
N5230G01 Z-8 F500
N5240G01 X350.049 Y340.3 F1000
N5250G01 Z-7.5
N5260G01 X350.171 Y340.294
N5270G01 X350.302 Y340.275
N5280G01 X350.431 Y340.243
N5290G01 X350.555 Y340.198
N5300G01 X350.675 Y340.141
N5310G01 X350.789 Y340.073
N5320G01 X350.895 Y339.994
N5330G01 X350.993 Y339.905
N5340G01 X351.082 Y339.807
N5350G01 X351.161 Y339.701
N5360G01 X351.229 Y339.587
N5370G01 X351.286 Y339.467
N5380G01 X351.331 Y339.343
N5390G01 X351.363 Y339.214
N5400G01 X351.382 Y339.083
N5410G01 X351.389 Y338.951
N5420G01 X351.389 Y335.36
N5430G01 Z-8 F500
N5440G01 X351.386 Y186.998 F1000
N5450G01 Z-7.5
N5460G01 X351.386 Y181.298
N5470G01 Z-8 F500
N5480G01 X351.383 Y32.936 F1000
N5490G01 Z-7.5
N5500G01 X351.383 Y27.236
N5510G01 Z-8 F500
N5520G01 X351.382 Y-0.157 F1000
N5530G01 X351.363 Y-0.288
N5540G01 X351.331 Y-0.416
N5550G01 X351.286 Y-0.541
N5560G01 X351.229 Y-0.661
N5570G01 X351.161 Y-0.774
N5580G01 X351.082 Y-0.881
N5590G01 X350.993 Y-0.979
N5600G01 X350.895 Y-1.068
N5610G01 X350.789 Y-1.147
N5620G01 X350.675 Y-1.215
N5630G01 X350.555 Y-1.271
N5640G01 X350.431 Y-1.316
N5650G01 X350.302 Y-1.348
N5660G01 X350.171 Y-1.368
N5670G01 X350.039 Y-1.374
N5680G01 X231.058
N5690G01 Z-7.5
N5700G01 X225.358
N5710G01 Z-8 F500
N5720G01 X76.996 F1000
N5730G01 Z-7.5
N5740G01 X71.296
N5750G01 Z-8 F500
N5760G01 X-0.024 F1000
N5770G01 Z-8.5 F500
N5780G01 X-0.157 Y-1.368 F1000
N5790G01 X-0.288 Y-1.348
N5800G01 X-0.416 Y-1.316
N5810G01 X-0.541 Y-1.271
N5820G01 X-0.661 Y-1.215
N5830G01 X-0.774 Y-1.147
N5840G01 X-0.881 Y-1.068
N5850G01 X-0.979 Y-0.979
N5860G01 X-1.068 Y-0.881
N5870G01 X-1.147 Y-0.774
N5880G01 X-1.215 Y-0.661
N5890G01 X-1.271 Y-0.541
N5900G01 X-1.316 Y-0.416
N5910G01 X-1.348 Y-0.288
N5920G01 X-1.368 Y-0.157
N5930G01 X-1.374 Y-0.024
N5940G01 X-1.373 Y74.896
N5950G01 Z-7.5
N5960G01 X-1.373 Y80.596
N5970G01 Z-8.5 F500
N5980G01 X-1.37 Y228.958 F1000
N5990G01 Z-7.5
N6000G01 X-1.37 Y234.658
N6010G01 Z-8.5 F500
N6020G01 X-1.368 Y339.083 F1000
N6030G01 X-1.348 Y339.214
N6040G01 X-1.316 Y339.343
N6050G01 X-1.271 Y339.467
N6060G01 X-1.215 Y339.587
N6070G01 X-1.147 Y339.701
N6080G01 X-1.068 Y339.807
N6090G01 X-0.979 Y339.905
N6100G01 X-0.881 Y339.994
N6110G01 X-0.774 Y340.073
N6120G01 X-0.661 Y340.141
N6130G01 X-0.541 Y340.198
N6140G01 X-0.416 Y340.243
N6150G01 X-0.288 Y340.275
N6160G01 X-0.157 Y340.294
N6170G01 X-0.024 Y340.301
N6180G01 X41.925
N6190G01 Z-7.5
N6200G01 X47.625
N6210G01 Z-8.5 F500
N6220G01 X195.987 Y340.301 F1000
N6230G01 Z-7.5
N6240G01 X201.687
N6250G01 Z-8.5 F500
N6260G01 X350.049 Y340.3 F1000
N6270G01 Z-7.5
N6280G01 X350.171 Y340.294
N6290G01 X350.302 Y340.275
N6300G01 X350.431 Y340.243
N6310G01 X350.555 Y340.198
N6320G01 X350.675 Y340.141
N6330G01 X350.789 Y340.073
N6340G01 X350.895 Y339.994
N6350G01 X350.993 Y339.905
N6360G01 X351.082 Y339.807
N6370G01 X351.161 Y339.701
N6380G01 X351.229 Y339.587
N6390G01 X351.286 Y339.467
N6400G01 X351.331 Y339.343
N6410G01 X351.363 Y339.214
N6420G01 X351.382 Y339.083
N6430G01 X351.389 Y338.951
N6440G01 X351.389 Y335.36
N6450G01 Z-8.5 F500
N6460G01 X351.386 Y186.998 F1000
N6470G01 Z-7.5
N6480G01 X351.386 Y181.298
N6490G01 Z-8.5 F500
N6500G01 X351.383 Y32.936 F1000
N6510G01 Z-7.5
N6520G01 X351.383 Y27.236
N6530G01 Z-8.5 F500
N6540G01 X351.382 Y-0.157 F1000
N6550G01 X351.363 Y-0.288
N6560G01 X351.331 Y-0.416
N6570G01 X351.286 Y-0.541
N6580G01 X351.229 Y-0.661
N6590G01 X351.161 Y-0.774
N6600G01 X351.082 Y-0.881
N6610G01 X350.993 Y-0.979
N6620G01 X350.895 Y-1.068
N6630G01 X350.789 Y-1.147
N6640G01 X350.675 Y-1.215
N6650G01 X350.555 Y-1.271
N6660G01 X350.431 Y-1.316
N6670G01 X350.302 Y-1.348
N6680G01 X350.171 Y-1.368
N6690G01 X350.039 Y-1.374
N6700G01 X231.058
N6710G01 Z-7.5
N6720G01 X225.358
N6730G01 Z-8.5 F500
N6740G01 X76.996 F1000
N6750G01 Z-7.5
N6760G01 X71.296
N6770G01 Z-8.5 F500
N6780G01 X-0.024 F1000
N6790 G00 Z9.999
N6800 M02
