(GCode created using the HeeksCNC Mach3 post processor)
(/home/user/git-repos/donation-box/designs/3D/blender/front panel/printer-clamp-left-file.tap)
(G-code generated with BlenderCAM and NC library)
N10 G17 G21 G90
(Tool change)
N20G43H1
N30T1 M06
N40 G00 X0 Y0 Z9.999 S12000 M03
N50 G00 X290.35 Y43.85
N60G01 Z-1 F500
N70G01 X290.65 F1000
N80G01 X290.649 Y79.15
N90G01 X290.35
N100G01 X290.35 Y43.85
N110G01 X289.35 Y42.85
N120G01 X291.65
N130G01 X291.649 Y80.15
N140G01 X289.35
N150G01 X289.35 Y42.85
N160 G00 Z9.999
N170 G00 X290.35 Y43.85
N180G01 Z-2 F500
N190G01 X290.65 F1000
N200G01 X290.649 Y79.15
N210G01 X290.35
N220G01 X290.35 Y43.85
N230G01 X289.35 Y42.85
N240G01 X291.65
N250G01 X291.649 Y80.15
N260G01 X289.35
N270G01 X289.35 Y42.85
N280 G00 Z9.999
N290 M02
