(GCode created using the HeeksCNC Mach3 post processor)
(/home/user/git-repos/donation-box/designs/3D/blender/front panel/printer-file.tap)
(G-code generated with BlenderCAM and NC library)
N10 G17 G21 G90
(Tool change)
N20G43H1
N30T1 M06
N40 G00 X0 Y0 Z9.999 S12000 M03
N50 G00 X186.35 Y34.35
N60G01 Z-1 F500
N70G01 X286.65 Y34.35 F1000
N80G01 X286.65 Y88.65
N90G01 X186.35
N100G01 Y34.35
N110G01 Z-2 F500
N120G01 X286.65 Y34.35 F1000
N130G01 X286.65 Y88.65
N140G01 X186.35
N150G01 Y34.35
N160G01 Z-3 F500
N170G01 X286.65 Y34.35 F1000
N180G01 X286.65 Y88.65
N190G01 X186.35
N200G01 Y34.35
N210G01 Z-4 F500
N220G01 X286.65 Y34.35 F1000
N230G01 X286.65 Y88.65
N240G01 X186.35
N250G01 Y34.35
N260G01 Z-5 F500
N270G01 X286.65 Y34.35 F1000
N280G01 X286.65 Y88.65
N290G01 X186.35
N300G01 Y34.35
N310G01 Z-6 F500
N320G01 X286.65 Y34.35 F1000
N330G01 X286.65 Y88.65
N340G01 X186.35
N350G01 Y34.35
N360G01 Z-7 F500
N370G01 X286.65 Y34.35 F1000
N380G01 X286.65 Y88.65
N390G01 X186.35
N400G01 Y34.35
N410G01 Z-8 F500
N420G01 X225.01 Y34.35 F1000
N430G01 Z-7.5
N440G01 X229.71
N450G01 Z-8 F500
N460G01 X286.65 Y34.35 F1000
N470G01 Y50.01
N480G01 Z-7.5
N490G01 Y54.71
N500G01 Z-8 F500
N510G01 X286.65 Y88.65 F1000
N520G01 X247.99
N530G01 Z-7.5
N540G01 X243.29
N550G01 Z-8 F500
N560G01 X186.35 F1000
N570G01 Y72.99
N580G01 Z-7.5
N590G01 Y68.29
N600G01 Z-8 F500
N610G01 Y34.35 F1000
N620G01 Z-8.5 F500
N630G01 X225.01 Y34.35 F1000
N640G01 Z-7.5
N650G01 X229.71
N660G01 Z-8.5 F500
N670G01 X286.65 Y34.35 F1000
N680G01 Y50.01
N690G01 Z-7.5
N700G01 Y54.71
N710G01 Z-8.5 F500
N720G01 X286.65 Y88.65 F1000
N730G01 X247.99
N740G01 Z-7.5
N750G01 X243.29
N760G01 Z-8.5 F500
N770G01 X186.35 F1000
N780G01 Y72.99
N790G01 Z-7.5
N800G01 Y68.29
N810G01 Z-8.5 F500
N820G01 Y34.35 F1000
N830 G00 Z9.999
N840 M02
