(GCode created using the HeeksCNC Mach3 post processor)
(/home/user/Documents/groove-file.tap)
(G-code generated with BlenderCAM and NC library)
N10 G17 G21 G90
(Tool change)
N20G43H1
N30T1 M06
N40 G00 X0 Y0 Z9.999 S12000 M03
N50 G00 X8.35 Y3.35
N60G01 Z-1 F500
N70G01 X10.15 Y3.35 F1000
N80G01 X10.149 Y494.766
N90G01 X10.153 Y494.871
N100G01 X10.152 Y494.871
N110G01 X10.166 Y495.094
N120G01 X10.196 Y495.316
N130G01 X10.197 Y495.316
N140G01 X10.214 Y495.419
N150G01 X10.238 Y495.521
N160G01 X10.237 Y495.521
N170G01 X10.294 Y495.738
N180G01 X10.367 Y495.95
N190G01 X10.368 Y495.949
N200G01 X10.405 Y496.048
N210G01 X10.498 Y496.251
N220G01 X10.499 Y496.251
N230G01 X10.545 Y496.345
N240G01 X10.598 Y496.435
N250G01 X10.597 Y496.436
N260G01 X10.714 Y496.627
N270G01 X10.846 Y496.808
N280G01 X10.846 Y496.807
N290G01 X10.91 Y496.891
N300G01 X10.938 Y496.922
N310G01 X10.938 Y496.923
N320G01 X11.059 Y497.058
N330G01 X11.097 Y497.099
N340G01 X19.73 Y505.734
N350G01 X19.762 Y505.762
N360G01 X19.761 Y505.763
N370G01 X19.765 Y505.767
N380G01 X18.521 Y505.335
N390G01 X16.601 Y504.372
N400G01 X14.83 Y503.176
N410G01 X13.231 Y501.768
N420G01 X11.823 Y500.168
N430G01 X10.627 Y498.398
N440G01 X9.664 Y496.478
N450G01 X8.952 Y494.428
N460G01 X8.509 Y492.264
N470G01 X8.35 Y489.887
N480G01 X8.35 Y3.35
N490 G00 Z9.999
N500 G00 X20.85 Y12.35
N510G01 Z-1 F500
N520G01 X186.499 Y12.35 F1000
N530G01 X186.755 Y12.343
N540G01 X186.776 Y12.341
N550G01 X186.776 Y12.342
N560G01 X186.855 Y12.338
N570G01 X186.855 Y12.339
N580G01 X187.188 Y12.317
N590G01 X187.188 Y12.316
N600G01 X187.22 Y12.314
N610G01 X187.252 Y12.31
N620G01 X187.252 Y12.311
N630G01 X187.326 Y12.301
N640G01 X187.326 Y12.302
N650G01 X187.586 Y12.267
N660G01 X187.586 Y12.266
N670G01 X187.65 Y12.256
N680G01 Y14.3
N690G01 X187.58 Y14.29
N700G01 X187.58 Y14.289
N710G01 X187.22 Y14.242
N720G01 X186.858 Y14.217
N730G01 X186.857 Y14.218
N740G01 X186.612 Y14.209
N750G01 X20.85 Y14.248
N760G01 Y12.35
N770G01 X19.85 Y11.35
N780G01 X186.499 Y11.35
N790G01 X186.727 Y11.343
N800G01 X186.789 Y11.34
N810G01 X186.789 Y11.341
N820G01 X187.122 Y11.319
N830G01 X187.193 Y11.31
N840G01 X187.193 Y11.311
N850G01 X187.453 Y11.276
N860G01 X187.453 Y11.275
N870G01 X187.705 Y11.234
N880G01 X187.705 Y11.233
N890G01 X187.738 Y11.228
N900G01 X187.848 Y11.204
N910G01 X187.931 Y11.183
N920G01 X187.931 Y11.184
N930G01 X188.003 Y11.166
N940G01 X188.004 Y11.167
N950G01 X188.179 Y11.122
N960G01 X188.179 Y11.121
N970G01 X188.343 Y11.076
N980G01 X188.504 Y11.022
N990G01 X188.504 Y11.023
N1000G01 X188.65 Y10.973
N1010G01 Y15.584
N1020G01 X188.452 Y15.516
N1030G01 X188.452 Y15.517
N1040G01 X188.375 Y15.49
N1050G01 X188.374 Y15.491
N1060G01 X188.343 Y15.48
N1070G01 X188.31 Y15.472
N1080G01 X188.311 Y15.471
N1090G01 X188.232 Y15.45
N1100G01 X188.232 Y15.449
N1110G01 X188.015 Y15.392
N1120G01 X188.015 Y15.393
N1130G01 X187.771 Y15.336
N1140G01 X187.771 Y15.337
N1150G01 X187.738 Y15.329
N1160G01 X187.705 Y15.324
N1170G01 X187.705 Y15.323
N1180G01 X187.45 Y15.281
N1190G01 X187.451 Y15.28
N1200G01 X187.122 Y15.237
N1210G01 X186.791 Y15.215
N1220G01 X186.791 Y15.216
N1230G01 X186.573 Y15.208
N1240G01 X19.85 Y15.248
N1250G01 Y11.35
N1260G01 X18.85 Y10.35
N1270G01 X186.499 Y10.35
N1280G01 X186.726 Y10.342
N1290G01 X186.727 Y10.343
N1300G01 X186.988 Y10.327
N1310G01 X186.988 Y10.326
N1320G01 X187.024 Y10.324
N1330G01 X187.059 Y10.319
N1340G01 X187.059 Y10.32
N1350G01 X187.319 Y10.285
N1360G01 X187.319 Y10.284
N1370G01 X187.543 Y10.247
N1380G01 X187.635 Y10.227
N1390G01 X187.687 Y10.213
N1400G01 X187.687 Y10.215
N1410G01 X187.754 Y10.198
N1420G01 X187.754 Y10.199
N1430G01 X187.93 Y10.154
N1440G01 X187.93 Y10.153
N1450G01 X188.019 Y10.129
N1460G01 X188.019 Y10.128
N1470G01 X188.053 Y10.119
N1480G01 X188.085 Y10.108
N1490G01 X188.086 Y10.109
N1500G01 X188.173 Y10.079
N1510G01 X188.174 Y10.08
N1520G01 X188.345 Y10.02
N1530G01 X188.345 Y10.019
N1540G01 X188.547 Y9.942
N1550G01 X188.751 Y9.85
N1560G01 X188.752 Y9.851
N1570G01 X188.953 Y9.753
N1580G01 X188.953 Y9.752
N1590G01 X189.021 Y9.718
N1600G01 X189.209 Y9.61
N1610G01 X189.209 Y9.611
N1620G01 X189.364 Y9.517
N1630G01 X189.364 Y9.516
N1640G01 X189.472 Y9.448
N1650G01 X189.65 Y9.321
N1660G01 Y17.236
N1670G01 X189.5 Y17.128
N1680G01 X189.5 Y17.129
N1690G01 X189.472 Y17.108
N1700G01 X189.407 Y17.068
N1710G01 X189.407 Y17.067
N1720G01 X189.216 Y16.95
N1730G01 X189.216 Y16.951
N1740G01 X189.021 Y16.838
N1750G01 X188.953 Y16.804
N1760G01 X188.953 Y16.803
N1770G01 X188.752 Y16.706
N1780G01 X188.751 Y16.707
N1790G01 X188.547 Y16.614
N1800G01 X188.337 Y16.535
N1810G01 X188.337 Y16.534
N1820G01 X188.126 Y16.461
N1830G01 X188.125 Y16.462
N1840G01 X188.053 Y16.437
N1850G01 X187.978 Y16.417
N1860G01 X187.979 Y16.416
N1870G01 X187.762 Y16.359
N1880G01 X187.762 Y16.361
N1890G01 X187.543 Y16.309
N1900G01 X187.319 Y16.273
N1910G01 X187.319 Y16.272
N1920G01 X187.024 Y16.232
N1930G01 X186.727 Y16.213
N1940G01 X186.726 Y16.214
N1950G01 X186.537 Y16.207
N1960G01 X18.85 Y16.248
N1970G01 Y10.35
N1980G01 X17.85 Y9.35
N1990G01 X186.499 Y9.35
N2000G01 X186.664 Y9.344
N2010G01 X186.664 Y9.345
N2020G01 X186.926 Y9.329
N2030G01 X187.186 Y9.294
N2040G01 X187.186 Y9.293
N2050G01 X187.348 Y9.266
N2060G01 X187.42 Y9.25
N2070G01 X187.438 Y9.245
N2080G01 X187.444 Y9.245
N2090G01 X187.504 Y9.229
N2100G01 X187.505 Y9.231
N2110G01 X187.681 Y9.185
N2120G01 X187.68 Y9.184
N2130G01 X187.762 Y9.162
N2140G01 X187.843 Y9.135
N2150G01 X187.843 Y9.136
N2160G01 X188.014 Y9.076
N2170G01 X188.014 Y9.075
N2180G01 X188.164 Y9.019
N2190G01 X188.314 Y8.95
N2200G01 X188.314 Y8.951
N2210G01 X188.516 Y8.853
N2220G01 X188.515 Y8.852
N2230G01 X188.55 Y8.836
N2240G01 X188.689 Y8.756
N2250G01 X188.689 Y8.757
N2260G01 X188.845 Y8.662
N2270G01 X188.844 Y8.661
N2280G01 X188.916 Y8.617
N2290G01 X189.05 Y8.52
N2300G01 X189.051 Y8.521
N2310G01 X189.259 Y8.362
N2320G01 X189.456 Y8.189
N2330G01 X189.455 Y8.188
N2340G01 X189.575 Y8.076
N2350G01 X189.688 Y7.955
N2360G01 X189.689 Y7.956
N2370G01 X189.862 Y7.759
N2380G01 X190.021 Y7.551
N2390G01 X190.02 Y7.55
N2400G01 X190.116 Y7.416
N2410G01 X190.203 Y7.276
N2420G01 X190.204 Y7.277
N2430G01 X190.317 Y7.084
N2440G01 X190.316 Y7.083
N2450G01 X190.336 Y7.05
N2460G01 X190.352 Y7.016
N2470G01 X190.353 Y7.016
N2480G01 X190.451 Y6.815
N2490G01 X190.45 Y6.814
N2500G01 X190.518 Y6.664
N2510G01 X190.57 Y6.526
N2520G01 X190.571 Y6.527
N2530G01 X190.616 Y6.402
N2540G01 X190.615 Y6.402
N2550G01 X190.65 Y6.301
N2560G01 X190.65 Y20.255
N2570G01 X190.577 Y20.046
N2580G01 X190.576 Y20.046
N2590G01 X190.518 Y19.892
N2600G01 X190.45 Y19.742
N2610G01 X190.451 Y19.742
N2620G01 X190.353 Y19.54
N2630G01 X190.352 Y19.541
N2640G01 X190.336 Y19.506
N2650G01 X190.316 Y19.473
N2660G01 X190.317 Y19.473
N2670G01 X190.204 Y19.279
N2680G01 X190.203 Y19.28
N2690G01 X190.116 Y19.14
N2700G01 X190.02 Y19.006
N2710G01 X190.021 Y19.006
N2720G01 X189.862 Y18.797
N2730G01 X189.689 Y18.6
N2740G01 X189.688 Y18.601
N2750G01 X189.575 Y18.481
N2760G01 X189.455 Y18.368
N2770G01 X189.456 Y18.368
N2780G01 X189.259 Y18.194
N2790G01 X189.051 Y18.035
N2800G01 X189.05 Y18.036
N2810G01 X188.916 Y17.94
N2820G01 X188.883 Y17.92
N2830G01 X188.884 Y17.919
N2840G01 X188.693 Y17.802
N2850G01 X188.692 Y17.803
N2860G01 X188.55 Y17.72
N2870G01 X188.515 Y17.704
N2880G01 X188.516 Y17.703
N2890G01 X188.314 Y17.605
N2900G01 X188.314 Y17.606
N2910G01 X188.164 Y17.538
N2920G01 X188.01 Y17.48
N2930G01 X188.011 Y17.479
N2940G01 X187.799 Y17.406
N2950G01 X187.798 Y17.407
N2960G01 X187.762 Y17.394
N2970G01 X187.725 Y17.385
N2980G01 X187.725 Y17.384
N2990G01 X187.509 Y17.327
N3000G01 X187.508 Y17.328
N3010G01 X187.348 Y17.29
N3020G01 X187.186 Y17.264
N3030G01 X187.186 Y17.263
N3040G01 X186.926 Y17.228
N3050G01 X186.664 Y17.211
N3060G01 X186.664 Y17.212
N3070G01 X186.537 Y17.207
N3080G01 X17.85 Y17.249
N3090G01 Y9.35
N3100 G00 Z9.999
N3110 G00 X190.649 Y20.258
N3120G01 Z-1 F500
N3130G01 X190.65 Y20.259 F1000
N3140G01 X190.649 Y20.258
N3150 G00 Z9.999
N3160 G00 X189.109 Y343.914
N3170G01 Z-1 F500
N3180G01 X188.866 Y344.712 F1000
N3190G01 X188.531 Y345.605
N3200G01 X188.139 Y346.472
N3210G01 X187.691 Y347.313
N3220G01 X187.188 Y348.124
N3230G01 X186.632 Y348.902
N3240G01 X186.023 Y349.645
N3250G01 X185.303 Y350.414
N3260G01 X35.424 Y500.294
N3270G01 X34.658 Y501.008
N3280G01 X33.912 Y501.617
N3290G01 X33.13 Y502.174
N3300G01 X32.317 Y502.678
N3310G01 X31.469 Y503.13
N3320G01 X30.6 Y503.523
N3330G01 X29.704 Y503.861
N3340G01 X28.928 Y504.098
N3350G01 X184.011 Y348.979
N3360G01 X189.109 Y343.914
N3370G01 X190.11 Y344.059
N3380G01 X189.814 Y345.034
N3390G01 X189.455 Y345.987
N3400G01 X189.036 Y346.914
N3410G01 X188.558 Y347.812
N3420G01 X188.021 Y348.678
N3430G01 X187.426 Y349.51
N3440G01 X186.776 Y350.304
N3450G01 X186.021 Y351.11
N3460G01 X36.118 Y501.013
N3470G01 X35.316 Y501.762
N3480G01 X34.519 Y502.412
N3490G01 X33.684 Y503.008
N3500G01 X32.816 Y503.545
N3510G01 X31.912 Y504.027
N3520G01 X30.983 Y504.448
N3530G01 X30.026 Y504.808
N3540G01 X29.05 Y505.106
N3550G01 X28.055 Y505.34
N3560G01 X27.045 Y505.509
N3570G01 X26.024 Y505.612
N3580G01 X25.999 Y505.613
N3590G01 X183.305 Y348.271
N3600G01 X189.568 Y342.048
N3610G01 X189.688 Y341.92
N3620G01 X189.689 Y341.921
N3630G01 X189.862 Y341.724
N3640G01 X190.021 Y341.516
N3650G01 X190.02 Y341.515
N3660G01 X190.095 Y341.413
N3670G01 X190.094 Y341.412
N3680G01 X190.116 Y341.382
N3690G01 X190.136 Y341.349
N3700G01 X190.137 Y341.35
N3710G01 X190.203 Y341.242
N3720G01 X190.204 Y341.242
N3730G01 X190.336 Y341.015
N3740G01 X190.451 Y340.78
N3750G01 X190.45 Y340.779
N3760G01 X190.503 Y340.664
N3770G01 X190.502 Y340.663
N3780G01 X190.518 Y340.629
N3790G01 X190.531 Y340.595
N3800G01 X190.532 Y340.595
N3810G01 X190.57 Y340.492
N3820G01 X190.571 Y340.492
N3830G01 X190.616 Y340.367
N3840G01 X190.615 Y340.367
N3850G01 X190.631 Y340.321
N3860G01 X190.637 Y340.299
N3870G01 X190.612 Y341.03
N3880G01 X190.51 Y342.054
N3890G01 X190.342 Y343.065
N3900G01 X190.11 Y344.059
N3910G01 X191.076 Y344.319
N3920G01 X190.761 Y345.356
N3930G01 X190.38 Y346.369
N3940G01 X189.934 Y347.356
N3950G01 X189.425 Y348.311
N3960G01 X188.854 Y349.233
N3970G01 X188.221 Y350.119
N3980G01 X187.529 Y350.963
N3990G01 X186.74 Y351.806
N4000G01 X36.814 Y501.732
N4010G01 X35.973 Y502.516
N4020G01 X35.126 Y503.207
N4030G01 X34.238 Y503.84
N4040G01 X33.315 Y504.412
N4050G01 X32.354 Y504.924
N4060G01 X31.366 Y505.372
N4070G01 X30.349 Y505.756
N4080G01 X29.31 Y506.072
N4090G01 X28.252 Y506.321
N4100G01 X27.178 Y506.501
N4110G01 X26.092 Y506.61
N4120G01 X25.055 Y506.646
N4130G01 X23.215 Y506.522
N4140G01 X23.381 Y506.46
N4150G01 X23.419 Y506.442
N4160G01 X23.42 Y506.443
N4170G01 X23.584 Y506.367
N4180G01 X23.584 Y506.366
N4190G01 X23.678 Y506.32
N4200G01 X23.769 Y506.267
N4210G01 X23.77 Y506.268
N4220G01 X23.96 Y506.151
N4230G01 X24.142 Y506.019
N4240G01 X24.141 Y506.018
N4250G01 X24.224 Y505.955
N4260G01 X24.392 Y505.806
N4270G01 X182.6 Y347.561
N4280G01 X188.864 Y341.338
N4290G01 X188.94 Y341.257
N4300G01 X188.941 Y341.258
N4310G01 X189.089 Y341.09
N4320G01 X189.225 Y340.911
N4330G01 X189.224 Y340.911
N4340G01 X189.285 Y340.826
N4350G01 X189.34 Y340.737
N4360G01 X189.341 Y340.737
N4370G01 X189.454 Y340.544
N4380G01 X189.552 Y340.343
N4390G01 X189.551 Y340.342
N4400G01 X189.595 Y340.247
N4410G01 X189.629 Y340.155
N4420G01 X189.63 Y340.155
N4430G01 X189.675 Y340.03
N4440G01 X189.85 Y21.557
N4450G01 X189.841 Y21.333
N4460G01 X189.84 Y21.333
N4470G01 X189.833 Y21.228
N4480G01 X189.819 Y21.124
N4490G01 X189.82 Y21.124
N4500G01 X189.785 Y20.903
N4510G01 X189.733 Y20.685
N4520G01 X189.732 Y20.686
N4530G01 X189.705 Y20.584
N4540G01 X189.632 Y20.373
N4550G01 X189.631 Y20.373
N4560G01 X189.595 Y20.275
N4570G01 X189.551 Y20.179
N4580G01 X189.552 Y20.179
N4590G01 X189.454 Y19.977
N4600G01 X189.341 Y19.784
N4610G01 X189.34 Y19.785
N4620G01 X189.285 Y19.695
N4630G01 X189.223 Y19.611
N4640G01 X189.224 Y19.61
N4650G01 X189.089 Y19.431
N4660G01 X188.941 Y19.264
N4670G01 X188.94 Y19.265
N4680G01 X188.868 Y19.188
N4690G01 X188.791 Y19.117
N4700G01 X188.792 Y19.116
N4710G01 X188.625 Y18.967
N4720G01 X188.446 Y18.832
N4730G01 X188.446 Y18.833
N4740G01 X188.361 Y18.771
N4750G01 X188.17 Y18.654
N4760G01 X188.169 Y18.655
N4770G01 X188.079 Y18.602
N4780G01 X187.877 Y18.504
N4790G01 X187.877 Y18.505
N4800G01 X187.782 Y18.462
N4810G01 X187.683 Y18.425
N4820G01 X187.684 Y18.424
N4830G01 X187.472 Y18.351
N4840G01 X187.255 Y18.294
N4850G01 X187.255 Y18.295
N4860G01 X187.153 Y18.271
N4870G01 X187.05 Y18.254
N4880G01 X187.05 Y18.253
N4890G01 X186.828 Y18.223
N4900G01 X186.604 Y18.209
N4910G01 X186.604 Y18.211
N4920G01 X186.5 Y18.207
N4930G01 X16.85 Y18.249
N4940G01 Y8.35
N4950G01 X186.499 Y8.35
N4960G01 X186.604 Y8.346
N4970G01 X186.604 Y8.347
N4980G01 X186.828 Y8.334
N4990G01 X187.05 Y8.303
N5000G01 X187.05 Y8.302
N5010G01 X187.153 Y8.285
N5020G01 X187.255 Y8.261
N5030G01 X187.255 Y8.262
N5040G01 X187.431 Y8.217
N5050G01 X187.431 Y8.216
N5060G01 X187.472 Y8.205
N5070G01 X187.512 Y8.191
N5080G01 X187.512 Y8.192
N5090G01 X187.684 Y8.132
N5100G01 X187.683 Y8.131
N5110G01 X187.782 Y8.095
N5120G01 X187.877 Y8.051
N5130G01 X187.877 Y8.052
N5140G01 X188.079 Y7.954
N5150G01 X188.169 Y7.901
N5160G01 X188.17 Y7.902
N5170G01 X188.325 Y7.808
N5180G01 X188.324 Y7.807
N5190G01 X188.361 Y7.785
N5200G01 X188.446 Y7.724
N5210G01 X188.446 Y7.725
N5220G01 X188.625 Y7.589
N5230G01 X188.792 Y7.441
N5240G01 X188.792 Y7.44
N5250G01 X188.868 Y7.368
N5260G01 X188.94 Y7.292
N5270G01 X188.941 Y7.292
N5280G01 X189.089 Y7.125
N5290G01 X189.224 Y6.946
N5300G01 X189.223 Y6.946
N5310G01 X189.285 Y6.861
N5320G01 X189.34 Y6.771
N5330G01 X189.341 Y6.772
N5340G01 X189.454 Y6.579
N5350G01 X189.552 Y6.378
N5360G01 X189.551 Y6.377
N5370G01 X189.595 Y6.282
N5380G01 X189.629 Y6.19
N5390G01 X189.63 Y6.19
N5400G01 X189.674 Y6.065
N5410G01 X189.673 Y6.065
N5420G01 X189.705 Y5.972
N5430G01 X189.732 Y5.871
N5440G01 X189.733 Y5.871
N5450G01 X189.776 Y5.695
N5460G01 X189.775 Y5.694
N5470G01 X189.785 Y5.653
N5480G01 X189.791 Y5.611
N5490G01 X189.793 Y5.611
N5500G01 X189.82 Y5.432
N5510G01 X189.819 Y5.432
N5520G01 X189.833 Y5.328
N5530G01 X189.84 Y5.223
N5540G01 X189.841 Y5.223
N5550G01 X189.849 Y5.042
N5560G01 X189.847 Y5.042
N5570G01 X189.85 Y5
N5580G01 Y3.35
N5590G01 X191.65 Y3.35
N5600G01 X191.65 Y339.944
N5610G01 X191.611 Y341.097
N5620G01 X191.502 Y342.185
N5630G01 X191.323 Y343.261
N5640G01 X191.076 Y344.319
N5650G01 X192.042 Y344.578
N5660G01 X191.709 Y345.677
N5670G01 X191.305 Y346.752
N5680G01 X190.832 Y347.797
N5690G01 X190.292 Y348.81
N5700G01 X189.686 Y349.788
N5710G01 X189.015 Y350.727
N5720G01 X188.281 Y351.623
N5730G01 X187.459 Y352.501
N5740G01 X37.509 Y502.451
N5750G01 X36.631 Y503.27
N5760G01 X35.734 Y504.003
N5770G01 X34.793 Y504.673
N5780G01 X33.814 Y505.28
N5790G01 X32.796 Y505.822
N5800G01 X31.749 Y506.296
N5810G01 X30.672 Y506.703
N5820G01 X29.571 Y507.038
N5830G01 X28.449 Y507.302
N5840G01 X27.31 Y507.493
N5850G01 X26.16 Y507.609
N5860G01 X25.038 Y507.647
N5870G01 X22.601 Y507.483
N5880G01 X20.306 Y507.014
N5890G01 X18.131 Y506.258
N5900G01 X16.095 Y505.237
N5910G01 X14.218 Y503.969
N5920G01 X12.523 Y502.477
N5930G01 X11.03 Y500.781
N5940G01 X9.763 Y498.904
N5950G01 X8.741 Y496.868
N5960G01 X7.985 Y494.693
N5970G01 X7.516 Y492.398
N5980G01 X7.35 Y489.921
N5990G01 X7.35 Y2.35
N6000G01 X11.15 Y2.35
N6010G01 X11.149 Y494.766
N6020G01 X11.152 Y494.815
N6030G01 X11.151 Y494.815
N6040G01 X11.161 Y494.996
N6050G01 X11.186 Y495.176
N6060G01 X11.187 Y495.176
N6070G01 X11.195 Y495.224
N6080G01 X11.207 Y495.272
N6090G01 X11.205 Y495.272
N6100G01 X11.251 Y495.448
N6110G01 X11.311 Y495.619
N6120G01 X11.312 Y495.619
N6130G01 X11.328 Y495.665
N6140G01 X11.405 Y495.83
N6150G01 X11.406 Y495.829
N6160G01 X11.427 Y495.873
N6170G01 X11.452 Y495.916
N6180G01 X11.451 Y495.916
N6190G01 X11.546 Y496.071
N6200G01 X11.653 Y496.218
N6210G01 X11.654 Y496.217
N6220G01 X11.683 Y496.257
N6230G01 X11.804 Y496.392
N6240G01 X20.437 Y505.027
N6250G01 X20.571 Y505.15
N6260G01 X20.572 Y505.149
N6270G01 X20.608 Y505.182
N6280G01 X20.648 Y505.211
N6290G01 X20.647 Y505.212
N6300G01 X20.793 Y505.319
N6310G01 X20.948 Y505.414
N6320G01 X20.949 Y505.412
N6330G01 X20.991 Y505.438
N6340G01 X21.036 Y505.459
N6350G01 X21.035 Y505.46
N6360G01 X21.2 Y505.536
N6370G01 X21.246 Y505.553
N6380G01 X21.245 Y505.554
N6390G01 X21.417 Y505.614
N6400G01 X21.593 Y505.659
N6410G01 X21.593 Y505.658
N6420G01 X21.641 Y505.67
N6430G01 X21.689 Y505.677
N6440G01 X21.689 Y505.679
N6450G01 X21.869 Y505.704
N6460G01 X22.05 Y505.714
N6470G01 X22.05 Y505.713
N6480G01 X22.099 Y505.715
N6490G01 X22.148 Y505.713
N6500G01 X22.148 Y505.714
N6510G01 X22.329 Y505.704
N6520G01 X22.509 Y505.679
N6530G01 X22.509 Y505.677
N6540G01 X22.558 Y505.67
N6550G01 X22.605 Y505.658
N6560G01 X22.605 Y505.659
N6570G01 X22.781 Y505.614
N6580G01 X22.953 Y505.554
N6590G01 X22.952 Y505.553
N6600G01 X22.998 Y505.536
N6610G01 X23.163 Y505.46
N6620G01 X23.162 Y505.459
N6630G01 X23.207 Y505.438
N6640G01 X23.249 Y505.412
N6650G01 X23.25 Y505.414
N6660G01 X23.405 Y505.319
N6670G01 X23.551 Y505.212
N6680G01 X23.55 Y505.211
N6690G01 X23.59 Y505.182
N6700G01 X23.725 Y505.061
N6710G01 X181.895 Y346.852
N6720G01 X188.159 Y340.629
N6730G01 X188.194 Y340.59
N6740G01 X188.195 Y340.591
N6750G01 X188.316 Y340.456
N6760G01 X188.425 Y340.311
N6770G01 X188.424 Y340.31
N6780G01 X188.453 Y340.27
N6790G01 X188.479 Y340.228
N6800G01 X188.48 Y340.229
N6810G01 X188.572 Y340.073
N6820G01 X188.651 Y339.909
N6830G01 X188.65 Y339.909
N6840G01 X188.671 Y339.864
N6850G01 X188.687 Y339.818
N6860G01 X188.688 Y339.818
N6870G01 X188.733 Y339.694
N6880G01 X188.85 Y21.557
N6890G01 X188.842 Y21.375
N6900G01 X188.841 Y21.375
N6910G01 X188.838 Y21.326
N6920G01 X188.831 Y21.278
N6930G01 X188.832 Y21.278
N6940G01 X188.804 Y21.098
N6950G01 X188.761 Y20.922
N6960G01 X188.76 Y20.922
N6970G01 X188.748 Y20.874
N6980G01 X188.688 Y20.703
N6990G01 X188.687 Y20.704
N7000G01 X188.671 Y20.657
N7010G01 X188.65 Y20.613
N7020G01 X188.651 Y20.612
N7030G01 X188.572 Y20.449
N7040G01 X188.48 Y20.293
N7050G01 X188.479 Y20.293
N7060G01 X188.453 Y20.251
N7070G01 X188.424 Y20.212
N7080G01 X188.425 Y20.211
N7090G01 X188.316 Y20.066
N7100G01 X188.195 Y19.931
N7110G01 X188.194 Y19.931
N7120G01 X188.161 Y19.895
N7130G01 X188.125 Y19.862
N7140G01 X188.126 Y19.861
N7150G01 X187.99 Y19.74
N7160G01 X187.845 Y19.631
N7170G01 X187.845 Y19.632
N7180G01 X187.805 Y19.603
N7190G01 X187.65 Y19.508
N7200G01 X187.649 Y19.509
N7210G01 X187.607 Y19.484
N7220G01 X187.444 Y19.405
N7230G01 X187.443 Y19.407
N7240G01 X187.399 Y19.386
N7250G01 X187.353 Y19.369
N7260G01 X187.353 Y19.368
N7270G01 X187.182 Y19.308
N7280G01 X187.006 Y19.263
N7290G01 X187.006 Y19.264
N7300G01 X186.958 Y19.252
N7310G01 X186.909 Y19.245
N7320G01 X186.91 Y19.243
N7330G01 X186.73 Y19.218
N7340G01 X186.549 Y19.208
N7350G01 X186.549 Y19.209
N7360G01 X186.5 Y19.207
N7370G01 X15.85 Y19.249
N7380G01 Y7.35
N7390G01 X186.499 Y7.35
N7400G01 X186.549 Y7.347
N7410G01 X186.549 Y7.348
N7420G01 X186.73 Y7.338
N7430G01 X186.91 Y7.313
N7440G01 X186.909 Y7.312
N7450G01 X186.958 Y7.305
N7460G01 X187.006 Y7.293
N7470G01 X187.006 Y7.294
N7480G01 X187.182 Y7.248
N7490G01 X187.353 Y7.188
N7500G01 X187.353 Y7.187
N7510G01 X187.399 Y7.171
N7520G01 X187.443 Y7.15
N7530G01 X187.444 Y7.151
N7540G01 X187.607 Y7.072
N7550G01 X187.649 Y7.047
N7560G01 X187.65 Y7.048
N7570G01 X187.805 Y6.954
N7580G01 X187.845 Y6.924
N7590G01 X187.845 Y6.925
N7600G01 X187.99 Y6.816
N7610G01 X188.126 Y6.695
N7620G01 X188.125 Y6.694
N7630G01 X188.161 Y6.661
N7640G01 X188.194 Y6.625
N7650G01 X188.195 Y6.626
N7660G01 X188.316 Y6.49
N7670G01 X188.425 Y6.345
N7680G01 X188.424 Y6.345
N7690G01 X188.453 Y6.305
N7700G01 X188.479 Y6.263
N7710G01 X188.48 Y6.264
N7720G01 X188.572 Y6.107
N7730G01 X188.651 Y5.944
N7740G01 X188.65 Y5.943
N7750G01 X188.671 Y5.899
N7760G01 X188.687 Y5.853
N7770G01 X188.688 Y5.853
N7780G01 X188.733 Y5.728
N7790G01 X188.732 Y5.728
N7800G01 X188.748 Y5.682
N7810G01 X188.76 Y5.634
N7820G01 X188.761 Y5.635
N7830G01 X188.804 Y5.458
N7840G01 X188.832 Y5.279
N7850G01 X188.831 Y5.279
N7860G01 X188.838 Y5.23
N7870G01 X188.841 Y5.181
N7880G01 X188.842 Y5.181
N7890G01 X188.85 Y5
N7900G01 Y2.35
N7910G01 X192.65 Y2.35
N7920G01 X192.65 Y339.96
N7930G01 X192.609 Y341.163
N7940G01 X192.494 Y342.317
N7950G01 X192.305 Y343.457
N7960G01 X192.042 Y344.578
N7970G01 X193.009 Y344.837
N7980G01 X192.656 Y345.999
N7990G01 X192.229 Y347.134
N8000G01 X191.73 Y348.239
N8010G01 X191.159 Y349.309
N8020G01 X190.519 Y350.343
N8030G01 X189.81 Y351.335
N8040G01 X189.034 Y352.282
N8050G01 X188.177 Y353.197
N8060G01 X38.203 Y503.17
N8070G01 X37.289 Y504.024
N8080G01 X36.341 Y504.798
N8090G01 X35.347 Y505.506
N8100G01 X34.313 Y506.147
N8110G01 X33.238 Y506.72
N8120G01 X32.132 Y507.221
N8130G01 X30.995 Y507.65
N8140G01 X29.831 Y508.004
N8150G01 X28.647 Y508.283
N8160G01 X27.443 Y508.485
N8170G01 X26.227 Y508.607
N8180G01 X25.022 Y508.648
N8190G01 X22.467 Y508.476
N8200G01 X20.041 Y507.98
N8210G01 X17.741 Y507.181
N8220G01 X15.589 Y506.101
N8230G01 X13.605 Y504.761
N8240G01 X11.814 Y503.185
N8250G01 X10.237 Y501.394
N8260G01 X8.898 Y499.411
N8270G01 X7.818 Y497.258
N8280G01 X7.019 Y494.958
N8290G01 X6.523 Y492.532
N8300G01 X6.35 Y489.954
N8310G01 X6.35 Y1.35
N8320G01 X12.15 Y1.35
N8330G01 X12.149 Y494.766
N8340G01 X12.156 Y494.898
N8350G01 X12.175 Y495.029
N8360G01 X12.208 Y495.158
N8370G01 X12.252 Y495.282
N8380G01 X12.309 Y495.402
N8390G01 X12.377 Y495.516
N8400G01 X12.456 Y495.622
N8410G01 X12.545 Y495.72
N8420G01 X21.144 Y504.32
N8430G01 X21.243 Y504.409
N8440G01 X21.349 Y504.488
N8450G01 X21.463 Y504.556
N8460G01 X21.582 Y504.612
N8470G01 X21.707 Y504.657
N8480G01 X21.836 Y504.689
N8490G01 X21.967 Y504.709
N8500G01 X22.099 Y504.715
N8510G01 X22.231 Y504.709
N8520G01 X22.362 Y504.689
N8530G01 X22.491 Y504.657
N8540G01 X22.616 Y504.612
N8550G01 X22.735 Y504.556
N8560G01 X22.849 Y504.488
N8570G01 X22.956 Y504.409
N8580G01 X23.054 Y504.32
N8590G01 X181.188 Y346.145
N8600G01 X187.454 Y339.919
N8610G01 X187.543 Y339.821
N8620G01 X187.622 Y339.715
N8630G01 X187.69 Y339.601
N8640G01 X187.747 Y339.481
N8650G01 X187.791 Y339.357
N8660G01 X187.85 Y21.557
N8670G01 X187.843 Y21.424
N8680G01 X187.824 Y21.293
N8690G01 X187.791 Y21.165
N8700G01 X187.747 Y21.04
N8710G01 X187.69 Y20.92
N8720G01 X187.622 Y20.807
N8730G01 X187.543 Y20.7
N8740G01 X187.454 Y20.602
N8750G01 X187.356 Y20.513
N8760G01 X187.25 Y20.434
N8770G01 X187.136 Y20.366
N8780G01 X187.016 Y20.309
N8790G01 X186.891 Y20.265
N8800G01 X186.763 Y20.233
N8810G01 X186.632 Y20.213
N8820G01 X186.5 Y20.207
N8830G01 X14.85 Y20.249
N8840G01 X14.849 Y6.35
N8850G01 X186.5
N8860G01 X186.632 Y6.343
N8870G01 X186.763 Y6.324
N8880G01 X186.891 Y6.292
N8890G01 X187.016 Y6.247
N8900G01 X187.136 Y6.19
N8910G01 X187.25 Y6.122
N8920G01 X187.356 Y6.043
N8930G01 X187.454 Y5.954
N8940G01 X187.543 Y5.856
N8950G01 X187.622 Y5.75
N8960G01 X187.69 Y5.636
N8970G01 X187.747 Y5.516
N8980G01 X187.791 Y5.392
N8990G01 X187.824 Y5.263
N9000G01 X187.843 Y5.132
N9010G01 X187.85 Y5
N9020G01 Y1.35
N9030G01 X193.65 Y1.35
N9040G01 X193.65 Y339.977
N9050G01 X193.607 Y341.23
N9060G01 X193.486 Y342.449
N9070G01 X193.286 Y343.653
N9080G01 X193.009 Y344.837
N9090 G00 Z9.999
N9100 G00 X8.35 Y3.35
N9110G01 Z-2 F500
N9120G01 X10.15 Y3.35 F1000
N9130G01 X10.149 Y494.766
N9140G01 X10.153 Y494.871
N9150G01 X10.152 Y494.871
N9160G01 X10.166 Y495.094
N9170G01 X10.196 Y495.316
N9180G01 X10.197 Y495.316
N9190G01 X10.214 Y495.419
N9200G01 X10.238 Y495.521
N9210G01 X10.237 Y495.521
N9220G01 X10.294 Y495.738
N9230G01 X10.367 Y495.95
N9240G01 X10.368 Y495.949
N9250G01 X10.405 Y496.048
N9260G01 X10.498 Y496.251
N9270G01 X10.499 Y496.251
N9280G01 X10.545 Y496.345
N9290G01 X10.598 Y496.435
N9300G01 X10.597 Y496.436
N9310G01 X10.714 Y496.627
N9320G01 X10.846 Y496.808
N9330G01 X10.846 Y496.807
N9340G01 X10.91 Y496.891
N9350G01 X10.938 Y496.922
N9360G01 X10.938 Y496.923
N9370G01 X11.059 Y497.058
N9380G01 X11.097 Y497.099
N9390G01 X19.73 Y505.734
N9400G01 X19.762 Y505.762
N9410G01 X19.761 Y505.763
N9420G01 X19.765 Y505.767
N9430G01 X18.521 Y505.335
N9440G01 X16.601 Y504.372
N9450G01 X14.83 Y503.176
N9460G01 X13.231 Y501.768
N9470G01 X11.823 Y500.168
N9480G01 X10.627 Y498.398
N9490G01 X9.664 Y496.478
N9500G01 X8.952 Y494.428
N9510G01 X8.509 Y492.264
N9520G01 X8.35 Y489.887
N9530G01 X8.35 Y3.35
N9540 G00 Z9.999
N9550 G00 X20.85 Y12.35
N9560G01 Z-2 F500
N9570G01 X186.499 Y12.35 F1000
N9580G01 X186.755 Y12.343
N9590G01 X186.776 Y12.341
N9600G01 X186.776 Y12.342
N9610G01 X186.855 Y12.338
N9620G01 X186.855 Y12.339
N9630G01 X187.188 Y12.317
N9640G01 X187.188 Y12.316
N9650G01 X187.22 Y12.314
N9660G01 X187.252 Y12.31
N9670G01 X187.252 Y12.311
N9680G01 X187.326 Y12.301
N9690G01 X187.326 Y12.302
N9700G01 X187.586 Y12.267
N9710G01 X187.586 Y12.266
N9720G01 X187.65 Y12.256
N9730G01 Y14.3
N9740G01 X187.58 Y14.29
N9750G01 X187.58 Y14.289
N9760G01 X187.22 Y14.242
N9770G01 X186.858 Y14.217
N9780G01 X186.857 Y14.218
N9790G01 X186.612 Y14.209
N9800G01 X20.85 Y14.248
N9810G01 Y12.35
N9820G01 X19.85 Y11.35
N9830G01 X186.499 Y11.35
N9840G01 X186.727 Y11.343
N9850G01 X186.789 Y11.34
N9860G01 X186.789 Y11.341
N9870G01 X187.122 Y11.319
N9880G01 X187.193 Y11.31
N9890G01 X187.193 Y11.311
N9900G01 X187.453 Y11.276
N9910G01 X187.453 Y11.275
N9920G01 X187.705 Y11.234
N9930G01 X187.705 Y11.233
N9940G01 X187.738 Y11.228
N9950G01 X187.848 Y11.204
N9960G01 X187.931 Y11.183
N9970G01 X187.931 Y11.184
N9980G01 X188.003 Y11.166
N9990G01 X188.004 Y11.167
N10000G01 X188.179 Y11.122
N10010G01 X188.179 Y11.121
N10020G01 X188.343 Y11.076
N10030G01 X188.504 Y11.022
N10040G01 X188.504 Y11.023
N10050G01 X188.65 Y10.973
N10060G01 Y15.584
N10070G01 X188.452 Y15.516
N10080G01 X188.452 Y15.517
N10090G01 X188.375 Y15.49
N10100G01 X188.374 Y15.491
N10110G01 X188.343 Y15.48
N10120G01 X188.31 Y15.472
N10130G01 X188.311 Y15.471
N10140G01 X188.232 Y15.45
N10150G01 X188.232 Y15.449
N10160G01 X188.015 Y15.392
N10170G01 X188.015 Y15.393
N10180G01 X187.771 Y15.336
N10190G01 X187.771 Y15.337
N10200G01 X187.738 Y15.329
N10210G01 X187.705 Y15.324
N10220G01 X187.705 Y15.323
N10230G01 X187.45 Y15.281
N10240G01 X187.451 Y15.28
N10250G01 X187.122 Y15.237
N10260G01 X186.791 Y15.215
N10270G01 X186.791 Y15.216
N10280G01 X186.573 Y15.208
N10290G01 X19.85 Y15.248
N10300G01 Y11.35
N10310G01 X18.85 Y10.35
N10320G01 X186.499 Y10.35
N10330G01 X186.726 Y10.342
N10340G01 X186.727 Y10.343
N10350G01 X186.988 Y10.327
N10360G01 X186.988 Y10.326
N10370G01 X187.024 Y10.324
N10380G01 X187.059 Y10.319
N10390G01 X187.059 Y10.32
N10400G01 X187.319 Y10.285
N10410G01 X187.319 Y10.284
N10420G01 X187.543 Y10.247
N10430G01 X187.635 Y10.227
N10440G01 X187.687 Y10.213
N10450G01 X187.687 Y10.215
N10460G01 X187.754 Y10.198
N10470G01 X187.754 Y10.199
N10480G01 X187.93 Y10.154
N10490G01 X187.93 Y10.153
N10500G01 X188.019 Y10.129
N10510G01 X188.019 Y10.128
N10520G01 X188.053 Y10.119
N10530G01 X188.085 Y10.108
N10540G01 X188.086 Y10.109
N10550G01 X188.173 Y10.079
N10560G01 X188.174 Y10.08
N10570G01 X188.345 Y10.02
N10580G01 X188.345 Y10.019
N10590G01 X188.547 Y9.942
N10600G01 X188.751 Y9.85
N10610G01 X188.752 Y9.851
N10620G01 X188.953 Y9.753
N10630G01 X188.953 Y9.752
N10640G01 X189.021 Y9.718
N10650G01 X189.209 Y9.61
N10660G01 X189.209 Y9.611
N10670G01 X189.364 Y9.517
N10680G01 X189.364 Y9.516
N10690G01 X189.472 Y9.448
N10700G01 X189.65 Y9.321
N10710G01 Y17.236
N10720G01 X189.5 Y17.128
N10730G01 X189.5 Y17.129
N10740G01 X189.472 Y17.108
N10750G01 X189.407 Y17.068
N10760G01 X189.407 Y17.067
N10770G01 X189.216 Y16.95
N10780G01 X189.216 Y16.951
N10790G01 X189.021 Y16.838
N10800G01 X188.953 Y16.804
N10810G01 X188.953 Y16.803
N10820G01 X188.752 Y16.706
N10830G01 X188.751 Y16.707
N10840G01 X188.547 Y16.614
N10850G01 X188.337 Y16.535
N10860G01 X188.337 Y16.534
N10870G01 X188.126 Y16.461
N10880G01 X188.125 Y16.462
N10890G01 X188.053 Y16.437
N10900G01 X187.978 Y16.417
N10910G01 X187.979 Y16.416
N10920G01 X187.762 Y16.359
N10930G01 X187.762 Y16.361
N10940G01 X187.543 Y16.309
N10950G01 X187.319 Y16.273
N10960G01 X187.319 Y16.272
N10970G01 X187.024 Y16.232
N10980G01 X186.727 Y16.213
N10990G01 X186.726 Y16.214
N11000G01 X186.537 Y16.207
N11010G01 X18.85 Y16.248
N11020G01 Y10.35
N11030G01 X17.85 Y9.35
N11040G01 X186.499 Y9.35
N11050G01 X186.664 Y9.344
N11060G01 X186.664 Y9.345
N11070G01 X186.926 Y9.329
N11080G01 X187.186 Y9.294
N11090G01 X187.186 Y9.293
N11100G01 X187.348 Y9.266
N11110G01 X187.42 Y9.25
N11120G01 X187.438 Y9.245
N11130G01 X187.444 Y9.245
N11140G01 X187.504 Y9.229
N11150G01 X187.505 Y9.231
N11160G01 X187.681 Y9.185
N11170G01 X187.68 Y9.184
N11180G01 X187.762 Y9.162
N11190G01 X187.843 Y9.135
N11200G01 X187.843 Y9.136
N11210G01 X188.014 Y9.076
N11220G01 X188.014 Y9.075
N11230G01 X188.164 Y9.019
N11240G01 X188.314 Y8.95
N11250G01 X188.314 Y8.951
N11260G01 X188.516 Y8.853
N11270G01 X188.515 Y8.852
N11280G01 X188.55 Y8.836
N11290G01 X188.689 Y8.756
N11300G01 X188.689 Y8.757
N11310G01 X188.845 Y8.662
N11320G01 X188.844 Y8.661
N11330G01 X188.916 Y8.617
N11340G01 X189.05 Y8.52
N11350G01 X189.051 Y8.521
N11360G01 X189.259 Y8.362
N11370G01 X189.456 Y8.189
N11380G01 X189.455 Y8.188
N11390G01 X189.575 Y8.076
N11400G01 X189.688 Y7.955
N11410G01 X189.689 Y7.956
N11420G01 X189.862 Y7.759
N11430G01 X190.021 Y7.551
N11440G01 X190.02 Y7.55
N11450G01 X190.116 Y7.416
N11460G01 X190.203 Y7.276
N11470G01 X190.204 Y7.277
N11480G01 X190.317 Y7.084
N11490G01 X190.316 Y7.083
N11500G01 X190.336 Y7.05
N11510G01 X190.352 Y7.016
N11520G01 X190.353 Y7.016
N11530G01 X190.451 Y6.815
N11540G01 X190.45 Y6.814
N11550G01 X190.518 Y6.664
N11560G01 X190.57 Y6.526
N11570G01 X190.571 Y6.527
N11580G01 X190.616 Y6.402
N11590G01 X190.615 Y6.402
N11600G01 X190.65 Y6.301
N11610G01 X190.65 Y20.255
N11620G01 X190.577 Y20.046
N11630G01 X190.576 Y20.046
N11640G01 X190.518 Y19.892
N11650G01 X190.45 Y19.742
N11660G01 X190.451 Y19.742
N11670G01 X190.353 Y19.54
N11680G01 X190.352 Y19.541
N11690G01 X190.336 Y19.506
N11700G01 X190.316 Y19.473
N11710G01 X190.317 Y19.473
N11720G01 X190.204 Y19.279
N11730G01 X190.203 Y19.28
N11740G01 X190.116 Y19.14
N11750G01 X190.02 Y19.006
N11760G01 X190.021 Y19.006
N11770G01 X189.862 Y18.797
N11780G01 X189.689 Y18.6
N11790G01 X189.688 Y18.601
N11800G01 X189.575 Y18.481
N11810G01 X189.455 Y18.368
N11820G01 X189.456 Y18.368
N11830G01 X189.259 Y18.194
N11840G01 X189.051 Y18.035
N11850G01 X189.05 Y18.036
N11860G01 X188.916 Y17.94
N11870G01 X188.883 Y17.92
N11880G01 X188.884 Y17.919
N11890G01 X188.693 Y17.802
N11900G01 X188.692 Y17.803
N11910G01 X188.55 Y17.72
N11920G01 X188.515 Y17.704
N11930G01 X188.516 Y17.703
N11940G01 X188.314 Y17.605
N11950G01 X188.314 Y17.606
N11960G01 X188.164 Y17.538
N11970G01 X188.01 Y17.48
N11980G01 X188.011 Y17.479
N11990G01 X187.799 Y17.406
N12000G01 X187.798 Y17.407
N12010G01 X187.762 Y17.394
N12020G01 X187.725 Y17.385
N12030G01 X187.725 Y17.384
N12040G01 X187.509 Y17.327
N12050G01 X187.508 Y17.328
N12060G01 X187.348 Y17.29
N12070G01 X187.186 Y17.264
N12080G01 X187.186 Y17.263
N12090G01 X186.926 Y17.228
N12100G01 X186.664 Y17.211
N12110G01 X186.664 Y17.212
N12120G01 X186.537 Y17.207
N12130G01 X17.85 Y17.249
N12140G01 Y9.35
N12150 G00 Z9.999
N12160 G00 X190.649 Y20.258
N12170G01 Z-2 F500
N12180G01 X190.65 Y20.259 F1000
N12190G01 X190.649 Y20.258
N12200 G00 Z9.999
N12210 G00 X189.109 Y343.914
N12220G01 Z-2 F500
N12230G01 X188.866 Y344.712 F1000
N12240G01 X188.531 Y345.605
N12250G01 X188.139 Y346.472
N12260G01 X187.691 Y347.313
N12270G01 X187.188 Y348.124
N12280G01 X186.632 Y348.902
N12290G01 X186.023 Y349.645
N12300G01 X185.303 Y350.414
N12310G01 X35.424 Y500.294
N12320G01 X34.658 Y501.008
N12330G01 X33.912 Y501.617
N12340G01 X33.13 Y502.174
N12350G01 X32.317 Y502.678
N12360G01 X31.469 Y503.13
N12370G01 X30.6 Y503.523
N12380G01 X29.704 Y503.861
N12390G01 X28.928 Y504.098
N12400G01 X184.011 Y348.979
N12410G01 X189.109 Y343.914
N12420G01 X190.11 Y344.059
N12430G01 X189.814 Y345.034
N12440G01 X189.455 Y345.987
N12450G01 X189.036 Y346.914
N12460G01 X188.558 Y347.812
N12470G01 X188.021 Y348.678
N12480G01 X187.426 Y349.51
N12490G01 X186.776 Y350.304
N12500G01 X186.021 Y351.11
N12510G01 X36.118 Y501.013
N12520G01 X35.316 Y501.762
N12530G01 X34.519 Y502.412
N12540G01 X33.684 Y503.008
N12550G01 X32.816 Y503.545
N12560G01 X31.912 Y504.027
N12570G01 X30.983 Y504.448
N12580G01 X30.026 Y504.808
N12590G01 X29.05 Y505.106
N12600G01 X28.055 Y505.34
N12610G01 X27.045 Y505.509
N12620G01 X26.024 Y505.612
N12630G01 X25.999 Y505.613
N12640G01 X183.305 Y348.271
N12650G01 X189.568 Y342.048
N12660G01 X189.688 Y341.92
N12670G01 X189.689 Y341.921
N12680G01 X189.862 Y341.724
N12690G01 X190.021 Y341.516
N12700G01 X190.02 Y341.515
N12710G01 X190.095 Y341.413
N12720G01 X190.094 Y341.412
N12730G01 X190.116 Y341.382
N12740G01 X190.136 Y341.349
N12750G01 X190.137 Y341.35
N12760G01 X190.203 Y341.242
N12770G01 X190.204 Y341.242
N12780G01 X190.336 Y341.015
N12790G01 X190.451 Y340.78
N12800G01 X190.45 Y340.779
N12810G01 X190.503 Y340.664
N12820G01 X190.502 Y340.663
N12830G01 X190.518 Y340.629
N12840G01 X190.531 Y340.595
N12850G01 X190.532 Y340.595
N12860G01 X190.57 Y340.492
N12870G01 X190.571 Y340.492
N12880G01 X190.616 Y340.367
N12890G01 X190.615 Y340.367
N12900G01 X190.631 Y340.321
N12910G01 X190.637 Y340.299
N12920G01 X190.612 Y341.03
N12930G01 X190.51 Y342.054
N12940G01 X190.342 Y343.065
N12950G01 X190.11 Y344.059
N12960G01 X191.076 Y344.319
N12970G01 X190.761 Y345.356
N12980G01 X190.38 Y346.369
N12990G01 X189.934 Y347.356
N13000G01 X189.425 Y348.311
N13010G01 X188.854 Y349.233
N13020G01 X188.221 Y350.119
N13030G01 X187.529 Y350.963
N13040G01 X186.74 Y351.806
N13050G01 X36.814 Y501.732
N13060G01 X35.973 Y502.516
N13070G01 X35.126 Y503.207
N13080G01 X34.238 Y503.84
N13090G01 X33.315 Y504.412
N13100G01 X32.354 Y504.924
N13110G01 X31.366 Y505.372
N13120G01 X30.349 Y505.756
N13130G01 X29.31 Y506.072
N13140G01 X28.252 Y506.321
N13150G01 X27.178 Y506.501
N13160G01 X26.092 Y506.61
N13170G01 X25.055 Y506.646
N13180G01 X23.215 Y506.522
N13190G01 X23.381 Y506.46
N13200G01 X23.419 Y506.442
N13210G01 X23.42 Y506.443
N13220G01 X23.584 Y506.367
N13230G01 X23.584 Y506.366
N13240G01 X23.678 Y506.32
N13250G01 X23.769 Y506.267
N13260G01 X23.77 Y506.268
N13270G01 X23.96 Y506.151
N13280G01 X24.142 Y506.019
N13290G01 X24.141 Y506.018
N13300G01 X24.224 Y505.955
N13310G01 X24.392 Y505.806
N13320G01 X182.6 Y347.561
N13330G01 X188.864 Y341.338
N13340G01 X188.94 Y341.257
N13350G01 X188.941 Y341.258
N13360G01 X189.089 Y341.09
N13370G01 X189.225 Y340.911
N13380G01 X189.224 Y340.911
N13390G01 X189.285 Y340.826
N13400G01 X189.34 Y340.737
N13410G01 X189.341 Y340.737
N13420G01 X189.454 Y340.544
N13430G01 X189.552 Y340.343
N13440G01 X189.551 Y340.342
N13450G01 X189.595 Y340.247
N13460G01 X189.629 Y340.155
N13470G01 X189.63 Y340.155
N13480G01 X189.675 Y340.03
N13490G01 X189.85 Y21.557
N13500G01 X189.841 Y21.333
N13510G01 X189.84 Y21.333
N13520G01 X189.833 Y21.228
N13530G01 X189.819 Y21.124
N13540G01 X189.82 Y21.124
N13550G01 X189.785 Y20.903
N13560G01 X189.733 Y20.685
N13570G01 X189.732 Y20.686
N13580G01 X189.705 Y20.584
N13590G01 X189.632 Y20.373
N13600G01 X189.631 Y20.373
N13610G01 X189.595 Y20.275
N13620G01 X189.551 Y20.179
N13630G01 X189.552 Y20.179
N13640G01 X189.454 Y19.977
N13650G01 X189.341 Y19.784
N13660G01 X189.34 Y19.785
N13670G01 X189.285 Y19.695
N13680G01 X189.223 Y19.611
N13690G01 X189.224 Y19.61
N13700G01 X189.089 Y19.431
N13710G01 X188.941 Y19.264
N13720G01 X188.94 Y19.265
N13730G01 X188.868 Y19.188
N13740G01 X188.791 Y19.117
N13750G01 X188.792 Y19.116
N13760G01 X188.625 Y18.967
N13770G01 X188.446 Y18.832
N13780G01 X188.446 Y18.833
N13790G01 X188.361 Y18.771
N13800G01 X188.17 Y18.654
N13810G01 X188.169 Y18.655
N13820G01 X188.079 Y18.602
N13830G01 X187.877 Y18.504
N13840G01 X187.877 Y18.505
N13850G01 X187.782 Y18.462
N13860G01 X187.683 Y18.425
N13870G01 X187.684 Y18.424
N13880G01 X187.472 Y18.351
N13890G01 X187.255 Y18.294
N13900G01 X187.255 Y18.295
N13910G01 X187.153 Y18.271
N13920G01 X187.05 Y18.254
N13930G01 X187.05 Y18.253
N13940G01 X186.828 Y18.223
N13950G01 X186.604 Y18.209
N13960G01 X186.604 Y18.211
N13970G01 X186.5 Y18.207
N13980G01 X16.85 Y18.249
N13990G01 Y8.35
N14000G01 X186.499 Y8.35
N14010G01 X186.604 Y8.346
N14020G01 X186.604 Y8.347
N14030G01 X186.828 Y8.334
N14040G01 X187.05 Y8.303
N14050G01 X187.05 Y8.302
N14060G01 X187.153 Y8.285
N14070G01 X187.255 Y8.261
N14080G01 X187.255 Y8.262
N14090G01 X187.431 Y8.217
N14100G01 X187.431 Y8.216
N14110G01 X187.472 Y8.205
N14120G01 X187.512 Y8.191
N14130G01 X187.512 Y8.192
N14140G01 X187.684 Y8.132
N14150G01 X187.683 Y8.131
N14160G01 X187.782 Y8.095
N14170G01 X187.877 Y8.051
N14180G01 X187.877 Y8.052
N14190G01 X188.079 Y7.954
N14200G01 X188.169 Y7.901
N14210G01 X188.17 Y7.902
N14220G01 X188.325 Y7.808
N14230G01 X188.324 Y7.807
N14240G01 X188.361 Y7.785
N14250G01 X188.446 Y7.724
N14260G01 X188.446 Y7.725
N14270G01 X188.625 Y7.589
N14280G01 X188.792 Y7.441
N14290G01 X188.792 Y7.44
N14300G01 X188.868 Y7.368
N14310G01 X188.94 Y7.292
N14320G01 X188.941 Y7.292
N14330G01 X189.089 Y7.125
N14340G01 X189.224 Y6.946
N14350G01 X189.223 Y6.946
N14360G01 X189.285 Y6.861
N14370G01 X189.34 Y6.771
N14380G01 X189.341 Y6.772
N14390G01 X189.454 Y6.579
N14400G01 X189.552 Y6.378
N14410G01 X189.551 Y6.377
N14420G01 X189.595 Y6.282
N14430G01 X189.629 Y6.19
N14440G01 X189.63 Y6.19
N14450G01 X189.674 Y6.065
N14460G01 X189.673 Y6.065
N14470G01 X189.705 Y5.972
N14480G01 X189.732 Y5.871
N14490G01 X189.733 Y5.871
N14500G01 X189.776 Y5.695
N14510G01 X189.775 Y5.694
N14520G01 X189.785 Y5.653
N14530G01 X189.791 Y5.611
N14540G01 X189.793 Y5.611
N14550G01 X189.82 Y5.432
N14560G01 X189.819 Y5.432
N14570G01 X189.833 Y5.328
N14580G01 X189.84 Y5.223
N14590G01 X189.841 Y5.223
N14600G01 X189.849 Y5.042
N14610G01 X189.847 Y5.042
N14620G01 X189.85 Y5
N14630G01 Y3.35
N14640G01 X191.65 Y3.35
N14650G01 X191.65 Y339.944
N14660G01 X191.611 Y341.097
N14670G01 X191.502 Y342.185
N14680G01 X191.323 Y343.261
N14690G01 X191.076 Y344.319
N14700G01 X192.042 Y344.578
N14710G01 X191.709 Y345.677
N14720G01 X191.305 Y346.752
N14730G01 X190.832 Y347.797
N14740G01 X190.292 Y348.81
N14750G01 X189.686 Y349.788
N14760G01 X189.015 Y350.727
N14770G01 X188.281 Y351.623
N14780G01 X187.459 Y352.501
N14790G01 X37.509 Y502.451
N14800G01 X36.631 Y503.27
N14810G01 X35.734 Y504.003
N14820G01 X34.793 Y504.673
N14830G01 X33.814 Y505.28
N14840G01 X32.796 Y505.822
N14850G01 X31.749 Y506.296
N14860G01 X30.672 Y506.703
N14870G01 X29.571 Y507.038
N14880G01 X28.449 Y507.302
N14890G01 X27.31 Y507.493
N14900G01 X26.16 Y507.609
N14910G01 X25.038 Y507.647
N14920G01 X22.601 Y507.483
N14930G01 X20.306 Y507.014
N14940G01 X18.131 Y506.258
N14950G01 X16.095 Y505.237
N14960G01 X14.218 Y503.969
N14970G01 X12.523 Y502.477
N14980G01 X11.03 Y500.781
N14990G01 X9.763 Y498.904
N15000G01 X8.741 Y496.868
N15010G01 X7.985 Y494.693
N15020G01 X7.516 Y492.398
N15030G01 X7.35 Y489.921
N15040G01 X7.35 Y2.35
N15050G01 X11.15 Y2.35
N15060G01 X11.149 Y494.766
N15070G01 X11.152 Y494.815
N15080G01 X11.151 Y494.815
N15090G01 X11.161 Y494.996
N15100G01 X11.186 Y495.176
N15110G01 X11.187 Y495.176
N15120G01 X11.195 Y495.224
N15130G01 X11.207 Y495.272
N15140G01 X11.205 Y495.272
N15150G01 X11.251 Y495.448
N15160G01 X11.311 Y495.619
N15170G01 X11.312 Y495.619
N15180G01 X11.328 Y495.665
N15190G01 X11.405 Y495.83
N15200G01 X11.406 Y495.829
N15210G01 X11.427 Y495.873
N15220G01 X11.452 Y495.916
N15230G01 X11.451 Y495.916
N15240G01 X11.546 Y496.071
N15250G01 X11.653 Y496.218
N15260G01 X11.654 Y496.217
N15270G01 X11.683 Y496.257
N15280G01 X11.804 Y496.392
N15290G01 X20.437 Y505.027
N15300G01 X20.571 Y505.15
N15310G01 X20.572 Y505.149
N15320G01 X20.608 Y505.182
N15330G01 X20.648 Y505.211
N15340G01 X20.647 Y505.212
N15350G01 X20.793 Y505.319
N15360G01 X20.948 Y505.414
N15370G01 X20.949 Y505.412
N15380G01 X20.991 Y505.438
N15390G01 X21.036 Y505.459
N15400G01 X21.035 Y505.46
N15410G01 X21.2 Y505.536
N15420G01 X21.246 Y505.553
N15430G01 X21.245 Y505.554
N15440G01 X21.417 Y505.614
N15450G01 X21.593 Y505.659
N15460G01 X21.593 Y505.658
N15470G01 X21.641 Y505.67
N15480G01 X21.689 Y505.677
N15490G01 X21.689 Y505.679
N15500G01 X21.869 Y505.704
N15510G01 X22.05 Y505.714
N15520G01 X22.05 Y505.713
N15530G01 X22.099 Y505.715
N15540G01 X22.148 Y505.713
N15550G01 X22.148 Y505.714
N15560G01 X22.329 Y505.704
N15570G01 X22.509 Y505.679
N15580G01 X22.509 Y505.677
N15590G01 X22.558 Y505.67
N15600G01 X22.605 Y505.658
N15610G01 X22.605 Y505.659
N15620G01 X22.781 Y505.614
N15630G01 X22.953 Y505.554
N15640G01 X22.952 Y505.553
N15650G01 X22.998 Y505.536
N15660G01 X23.163 Y505.46
N15670G01 X23.162 Y505.459
N15680G01 X23.207 Y505.438
N15690G01 X23.249 Y505.412
N15700G01 X23.25 Y505.414
N15710G01 X23.405 Y505.319
N15720G01 X23.551 Y505.212
N15730G01 X23.55 Y505.211
N15740G01 X23.59 Y505.182
N15750G01 X23.725 Y505.061
N15760G01 X181.895 Y346.852
N15770G01 X188.159 Y340.629
N15780G01 X188.194 Y340.59
N15790G01 X188.195 Y340.591
N15800G01 X188.316 Y340.456
N15810G01 X188.425 Y340.311
N15820G01 X188.424 Y340.31
N15830G01 X188.453 Y340.27
N15840G01 X188.479 Y340.228
N15850G01 X188.48 Y340.229
N15860G01 X188.572 Y340.073
N15870G01 X188.651 Y339.909
N15880G01 X188.65 Y339.909
N15890G01 X188.671 Y339.864
N15900G01 X188.687 Y339.818
N15910G01 X188.688 Y339.818
N15920G01 X188.733 Y339.694
N15930G01 X188.85 Y21.557
N15940G01 X188.842 Y21.375
N15950G01 X188.841 Y21.375
N15960G01 X188.838 Y21.326
N15970G01 X188.831 Y21.278
N15980G01 X188.832 Y21.278
N15990G01 X188.804 Y21.098
N16000G01 X188.761 Y20.922
N16010G01 X188.76 Y20.922
N16020G01 X188.748 Y20.874
N16030G01 X188.688 Y20.703
N16040G01 X188.687 Y20.704
N16050G01 X188.671 Y20.657
N16060G01 X188.65 Y20.613
N16070G01 X188.651 Y20.612
N16080G01 X188.572 Y20.449
N16090G01 X188.48 Y20.293
N16100G01 X188.479 Y20.293
N16110G01 X188.453 Y20.251
N16120G01 X188.424 Y20.212
N16130G01 X188.425 Y20.211
N16140G01 X188.316 Y20.066
N16150G01 X188.195 Y19.931
N16160G01 X188.194 Y19.931
N16170G01 X188.161 Y19.895
N16180G01 X188.125 Y19.862
N16190G01 X188.126 Y19.861
N16200G01 X187.99 Y19.74
N16210G01 X187.845 Y19.631
N16220G01 X187.845 Y19.632
N16230G01 X187.805 Y19.603
N16240G01 X187.65 Y19.508
N16250G01 X187.649 Y19.509
N16260G01 X187.607 Y19.484
N16270G01 X187.444 Y19.405
N16280G01 X187.443 Y19.407
N16290G01 X187.399 Y19.386
N16300G01 X187.353 Y19.369
N16310G01 X187.353 Y19.368
N16320G01 X187.182 Y19.308
N16330G01 X187.006 Y19.263
N16340G01 X187.006 Y19.264
N16350G01 X186.958 Y19.252
N16360G01 X186.909 Y19.245
N16370G01 X186.91 Y19.243
N16380G01 X186.73 Y19.218
N16390G01 X186.549 Y19.208
N16400G01 X186.549 Y19.209
N16410G01 X186.5 Y19.207
N16420G01 X15.85 Y19.249
N16430G01 Y7.35
N16440G01 X186.499 Y7.35
N16450G01 X186.549 Y7.347
N16460G01 X186.549 Y7.348
N16470G01 X186.73 Y7.338
N16480G01 X186.91 Y7.313
N16490G01 X186.909 Y7.312
N16500G01 X186.958 Y7.305
N16510G01 X187.006 Y7.293
N16520G01 X187.006 Y7.294
N16530G01 X187.182 Y7.248
N16540G01 X187.353 Y7.188
N16550G01 X187.353 Y7.187
N16560G01 X187.399 Y7.171
N16570G01 X187.443 Y7.15
N16580G01 X187.444 Y7.151
N16590G01 X187.607 Y7.072
N16600G01 X187.649 Y7.047
N16610G01 X187.65 Y7.048
N16620G01 X187.805 Y6.954
N16630G01 X187.845 Y6.924
N16640G01 X187.845 Y6.925
N16650G01 X187.99 Y6.816
N16660G01 X188.126 Y6.695
N16670G01 X188.125 Y6.694
N16680G01 X188.161 Y6.661
N16690G01 X188.194 Y6.625
N16700G01 X188.195 Y6.626
N16710G01 X188.316 Y6.49
N16720G01 X188.425 Y6.345
N16730G01 X188.424 Y6.345
N16740G01 X188.453 Y6.305
N16750G01 X188.479 Y6.263
N16760G01 X188.48 Y6.264
N16770G01 X188.572 Y6.107
N16780G01 X188.651 Y5.944
N16790G01 X188.65 Y5.943
N16800G01 X188.671 Y5.899
N16810G01 X188.687 Y5.853
N16820G01 X188.688 Y5.853
N16830G01 X188.733 Y5.728
N16840G01 X188.732 Y5.728
N16850G01 X188.748 Y5.682
N16860G01 X188.76 Y5.634
N16870G01 X188.761 Y5.635
N16880G01 X188.804 Y5.458
N16890G01 X188.832 Y5.279
N16900G01 X188.831 Y5.279
N16910G01 X188.838 Y5.23
N16920G01 X188.841 Y5.181
N16930G01 X188.842 Y5.181
N16940G01 X188.85 Y5
N16950G01 Y2.35
N16960G01 X192.65 Y2.35
N16970G01 X192.65 Y339.96
N16980G01 X192.609 Y341.163
N16990G01 X192.494 Y342.317
N17000G01 X192.305 Y343.457
N17010G01 X192.042 Y344.578
N17020G01 X193.009 Y344.837
N17030G01 X192.656 Y345.999
N17040G01 X192.229 Y347.134
N17050G01 X191.73 Y348.239
N17060G01 X191.159 Y349.309
N17070G01 X190.519 Y350.343
N17080G01 X189.81 Y351.335
N17090G01 X189.034 Y352.282
N17100G01 X188.177 Y353.197
N17110G01 X38.203 Y503.17
N17120G01 X37.289 Y504.024
N17130G01 X36.341 Y504.798
N17140G01 X35.347 Y505.506
N17150G01 X34.313 Y506.147
N17160G01 X33.238 Y506.72
N17170G01 X32.132 Y507.221
N17180G01 X30.995 Y507.65
N17190G01 X29.831 Y508.004
N17200G01 X28.647 Y508.283
N17210G01 X27.443 Y508.485
N17220G01 X26.227 Y508.607
N17230G01 X25.022 Y508.648
N17240G01 X22.467 Y508.476
N17250G01 X20.041 Y507.98
N17260G01 X17.741 Y507.181
N17270G01 X15.589 Y506.101
N17280G01 X13.605 Y504.761
N17290G01 X11.814 Y503.185
N17300G01 X10.237 Y501.394
N17310G01 X8.898 Y499.411
N17320G01 X7.818 Y497.258
N17330G01 X7.019 Y494.958
N17340G01 X6.523 Y492.532
N17350G01 X6.35 Y489.954
N17360G01 X6.35 Y1.35
N17370G01 X12.15 Y1.35
N17380G01 X12.149 Y494.766
N17390G01 X12.156 Y494.898
N17400G01 X12.175 Y495.029
N17410G01 X12.208 Y495.158
N17420G01 X12.252 Y495.282
N17430G01 X12.309 Y495.402
N17440G01 X12.377 Y495.516
N17450G01 X12.456 Y495.622
N17460G01 X12.545 Y495.72
N17470G01 X21.144 Y504.32
N17480G01 X21.243 Y504.409
N17490G01 X21.349 Y504.488
N17500G01 X21.463 Y504.556
N17510G01 X21.582 Y504.612
N17520G01 X21.707 Y504.657
N17530G01 X21.836 Y504.689
N17540G01 X21.967 Y504.709
N17550G01 X22.099 Y504.715
N17560G01 X22.231 Y504.709
N17570G01 X22.362 Y504.689
N17580G01 X22.491 Y504.657
N17590G01 X22.616 Y504.612
N17600G01 X22.735 Y504.556
N17610G01 X22.849 Y504.488
N17620G01 X22.956 Y504.409
N17630G01 X23.054 Y504.32
N17640G01 X181.188 Y346.145
N17650G01 X187.454 Y339.919
N17660G01 X187.543 Y339.821
N17670G01 X187.622 Y339.715
N17680G01 X187.69 Y339.601
N17690G01 X187.747 Y339.481
N17700G01 X187.791 Y339.357
N17710G01 X187.85 Y21.557
N17720G01 X187.843 Y21.424
N17730G01 X187.824 Y21.293
N17740G01 X187.791 Y21.165
N17750G01 X187.747 Y21.04
N17760G01 X187.69 Y20.92
N17770G01 X187.622 Y20.807
N17780G01 X187.543 Y20.7
N17790G01 X187.454 Y20.602
N17800G01 X187.356 Y20.513
N17810G01 X187.25 Y20.434
N17820G01 X187.136 Y20.366
N17830G01 X187.016 Y20.309
N17840G01 X186.891 Y20.265
N17850G01 X186.763 Y20.233
N17860G01 X186.632 Y20.213
N17870G01 X186.5 Y20.207
N17880G01 X14.85 Y20.249
N17890G01 X14.849 Y6.35
N17900G01 X186.5
N17910G01 X186.632 Y6.343
N17920G01 X186.763 Y6.324
N17930G01 X186.891 Y6.292
N17940G01 X187.016 Y6.247
N17950G01 X187.136 Y6.19
N17960G01 X187.25 Y6.122
N17970G01 X187.356 Y6.043
N17980G01 X187.454 Y5.954
N17990G01 X187.543 Y5.856
N18000G01 X187.622 Y5.75
N18010G01 X187.69 Y5.636
N18020G01 X187.747 Y5.516
N18030G01 X187.791 Y5.392
N18040G01 X187.824 Y5.263
N18050G01 X187.843 Y5.132
N18060G01 X187.85 Y5
N18070G01 Y1.35
N18080G01 X193.65 Y1.35
N18090G01 X193.65 Y339.977
N18100G01 X193.607 Y341.23
N18110G01 X193.486 Y342.449
N18120G01 X193.286 Y343.653
N18130G01 X193.009 Y344.837
N18140 G00 Z9.999
N18150 G00 X8.35 Y3.35
N18160G01 Z-3 F500
N18170G01 X10.15 Y3.35 F1000
N18180G01 X10.149 Y494.766
N18190G01 X10.153 Y494.871
N18200G01 X10.152 Y494.871
N18210G01 X10.166 Y495.094
N18220G01 X10.196 Y495.316
N18230G01 X10.197 Y495.316
N18240G01 X10.214 Y495.419
N18250G01 X10.238 Y495.521
N18260G01 X10.237 Y495.521
N18270G01 X10.294 Y495.738
N18280G01 X10.367 Y495.95
N18290G01 X10.368 Y495.949
N18300G01 X10.405 Y496.048
N18310G01 X10.498 Y496.251
N18320G01 X10.499 Y496.251
N18330G01 X10.545 Y496.345
N18340G01 X10.598 Y496.435
N18350G01 X10.597 Y496.436
N18360G01 X10.714 Y496.627
N18370G01 X10.846 Y496.808
N18380G01 X10.846 Y496.807
N18390G01 X10.91 Y496.891
N18400G01 X10.938 Y496.922
N18410G01 X10.938 Y496.923
N18420G01 X11.059 Y497.058
N18430G01 X11.097 Y497.099
N18440G01 X19.73 Y505.734
N18450G01 X19.762 Y505.762
N18460G01 X19.761 Y505.763
N18470G01 X19.765 Y505.767
N18480G01 X18.521 Y505.335
N18490G01 X16.601 Y504.372
N18500G01 X14.83 Y503.176
N18510G01 X13.231 Y501.768
N18520G01 X11.823 Y500.168
N18530G01 X10.627 Y498.398
N18540G01 X9.664 Y496.478
N18550G01 X8.952 Y494.428
N18560G01 X8.509 Y492.264
N18570G01 X8.35 Y489.887
N18580G01 X8.35 Y3.35
N18590 G00 Z9.999
N18600 G00 X20.85 Y12.35
N18610G01 Z-3 F500
N18620G01 X186.499 Y12.35 F1000
N18630G01 X186.755 Y12.343
N18640G01 X186.776 Y12.341
N18650G01 X186.776 Y12.342
N18660G01 X186.855 Y12.338
N18670G01 X186.855 Y12.339
N18680G01 X187.188 Y12.317
N18690G01 X187.188 Y12.316
N18700G01 X187.22 Y12.314
N18710G01 X187.252 Y12.31
N18720G01 X187.252 Y12.311
N18730G01 X187.326 Y12.301
N18740G01 X187.326 Y12.302
N18750G01 X187.586 Y12.267
N18760G01 X187.586 Y12.266
N18770G01 X187.65 Y12.256
N18780G01 Y14.3
N18790G01 X187.58 Y14.29
N18800G01 X187.58 Y14.289
N18810G01 X187.22 Y14.242
N18820G01 X186.858 Y14.217
N18830G01 X186.857 Y14.218
N18840G01 X186.612 Y14.209
N18850G01 X20.85 Y14.248
N18860G01 Y12.35
N18870G01 X19.85 Y11.35
N18880G01 X186.499 Y11.35
N18890G01 X186.727 Y11.343
N18900G01 X186.789 Y11.34
N18910G01 X186.789 Y11.341
N18920G01 X187.122 Y11.319
N18930G01 X187.193 Y11.31
N18940G01 X187.193 Y11.311
N18950G01 X187.453 Y11.276
N18960G01 X187.453 Y11.275
N18970G01 X187.705 Y11.234
N18980G01 X187.705 Y11.233
N18990G01 X187.738 Y11.228
N19000G01 X187.848 Y11.204
N19010G01 X187.931 Y11.183
N19020G01 X187.931 Y11.184
N19030G01 X188.003 Y11.166
N19040G01 X188.004 Y11.167
N19050G01 X188.179 Y11.122
N19060G01 X188.179 Y11.121
N19070G01 X188.343 Y11.076
N19080G01 X188.504 Y11.022
N19090G01 X188.504 Y11.023
N19100G01 X188.65 Y10.973
N19110G01 Y15.584
N19120G01 X188.452 Y15.516
N19130G01 X188.452 Y15.517
N19140G01 X188.375 Y15.49
N19150G01 X188.374 Y15.491
N19160G01 X188.343 Y15.48
N19170G01 X188.31 Y15.472
N19180G01 X188.311 Y15.471
N19190G01 X188.232 Y15.45
N19200G01 X188.232 Y15.449
N19210G01 X188.015 Y15.392
N19220G01 X188.015 Y15.393
N19230G01 X187.771 Y15.336
N19240G01 X187.771 Y15.337
N19250G01 X187.738 Y15.329
N19260G01 X187.705 Y15.324
N19270G01 X187.705 Y15.323
N19280G01 X187.45 Y15.281
N19290G01 X187.451 Y15.28
N19300G01 X187.122 Y15.237
N19310G01 X186.791 Y15.215
N19320G01 X186.791 Y15.216
N19330G01 X186.573 Y15.208
N19340G01 X19.85 Y15.248
N19350G01 Y11.35
N19360G01 X18.85 Y10.35
N19370G01 X186.499 Y10.35
N19380G01 X186.726 Y10.342
N19390G01 X186.727 Y10.343
N19400G01 X186.988 Y10.327
N19410G01 X186.988 Y10.326
N19420G01 X187.024 Y10.324
N19430G01 X187.059 Y10.319
N19440G01 X187.059 Y10.32
N19450G01 X187.319 Y10.285
N19460G01 X187.319 Y10.284
N19470G01 X187.543 Y10.247
N19480G01 X187.635 Y10.227
N19490G01 X187.687 Y10.213
N19500G01 X187.687 Y10.215
N19510G01 X187.754 Y10.198
N19520G01 X187.754 Y10.199
N19530G01 X187.93 Y10.154
N19540G01 X187.93 Y10.153
N19550G01 X188.019 Y10.129
N19560G01 X188.019 Y10.128
N19570G01 X188.053 Y10.119
N19580G01 X188.085 Y10.108
N19590G01 X188.086 Y10.109
N19600G01 X188.173 Y10.079
N19610G01 X188.174 Y10.08
N19620G01 X188.345 Y10.02
N19630G01 X188.345 Y10.019
N19640G01 X188.547 Y9.942
N19650G01 X188.751 Y9.85
N19660G01 X188.752 Y9.851
N19670G01 X188.953 Y9.753
N19680G01 X188.953 Y9.752
N19690G01 X189.021 Y9.718
N19700G01 X189.209 Y9.61
N19710G01 X189.209 Y9.611
N19720G01 X189.364 Y9.517
N19730G01 X189.364 Y9.516
N19740G01 X189.472 Y9.448
N19750G01 X189.65 Y9.321
N19760G01 Y17.236
N19770G01 X189.5 Y17.128
N19780G01 X189.5 Y17.129
N19790G01 X189.472 Y17.108
N19800G01 X189.407 Y17.068
N19810G01 X189.407 Y17.067
N19820G01 X189.216 Y16.95
N19830G01 X189.216 Y16.951
N19840G01 X189.021 Y16.838
N19850G01 X188.953 Y16.804
N19860G01 X188.953 Y16.803
N19870G01 X188.752 Y16.706
N19880G01 X188.751 Y16.707
N19890G01 X188.547 Y16.614
N19900G01 X188.337 Y16.535
N19910G01 X188.337 Y16.534
N19920G01 X188.126 Y16.461
N19930G01 X188.125 Y16.462
N19940G01 X188.053 Y16.437
N19950G01 X187.978 Y16.417
N19960G01 X187.979 Y16.416
N19970G01 X187.762 Y16.359
N19980G01 X187.762 Y16.361
N19990G01 X187.543 Y16.309
N20000G01 X187.319 Y16.273
N20010G01 X187.319 Y16.272
N20020G01 X187.024 Y16.232
N20030G01 X186.727 Y16.213
N20040G01 X186.726 Y16.214
N20050G01 X186.537 Y16.207
N20060G01 X18.85 Y16.248
N20070G01 Y10.35
N20080G01 X17.85 Y9.35
N20090G01 X186.499 Y9.35
N20100G01 X186.664 Y9.344
N20110G01 X186.664 Y9.345
N20120G01 X186.926 Y9.329
N20130G01 X187.186 Y9.294
N20140G01 X187.186 Y9.293
N20150G01 X187.348 Y9.266
N20160G01 X187.42 Y9.25
N20170G01 X187.438 Y9.245
N20180G01 X187.444 Y9.245
N20190G01 X187.504 Y9.229
N20200G01 X187.505 Y9.231
N20210G01 X187.681 Y9.185
N20220G01 X187.68 Y9.184
N20230G01 X187.762 Y9.162
N20240G01 X187.843 Y9.135
N20250G01 X187.843 Y9.136
N20260G01 X188.014 Y9.076
N20270G01 X188.014 Y9.075
N20280G01 X188.164 Y9.019
N20290G01 X188.314 Y8.95
N20300G01 X188.314 Y8.951
N20310G01 X188.516 Y8.853
N20320G01 X188.515 Y8.852
N20330G01 X188.55 Y8.836
N20340G01 X188.689 Y8.756
N20350G01 X188.689 Y8.757
N20360G01 X188.845 Y8.662
N20370G01 X188.844 Y8.661
N20380G01 X188.916 Y8.617
N20390G01 X189.05 Y8.52
N20400G01 X189.051 Y8.521
N20410G01 X189.259 Y8.362
N20420G01 X189.456 Y8.189
N20430G01 X189.455 Y8.188
N20440G01 X189.575 Y8.076
N20450G01 X189.688 Y7.955
N20460G01 X189.689 Y7.956
N20470G01 X189.862 Y7.759
N20480G01 X190.021 Y7.551
N20490G01 X190.02 Y7.55
N20500G01 X190.116 Y7.416
N20510G01 X190.203 Y7.276
N20520G01 X190.204 Y7.277
N20530G01 X190.317 Y7.084
N20540G01 X190.316 Y7.083
N20550G01 X190.336 Y7.05
N20560G01 X190.352 Y7.016
N20570G01 X190.353 Y7.016
N20580G01 X190.451 Y6.815
N20590G01 X190.45 Y6.814
N20600G01 X190.518 Y6.664
N20610G01 X190.57 Y6.526
N20620G01 X190.571 Y6.527
N20630G01 X190.616 Y6.402
N20640G01 X190.615 Y6.402
N20650G01 X190.65 Y6.301
N20660G01 X190.65 Y20.255
N20670G01 X190.577 Y20.046
N20680G01 X190.576 Y20.046
N20690G01 X190.518 Y19.892
N20700G01 X190.45 Y19.742
N20710G01 X190.451 Y19.742
N20720G01 X190.353 Y19.54
N20730G01 X190.352 Y19.541
N20740G01 X190.336 Y19.506
N20750G01 X190.316 Y19.473
N20760G01 X190.317 Y19.473
N20770G01 X190.204 Y19.279
N20780G01 X190.203 Y19.28
N20790G01 X190.116 Y19.14
N20800G01 X190.02 Y19.006
N20810G01 X190.021 Y19.006
N20820G01 X189.862 Y18.797
N20830G01 X189.689 Y18.6
N20840G01 X189.688 Y18.601
N20850G01 X189.575 Y18.481
N20860G01 X189.455 Y18.368
N20870G01 X189.456 Y18.368
N20880G01 X189.259 Y18.194
N20890G01 X189.051 Y18.035
N20900G01 X189.05 Y18.036
N20910G01 X188.916 Y17.94
N20920G01 X188.883 Y17.92
N20930G01 X188.884 Y17.919
N20940G01 X188.693 Y17.802
N20950G01 X188.692 Y17.803
N20960G01 X188.55 Y17.72
N20970G01 X188.515 Y17.704
N20980G01 X188.516 Y17.703
N20990G01 X188.314 Y17.605
N21000G01 X188.314 Y17.606
N21010G01 X188.164 Y17.538
N21020G01 X188.01 Y17.48
N21030G01 X188.011 Y17.479
N21040G01 X187.799 Y17.406
N21050G01 X187.798 Y17.407
N21060G01 X187.762 Y17.394
N21070G01 X187.725 Y17.385
N21080G01 X187.725 Y17.384
N21090G01 X187.509 Y17.327
N21100G01 X187.508 Y17.328
N21110G01 X187.348 Y17.29
N21120G01 X187.186 Y17.264
N21130G01 X187.186 Y17.263
N21140G01 X186.926 Y17.228
N21150G01 X186.664 Y17.211
N21160G01 X186.664 Y17.212
N21170G01 X186.537 Y17.207
N21180G01 X17.85 Y17.249
N21190G01 Y9.35
N21200 G00 Z9.999
N21210 G00 X190.649 Y20.258
N21220G01 Z-3 F500
N21230G01 X190.65 Y20.259 F1000
N21240G01 X190.649 Y20.258
N21250 G00 Z9.999
N21260 G00 X189.109 Y343.914
N21270G01 Z-3 F500
N21280G01 X188.866 Y344.712 F1000
N21290G01 X188.531 Y345.605
N21300G01 X188.139 Y346.472
N21310G01 X187.691 Y347.313
N21320G01 X187.188 Y348.124
N21330G01 X186.632 Y348.902
N21340G01 X186.023 Y349.645
N21350G01 X185.303 Y350.414
N21360G01 X35.424 Y500.294
N21370G01 X34.658 Y501.008
N21380G01 X33.912 Y501.617
N21390G01 X33.13 Y502.174
N21400G01 X32.317 Y502.678
N21410G01 X31.469 Y503.13
N21420G01 X30.6 Y503.523
N21430G01 X29.704 Y503.861
N21440G01 X28.928 Y504.098
N21450G01 X184.011 Y348.979
N21460G01 X189.109 Y343.914
N21470G01 X190.11 Y344.059
N21480G01 X189.814 Y345.034
N21490G01 X189.455 Y345.987
N21500G01 X189.036 Y346.914
N21510G01 X188.558 Y347.812
N21520G01 X188.021 Y348.678
N21530G01 X187.426 Y349.51
N21540G01 X186.776 Y350.304
N21550G01 X186.021 Y351.11
N21560G01 X36.118 Y501.013
N21570G01 X35.316 Y501.762
N21580G01 X34.519 Y502.412
N21590G01 X33.684 Y503.008
N21600G01 X32.816 Y503.545
N21610G01 X31.912 Y504.027
N21620G01 X30.983 Y504.448
N21630G01 X30.026 Y504.808
N21640G01 X29.05 Y505.106
N21650G01 X28.055 Y505.34
N21660G01 X27.045 Y505.509
N21670G01 X26.024 Y505.612
N21680G01 X25.999 Y505.613
N21690G01 X183.305 Y348.271
N21700G01 X189.568 Y342.048
N21710G01 X189.688 Y341.92
N21720G01 X189.689 Y341.921
N21730G01 X189.862 Y341.724
N21740G01 X190.021 Y341.516
N21750G01 X190.02 Y341.515
N21760G01 X190.095 Y341.413
N21770G01 X190.094 Y341.412
N21780G01 X190.116 Y341.382
N21790G01 X190.136 Y341.349
N21800G01 X190.137 Y341.35
N21810G01 X190.203 Y341.242
N21820G01 X190.204 Y341.242
N21830G01 X190.336 Y341.015
N21840G01 X190.451 Y340.78
N21850G01 X190.45 Y340.779
N21860G01 X190.503 Y340.664
N21870G01 X190.502 Y340.663
N21880G01 X190.518 Y340.629
N21890G01 X190.531 Y340.595
N21900G01 X190.532 Y340.595
N21910G01 X190.57 Y340.492
N21920G01 X190.571 Y340.492
N21930G01 X190.616 Y340.367
N21940G01 X190.615 Y340.367
N21950G01 X190.631 Y340.321
N21960G01 X190.637 Y340.299
N21970G01 X190.612 Y341.03
N21980G01 X190.51 Y342.054
N21990G01 X190.342 Y343.065
N22000G01 X190.11 Y344.059
N22010G01 X191.076 Y344.319
N22020G01 X190.761 Y345.356
N22030G01 X190.38 Y346.369
N22040G01 X189.934 Y347.356
N22050G01 X189.425 Y348.311
N22060G01 X188.854 Y349.233
N22070G01 X188.221 Y350.119
N22080G01 X187.529 Y350.963
N22090G01 X186.74 Y351.806
N22100G01 X36.814 Y501.732
N22110G01 X35.973 Y502.516
N22120G01 X35.126 Y503.207
N22130G01 X34.238 Y503.84
N22140G01 X33.315 Y504.412
N22150G01 X32.354 Y504.924
N22160G01 X31.366 Y505.372
N22170G01 X30.349 Y505.756
N22180G01 X29.31 Y506.072
N22190G01 X28.252 Y506.321
N22200G01 X27.178 Y506.501
N22210G01 X26.092 Y506.61
N22220G01 X25.055 Y506.646
N22230G01 X23.215 Y506.522
N22240G01 X23.381 Y506.46
N22250G01 X23.419 Y506.442
N22260G01 X23.42 Y506.443
N22270G01 X23.584 Y506.367
N22280G01 X23.584 Y506.366
N22290G01 X23.678 Y506.32
N22300G01 X23.769 Y506.267
N22310G01 X23.77 Y506.268
N22320G01 X23.96 Y506.151
N22330G01 X24.142 Y506.019
N22340G01 X24.141 Y506.018
N22350G01 X24.224 Y505.955
N22360G01 X24.392 Y505.806
N22370G01 X182.6 Y347.561
N22380G01 X188.864 Y341.338
N22390G01 X188.94 Y341.257
N22400G01 X188.941 Y341.258
N22410G01 X189.089 Y341.09
N22420G01 X189.225 Y340.911
N22430G01 X189.224 Y340.911
N22440G01 X189.285 Y340.826
N22450G01 X189.34 Y340.737
N22460G01 X189.341 Y340.737
N22470G01 X189.454 Y340.544
N22480G01 X189.552 Y340.343
N22490G01 X189.551 Y340.342
N22500G01 X189.595 Y340.247
N22510G01 X189.629 Y340.155
N22520G01 X189.63 Y340.155
N22530G01 X189.675 Y340.03
N22540G01 X189.85 Y21.557
N22550G01 X189.841 Y21.333
N22560G01 X189.84 Y21.333
N22570G01 X189.833 Y21.228
N22580G01 X189.819 Y21.124
N22590G01 X189.82 Y21.124
N22600G01 X189.785 Y20.903
N22610G01 X189.733 Y20.685
N22620G01 X189.732 Y20.686
N22630G01 X189.705 Y20.584
N22640G01 X189.632 Y20.373
N22650G01 X189.631 Y20.373
N22660G01 X189.595 Y20.275
N22670G01 X189.551 Y20.179
N22680G01 X189.552 Y20.179
N22690G01 X189.454 Y19.977
N22700G01 X189.341 Y19.784
N22710G01 X189.34 Y19.785
N22720G01 X189.285 Y19.695
N22730G01 X189.223 Y19.611
N22740G01 X189.224 Y19.61
N22750G01 X189.089 Y19.431
N22760G01 X188.941 Y19.264
N22770G01 X188.94 Y19.265
N22780G01 X188.868 Y19.188
N22790G01 X188.791 Y19.117
N22800G01 X188.792 Y19.116
N22810G01 X188.625 Y18.967
N22820G01 X188.446 Y18.832
N22830G01 X188.446 Y18.833
N22840G01 X188.361 Y18.771
N22850G01 X188.17 Y18.654
N22860G01 X188.169 Y18.655
N22870G01 X188.079 Y18.602
N22880G01 X187.877 Y18.504
N22890G01 X187.877 Y18.505
N22900G01 X187.782 Y18.462
N22910G01 X187.683 Y18.425
N22920G01 X187.684 Y18.424
N22930G01 X187.472 Y18.351
N22940G01 X187.255 Y18.294
N22950G01 X187.255 Y18.295
N22960G01 X187.153 Y18.271
N22970G01 X187.05 Y18.254
N22980G01 X187.05 Y18.253
N22990G01 X186.828 Y18.223
N23000G01 X186.604 Y18.209
N23010G01 X186.604 Y18.211
N23020G01 X186.5 Y18.207
N23030G01 X16.85 Y18.249
N23040G01 Y8.35
N23050G01 X186.499 Y8.35
N23060G01 X186.604 Y8.346
N23070G01 X186.604 Y8.347
N23080G01 X186.828 Y8.334
N23090G01 X187.05 Y8.303
N23100G01 X187.05 Y8.302
N23110G01 X187.153 Y8.285
N23120G01 X187.255 Y8.261
N23130G01 X187.255 Y8.262
N23140G01 X187.431 Y8.217
N23150G01 X187.431 Y8.216
N23160G01 X187.472 Y8.205
N23170G01 X187.512 Y8.191
N23180G01 X187.512 Y8.192
N23190G01 X187.684 Y8.132
N23200G01 X187.683 Y8.131
N23210G01 X187.782 Y8.095
N23220G01 X187.877 Y8.051
N23230G01 X187.877 Y8.052
N23240G01 X188.079 Y7.954
N23250G01 X188.169 Y7.901
N23260G01 X188.17 Y7.902
N23270G01 X188.325 Y7.808
N23280G01 X188.324 Y7.807
N23290G01 X188.361 Y7.785
N23300G01 X188.446 Y7.724
N23310G01 X188.446 Y7.725
N23320G01 X188.625 Y7.589
N23330G01 X188.792 Y7.441
N23340G01 X188.792 Y7.44
N23350G01 X188.868 Y7.368
N23360G01 X188.94 Y7.292
N23370G01 X188.941 Y7.292
N23380G01 X189.089 Y7.125
N23390G01 X189.224 Y6.946
N23400G01 X189.223 Y6.946
N23410G01 X189.285 Y6.861
N23420G01 X189.34 Y6.771
N23430G01 X189.341 Y6.772
N23440G01 X189.454 Y6.579
N23450G01 X189.552 Y6.378
N23460G01 X189.551 Y6.377
N23470G01 X189.595 Y6.282
N23480G01 X189.629 Y6.19
N23490G01 X189.63 Y6.19
N23500G01 X189.674 Y6.065
N23510G01 X189.673 Y6.065
N23520G01 X189.705 Y5.972
N23530G01 X189.732 Y5.871
N23540G01 X189.733 Y5.871
N23550G01 X189.776 Y5.695
N23560G01 X189.775 Y5.694
N23570G01 X189.785 Y5.653
N23580G01 X189.791 Y5.611
N23590G01 X189.793 Y5.611
N23600G01 X189.82 Y5.432
N23610G01 X189.819 Y5.432
N23620G01 X189.833 Y5.328
N23630G01 X189.84 Y5.223
N23640G01 X189.841 Y5.223
N23650G01 X189.849 Y5.042
N23660G01 X189.847 Y5.042
N23670G01 X189.85 Y5
N23680G01 Y3.35
N23690G01 X191.65 Y3.35
N23700G01 X191.65 Y339.944
N23710G01 X191.611 Y341.097
N23720G01 X191.502 Y342.185
N23730G01 X191.323 Y343.261
N23740G01 X191.076 Y344.319
N23750G01 X192.042 Y344.578
N23760G01 X191.709 Y345.677
N23770G01 X191.305 Y346.752
N23780G01 X190.832 Y347.797
N23790G01 X190.292 Y348.81
N23800G01 X189.686 Y349.788
N23810G01 X189.015 Y350.727
N23820G01 X188.281 Y351.623
N23830G01 X187.459 Y352.501
N23840G01 X37.509 Y502.451
N23850G01 X36.631 Y503.27
N23860G01 X35.734 Y504.003
N23870G01 X34.793 Y504.673
N23880G01 X33.814 Y505.28
N23890G01 X32.796 Y505.822
N23900G01 X31.749 Y506.296
N23910G01 X30.672 Y506.703
N23920G01 X29.571 Y507.038
N23930G01 X28.449 Y507.302
N23940G01 X27.31 Y507.493
N23950G01 X26.16 Y507.609
N23960G01 X25.038 Y507.647
N23970G01 X22.601 Y507.483
N23980G01 X20.306 Y507.014
N23990G01 X18.131 Y506.258
N24000G01 X16.095 Y505.237
N24010G01 X14.218 Y503.969
N24020G01 X12.523 Y502.477
N24030G01 X11.03 Y500.781
N24040G01 X9.763 Y498.904
N24050G01 X8.741 Y496.868
N24060G01 X7.985 Y494.693
N24070G01 X7.516 Y492.398
N24080G01 X7.35 Y489.921
N24090G01 X7.35 Y2.35
N24100G01 X11.15 Y2.35
N24110G01 X11.149 Y494.766
N24120G01 X11.152 Y494.815
N24130G01 X11.151 Y494.815
N24140G01 X11.161 Y494.996
N24150G01 X11.186 Y495.176
N24160G01 X11.187 Y495.176
N24170G01 X11.195 Y495.224
N24180G01 X11.207 Y495.272
N24190G01 X11.205 Y495.272
N24200G01 X11.251 Y495.448
N24210G01 X11.311 Y495.619
N24220G01 X11.312 Y495.619
N24230G01 X11.328 Y495.665
N24240G01 X11.405 Y495.83
N24250G01 X11.406 Y495.829
N24260G01 X11.427 Y495.873
N24270G01 X11.452 Y495.916
N24280G01 X11.451 Y495.916
N24290G01 X11.546 Y496.071
N24300G01 X11.653 Y496.218
N24310G01 X11.654 Y496.217
N24320G01 X11.683 Y496.257
N24330G01 X11.804 Y496.392
N24340G01 X20.437 Y505.027
N24350G01 X20.571 Y505.15
N24360G01 X20.572 Y505.149
N24370G01 X20.608 Y505.182
N24380G01 X20.648 Y505.211
N24390G01 X20.647 Y505.212
N24400G01 X20.793 Y505.319
N24410G01 X20.948 Y505.414
N24420G01 X20.949 Y505.412
N24430G01 X20.991 Y505.438
N24440G01 X21.036 Y505.459
N24450G01 X21.035 Y505.46
N24460G01 X21.2 Y505.536
N24470G01 X21.246 Y505.553
N24480G01 X21.245 Y505.554
N24490G01 X21.417 Y505.614
N24500G01 X21.593 Y505.659
N24510G01 X21.593 Y505.658
N24520G01 X21.641 Y505.67
N24530G01 X21.689 Y505.677
N24540G01 X21.689 Y505.679
N24550G01 X21.869 Y505.704
N24560G01 X22.05 Y505.714
N24570G01 X22.05 Y505.713
N24580G01 X22.099 Y505.715
N24590G01 X22.148 Y505.713
N24600G01 X22.148 Y505.714
N24610G01 X22.329 Y505.704
N24620G01 X22.509 Y505.679
N24630G01 X22.509 Y505.677
N24640G01 X22.558 Y505.67
N24650G01 X22.605 Y505.658
N24660G01 X22.605 Y505.659
N24670G01 X22.781 Y505.614
N24680G01 X22.953 Y505.554
N24690G01 X22.952 Y505.553
N24700G01 X22.998 Y505.536
N24710G01 X23.163 Y505.46
N24720G01 X23.162 Y505.459
N24730G01 X23.207 Y505.438
N24740G01 X23.249 Y505.412
N24750G01 X23.25 Y505.414
N24760G01 X23.405 Y505.319
N24770G01 X23.551 Y505.212
N24780G01 X23.55 Y505.211
N24790G01 X23.59 Y505.182
N24800G01 X23.725 Y505.061
N24810G01 X181.895 Y346.852
N24820G01 X188.159 Y340.629
N24830G01 X188.194 Y340.59
N24840G01 X188.195 Y340.591
N24850G01 X188.316 Y340.456
N24860G01 X188.425 Y340.311
N24870G01 X188.424 Y340.31
N24880G01 X188.453 Y340.27
N24890G01 X188.479 Y340.228
N24900G01 X188.48 Y340.229
N24910G01 X188.572 Y340.073
N24920G01 X188.651 Y339.909
N24930G01 X188.65 Y339.909
N24940G01 X188.671 Y339.864
N24950G01 X188.687 Y339.818
N24960G01 X188.688 Y339.818
N24970G01 X188.733 Y339.694
N24980G01 X188.85 Y21.557
N24990G01 X188.842 Y21.375
N25000G01 X188.841 Y21.375
N25010G01 X188.838 Y21.326
N25020G01 X188.831 Y21.278
N25030G01 X188.832 Y21.278
N25040G01 X188.804 Y21.098
N25050G01 X188.761 Y20.922
N25060G01 X188.76 Y20.922
N25070G01 X188.748 Y20.874
N25080G01 X188.688 Y20.703
N25090G01 X188.687 Y20.704
N25100G01 X188.671 Y20.657
N25110G01 X188.65 Y20.613
N25120G01 X188.651 Y20.612
N25130G01 X188.572 Y20.449
N25140G01 X188.48 Y20.293
N25150G01 X188.479 Y20.293
N25160G01 X188.453 Y20.251
N25170G01 X188.424 Y20.212
N25180G01 X188.425 Y20.211
N25190G01 X188.316 Y20.066
N25200G01 X188.195 Y19.931
N25210G01 X188.194 Y19.931
N25220G01 X188.161 Y19.895
N25230G01 X188.125 Y19.862
N25240G01 X188.126 Y19.861
N25250G01 X187.99 Y19.74
N25260G01 X187.845 Y19.631
N25270G01 X187.845 Y19.632
N25280G01 X187.805 Y19.603
N25290G01 X187.65 Y19.508
N25300G01 X187.649 Y19.509
N25310G01 X187.607 Y19.484
N25320G01 X187.444 Y19.405
N25330G01 X187.443 Y19.407
N25340G01 X187.399 Y19.386
N25350G01 X187.353 Y19.369
N25360G01 X187.353 Y19.368
N25370G01 X187.182 Y19.308
N25380G01 X187.006 Y19.263
N25390G01 X187.006 Y19.264
N25400G01 X186.958 Y19.252
N25410G01 X186.909 Y19.245
N25420G01 X186.91 Y19.243
N25430G01 X186.73 Y19.218
N25440G01 X186.549 Y19.208
N25450G01 X186.549 Y19.209
N25460G01 X186.5 Y19.207
N25470G01 X15.85 Y19.249
N25480G01 Y7.35
N25490G01 X186.499 Y7.35
N25500G01 X186.549 Y7.347
N25510G01 X186.549 Y7.348
N25520G01 X186.73 Y7.338
N25530G01 X186.91 Y7.313
N25540G01 X186.909 Y7.312
N25550G01 X186.958 Y7.305
N25560G01 X187.006 Y7.293
N25570G01 X187.006 Y7.294
N25580G01 X187.182 Y7.248
N25590G01 X187.353 Y7.188
N25600G01 X187.353 Y7.187
N25610G01 X187.399 Y7.171
N25620G01 X187.443 Y7.15
N25630G01 X187.444 Y7.151
N25640G01 X187.607 Y7.072
N25650G01 X187.649 Y7.047
N25660G01 X187.65 Y7.048
N25670G01 X187.805 Y6.954
N25680G01 X187.845 Y6.924
N25690G01 X187.845 Y6.925
N25700G01 X187.99 Y6.816
N25710G01 X188.126 Y6.695
N25720G01 X188.125 Y6.694
N25730G01 X188.161 Y6.661
N25740G01 X188.194 Y6.625
N25750G01 X188.195 Y6.626
N25760G01 X188.316 Y6.49
N25770G01 X188.425 Y6.345
N25780G01 X188.424 Y6.345
N25790G01 X188.453 Y6.305
N25800G01 X188.479 Y6.263
N25810G01 X188.48 Y6.264
N25820G01 X188.572 Y6.107
N25830G01 X188.651 Y5.944
N25840G01 X188.65 Y5.943
N25850G01 X188.671 Y5.899
N25860G01 X188.687 Y5.853
N25870G01 X188.688 Y5.853
N25880G01 X188.733 Y5.728
N25890G01 X188.732 Y5.728
N25900G01 X188.748 Y5.682
N25910G01 X188.76 Y5.634
N25920G01 X188.761 Y5.635
N25930G01 X188.804 Y5.458
N25940G01 X188.832 Y5.279
N25950G01 X188.831 Y5.279
N25960G01 X188.838 Y5.23
N25970G01 X188.841 Y5.181
N25980G01 X188.842 Y5.181
N25990G01 X188.85 Y5
N26000G01 Y2.35
N26010G01 X192.65 Y2.35
N26020G01 X192.65 Y339.96
N26030G01 X192.609 Y341.163
N26040G01 X192.494 Y342.317
N26050G01 X192.305 Y343.457
N26060G01 X192.042 Y344.578
N26070G01 X193.009 Y344.837
N26080G01 X192.656 Y345.999
N26090G01 X192.229 Y347.134
N26100G01 X191.73 Y348.239
N26110G01 X191.159 Y349.309
N26120G01 X190.519 Y350.343
N26130G01 X189.81 Y351.335
N26140G01 X189.034 Y352.282
N26150G01 X188.177 Y353.197
N26160G01 X38.203 Y503.17
N26170G01 X37.289 Y504.024
N26180G01 X36.341 Y504.798
N26190G01 X35.347 Y505.506
N26200G01 X34.313 Y506.147
N26210G01 X33.238 Y506.72
N26220G01 X32.132 Y507.221
N26230G01 X30.995 Y507.65
N26240G01 X29.831 Y508.004
N26250G01 X28.647 Y508.283
N26260G01 X27.443 Y508.485
N26270G01 X26.227 Y508.607
N26280G01 X25.022 Y508.648
N26290G01 X22.467 Y508.476
N26300G01 X20.041 Y507.98
N26310G01 X17.741 Y507.181
N26320G01 X15.589 Y506.101
N26330G01 X13.605 Y504.761
N26340G01 X11.814 Y503.185
N26350G01 X10.237 Y501.394
N26360G01 X8.898 Y499.411
N26370G01 X7.818 Y497.258
N26380G01 X7.019 Y494.958
N26390G01 X6.523 Y492.532
N26400G01 X6.35 Y489.954
N26410G01 X6.35 Y1.35
N26420G01 X12.15 Y1.35
N26430G01 X12.149 Y494.766
N26440G01 X12.156 Y494.898
N26450G01 X12.175 Y495.029
N26460G01 X12.208 Y495.158
N26470G01 X12.252 Y495.282
N26480G01 X12.309 Y495.402
N26490G01 X12.377 Y495.516
N26500G01 X12.456 Y495.622
N26510G01 X12.545 Y495.72
N26520G01 X21.144 Y504.32
N26530G01 X21.243 Y504.409
N26540G01 X21.349 Y504.488
N26550G01 X21.463 Y504.556
N26560G01 X21.582 Y504.612
N26570G01 X21.707 Y504.657
N26580G01 X21.836 Y504.689
N26590G01 X21.967 Y504.709
N26600G01 X22.099 Y504.715
N26610G01 X22.231 Y504.709
N26620G01 X22.362 Y504.689
N26630G01 X22.491 Y504.657
N26640G01 X22.616 Y504.612
N26650G01 X22.735 Y504.556
N26660G01 X22.849 Y504.488
N26670G01 X22.956 Y504.409
N26680G01 X23.054 Y504.32
N26690G01 X181.188 Y346.145
N26700G01 X187.454 Y339.919
N26710G01 X187.543 Y339.821
N26720G01 X187.622 Y339.715
N26730G01 X187.69 Y339.601
N26740G01 X187.747 Y339.481
N26750G01 X187.791 Y339.357
N26760G01 X187.85 Y21.557
N26770G01 X187.843 Y21.424
N26780G01 X187.824 Y21.293
N26790G01 X187.791 Y21.165
N26800G01 X187.747 Y21.04
N26810G01 X187.69 Y20.92
N26820G01 X187.622 Y20.807
N26830G01 X187.543 Y20.7
N26840G01 X187.454 Y20.602
N26850G01 X187.356 Y20.513
N26860G01 X187.25 Y20.434
N26870G01 X187.136 Y20.366
N26880G01 X187.016 Y20.309
N26890G01 X186.891 Y20.265
N26900G01 X186.763 Y20.233
N26910G01 X186.632 Y20.213
N26920G01 X186.5 Y20.207
N26930G01 X14.85 Y20.249
N26940G01 X14.849 Y6.35
N26950G01 X186.5
N26960G01 X186.632 Y6.343
N26970G01 X186.763 Y6.324
N26980G01 X186.891 Y6.292
N26990G01 X187.016 Y6.247
N27000G01 X187.136 Y6.19
N27010G01 X187.25 Y6.122
N27020G01 X187.356 Y6.043
N27030G01 X187.454 Y5.954
N27040G01 X187.543 Y5.856
N27050G01 X187.622 Y5.75
N27060G01 X187.69 Y5.636
N27070G01 X187.747 Y5.516
N27080G01 X187.791 Y5.392
N27090G01 X187.824 Y5.263
N27100G01 X187.843 Y5.132
N27110G01 X187.85 Y5
N27120G01 Y1.35
N27130G01 X193.65 Y1.35
N27140G01 X193.65 Y339.977
N27150G01 X193.607 Y341.23
N27160G01 X193.486 Y342.449
N27170G01 X193.286 Y343.653
N27180G01 X193.009 Y344.837
N27190 G00 Z9.999
N27200 G00 X8.35 Y3.35
N27210G01 Z-4 F500
N27220G01 X10.15 Y3.35 F1000
N27230G01 X10.149 Y494.766
N27240G01 X10.153 Y494.871
N27250G01 X10.152 Y494.871
N27260G01 X10.166 Y495.094
N27270G01 X10.196 Y495.316
N27280G01 X10.197 Y495.316
N27290G01 X10.214 Y495.419
N27300G01 X10.238 Y495.521
N27310G01 X10.237 Y495.521
N27320G01 X10.294 Y495.738
N27330G01 X10.367 Y495.95
N27340G01 X10.368 Y495.949
N27350G01 X10.405 Y496.048
N27360G01 X10.498 Y496.251
N27370G01 X10.499 Y496.251
N27380G01 X10.545 Y496.345
N27390G01 X10.598 Y496.435
N27400G01 X10.597 Y496.436
N27410G01 X10.714 Y496.627
N27420G01 X10.846 Y496.808
N27430G01 X10.846 Y496.807
N27440G01 X10.91 Y496.891
N27450G01 X10.938 Y496.922
N27460G01 X10.938 Y496.923
N27470G01 X11.059 Y497.058
N27480G01 X11.097 Y497.099
N27490G01 X19.73 Y505.734
N27500G01 X19.762 Y505.762
N27510G01 X19.761 Y505.763
N27520G01 X19.765 Y505.767
N27530G01 X18.521 Y505.335
N27540G01 X16.601 Y504.372
N27550G01 X14.83 Y503.176
N27560G01 X13.231 Y501.768
N27570G01 X11.823 Y500.168
N27580G01 X10.627 Y498.398
N27590G01 X9.664 Y496.478
N27600G01 X8.952 Y494.428
N27610G01 X8.509 Y492.264
N27620G01 X8.35 Y489.887
N27630G01 X8.35 Y3.35
N27640 G00 Z9.999
N27650 G00 X20.85 Y12.35
N27660G01 Z-4 F500
N27670G01 X186.499 Y12.35 F1000
N27680G01 X186.755 Y12.343
N27690G01 X186.776 Y12.341
N27700G01 X186.776 Y12.342
N27710G01 X186.855 Y12.338
N27720G01 X186.855 Y12.339
N27730G01 X187.188 Y12.317
N27740G01 X187.188 Y12.316
N27750G01 X187.22 Y12.314
N27760G01 X187.252 Y12.31
N27770G01 X187.252 Y12.311
N27780G01 X187.326 Y12.301
N27790G01 X187.326 Y12.302
N27800G01 X187.586 Y12.267
N27810G01 X187.586 Y12.266
N27820G01 X187.65 Y12.256
N27830G01 Y14.3
N27840G01 X187.58 Y14.29
N27850G01 X187.58 Y14.289
N27860G01 X187.22 Y14.242
N27870G01 X186.858 Y14.217
N27880G01 X186.857 Y14.218
N27890G01 X186.612 Y14.209
N27900G01 X20.85 Y14.248
N27910G01 Y12.35
N27920G01 X19.85 Y11.35
N27930G01 X186.499 Y11.35
N27940G01 X186.727 Y11.343
N27950G01 X186.789 Y11.34
N27960G01 X186.789 Y11.341
N27970G01 X187.122 Y11.319
N27980G01 X187.193 Y11.31
N27990G01 X187.193 Y11.311
N28000G01 X187.453 Y11.276
N28010G01 X187.453 Y11.275
N28020G01 X187.705 Y11.234
N28030G01 X187.705 Y11.233
N28040G01 X187.738 Y11.228
N28050G01 X187.848 Y11.204
N28060G01 X187.931 Y11.183
N28070G01 X187.931 Y11.184
N28080G01 X188.003 Y11.166
N28090G01 X188.004 Y11.167
N28100G01 X188.179 Y11.122
N28110G01 X188.179 Y11.121
N28120G01 X188.343 Y11.076
N28130G01 X188.504 Y11.022
N28140G01 X188.504 Y11.023
N28150G01 X188.65 Y10.973
N28160G01 Y15.584
N28170G01 X188.452 Y15.516
N28180G01 X188.452 Y15.517
N28190G01 X188.375 Y15.49
N28200G01 X188.374 Y15.491
N28210G01 X188.343 Y15.48
N28220G01 X188.31 Y15.472
N28230G01 X188.311 Y15.471
N28240G01 X188.232 Y15.45
N28250G01 X188.232 Y15.449
N28260G01 X188.015 Y15.392
N28270G01 X188.015 Y15.393
N28280G01 X187.771 Y15.336
N28290G01 X187.771 Y15.337
N28300G01 X187.738 Y15.329
N28310G01 X187.705 Y15.324
N28320G01 X187.705 Y15.323
N28330G01 X187.45 Y15.281
N28340G01 X187.451 Y15.28
N28350G01 X187.122 Y15.237
N28360G01 X186.791 Y15.215
N28370G01 X186.791 Y15.216
N28380G01 X186.573 Y15.208
N28390G01 X19.85 Y15.248
N28400G01 Y11.35
N28410G01 X18.85 Y10.35
N28420G01 X186.499 Y10.35
N28430G01 X186.726 Y10.342
N28440G01 X186.727 Y10.343
N28450G01 X186.988 Y10.327
N28460G01 X186.988 Y10.326
N28470G01 X187.024 Y10.324
N28480G01 X187.059 Y10.319
N28490G01 X187.059 Y10.32
N28500G01 X187.319 Y10.285
N28510G01 X187.319 Y10.284
N28520G01 X187.543 Y10.247
N28530G01 X187.635 Y10.227
N28540G01 X187.687 Y10.213
N28550G01 X187.687 Y10.215
N28560G01 X187.754 Y10.198
N28570G01 X187.754 Y10.199
N28580G01 X187.93 Y10.154
N28590G01 X187.93 Y10.153
N28600G01 X188.019 Y10.129
N28610G01 X188.019 Y10.128
N28620G01 X188.053 Y10.119
N28630G01 X188.085 Y10.108
N28640G01 X188.086 Y10.109
N28650G01 X188.173 Y10.079
N28660G01 X188.174 Y10.08
N28670G01 X188.345 Y10.02
N28680G01 X188.345 Y10.019
N28690G01 X188.547 Y9.942
N28700G01 X188.751 Y9.85
N28710G01 X188.752 Y9.851
N28720G01 X188.953 Y9.753
N28730G01 X188.953 Y9.752
N28740G01 X189.021 Y9.718
N28750G01 X189.209 Y9.61
N28760G01 X189.209 Y9.611
N28770G01 X189.364 Y9.517
N28780G01 X189.364 Y9.516
N28790G01 X189.472 Y9.448
N28800G01 X189.65 Y9.321
N28810G01 Y17.236
N28820G01 X189.5 Y17.128
N28830G01 X189.5 Y17.129
N28840G01 X189.472 Y17.108
N28850G01 X189.407 Y17.068
N28860G01 X189.407 Y17.067
N28870G01 X189.216 Y16.95
N28880G01 X189.216 Y16.951
N28890G01 X189.021 Y16.838
N28900G01 X188.953 Y16.804
N28910G01 X188.953 Y16.803
N28920G01 X188.752 Y16.706
N28930G01 X188.751 Y16.707
N28940G01 X188.547 Y16.614
N28950G01 X188.337 Y16.535
N28960G01 X188.337 Y16.534
N28970G01 X188.126 Y16.461
N28980G01 X188.125 Y16.462
N28990G01 X188.053 Y16.437
N29000G01 X187.978 Y16.417
N29010G01 X187.979 Y16.416
N29020G01 X187.762 Y16.359
N29030G01 X187.762 Y16.361
N29040G01 X187.543 Y16.309
N29050G01 X187.319 Y16.273
N29060G01 X187.319 Y16.272
N29070G01 X187.024 Y16.232
N29080G01 X186.727 Y16.213
N29090G01 X186.726 Y16.214
N29100G01 X186.537 Y16.207
N29110G01 X18.85 Y16.248
N29120G01 Y10.35
N29130G01 X17.85 Y9.35
N29140G01 X186.499 Y9.35
N29150G01 X186.664 Y9.344
N29160G01 X186.664 Y9.345
N29170G01 X186.926 Y9.329
N29180G01 X187.186 Y9.294
N29190G01 X187.186 Y9.293
N29200G01 X187.348 Y9.266
N29210G01 X187.42 Y9.25
N29220G01 X187.438 Y9.245
N29230G01 X187.444 Y9.245
N29240G01 X187.504 Y9.229
N29250G01 X187.505 Y9.231
N29260G01 X187.681 Y9.185
N29270G01 X187.68 Y9.184
N29280G01 X187.762 Y9.162
N29290G01 X187.843 Y9.135
N29300G01 X187.843 Y9.136
N29310G01 X188.014 Y9.076
N29320G01 X188.014 Y9.075
N29330G01 X188.164 Y9.019
N29340G01 X188.314 Y8.95
N29350G01 X188.314 Y8.951
N29360G01 X188.516 Y8.853
N29370G01 X188.515 Y8.852
N29380G01 X188.55 Y8.836
N29390G01 X188.689 Y8.756
N29400G01 X188.689 Y8.757
N29410G01 X188.845 Y8.662
N29420G01 X188.844 Y8.661
N29430G01 X188.916 Y8.617
N29440G01 X189.05 Y8.52
N29450G01 X189.051 Y8.521
N29460G01 X189.259 Y8.362
N29470G01 X189.456 Y8.189
N29480G01 X189.455 Y8.188
N29490G01 X189.575 Y8.076
N29500G01 X189.688 Y7.955
N29510G01 X189.689 Y7.956
N29520G01 X189.862 Y7.759
N29530G01 X190.021 Y7.551
N29540G01 X190.02 Y7.55
N29550G01 X190.116 Y7.416
N29560G01 X190.203 Y7.276
N29570G01 X190.204 Y7.277
N29580G01 X190.317 Y7.084
N29590G01 X190.316 Y7.083
N29600G01 X190.336 Y7.05
N29610G01 X190.352 Y7.016
N29620G01 X190.353 Y7.016
N29630G01 X190.451 Y6.815
N29640G01 X190.45 Y6.814
N29650G01 X190.518 Y6.664
N29660G01 X190.57 Y6.526
N29670G01 X190.571 Y6.527
N29680G01 X190.616 Y6.402
N29690G01 X190.615 Y6.402
N29700G01 X190.65 Y6.301
N29710G01 X190.65 Y20.255
N29720G01 X190.577 Y20.046
N29730G01 X190.576 Y20.046
N29740G01 X190.518 Y19.892
N29750G01 X190.45 Y19.742
N29760G01 X190.451 Y19.742
N29770G01 X190.353 Y19.54
N29780G01 X190.352 Y19.541
N29790G01 X190.336 Y19.506
N29800G01 X190.316 Y19.473
N29810G01 X190.317 Y19.473
N29820G01 X190.204 Y19.279
N29830G01 X190.203 Y19.28
N29840G01 X190.116 Y19.14
N29850G01 X190.02 Y19.006
N29860G01 X190.021 Y19.006
N29870G01 X189.862 Y18.797
N29880G01 X189.689 Y18.6
N29890G01 X189.688 Y18.601
N29900G01 X189.575 Y18.481
N29910G01 X189.455 Y18.368
N29920G01 X189.456 Y18.368
N29930G01 X189.259 Y18.194
N29940G01 X189.051 Y18.035
N29950G01 X189.05 Y18.036
N29960G01 X188.916 Y17.94
N29970G01 X188.883 Y17.92
N29980G01 X188.884 Y17.919
N29990G01 X188.693 Y17.802
N30000G01 X188.692 Y17.803
N30010G01 X188.55 Y17.72
N30020G01 X188.515 Y17.704
N30030G01 X188.516 Y17.703
N30040G01 X188.314 Y17.605
N30050G01 X188.314 Y17.606
N30060G01 X188.164 Y17.538
N30070G01 X188.01 Y17.48
N30080G01 X188.011 Y17.479
N30090G01 X187.799 Y17.406
N30100G01 X187.798 Y17.407
N30110G01 X187.762 Y17.394
N30120G01 X187.725 Y17.385
N30130G01 X187.725 Y17.384
N30140G01 X187.509 Y17.327
N30150G01 X187.508 Y17.328
N30160G01 X187.348 Y17.29
N30170G01 X187.186 Y17.264
N30180G01 X187.186 Y17.263
N30190G01 X186.926 Y17.228
N30200G01 X186.664 Y17.211
N30210G01 X186.664 Y17.212
N30220G01 X186.537 Y17.207
N30230G01 X17.85 Y17.249
N30240G01 Y9.35
N30250 G00 Z9.999
N30260 G00 X190.649 Y20.258
N30270G01 Z-4 F500
N30280G01 X190.65 Y20.259 F1000
N30290G01 X190.649 Y20.258
N30300 G00 Z9.999
N30310 G00 X189.109 Y343.914
N30320G01 Z-4 F500
N30330G01 X188.866 Y344.712 F1000
N30340G01 X188.531 Y345.605
N30350G01 X188.139 Y346.472
N30360G01 X187.691 Y347.313
N30370G01 X187.188 Y348.124
N30380G01 X186.632 Y348.902
N30390G01 X186.023 Y349.645
N30400G01 X185.303 Y350.414
N30410G01 X35.424 Y500.294
N30420G01 X34.658 Y501.008
N30430G01 X33.912 Y501.617
N30440G01 X33.13 Y502.174
N30450G01 X32.317 Y502.678
N30460G01 X31.469 Y503.13
N30470G01 X30.6 Y503.523
N30480G01 X29.704 Y503.861
N30490G01 X28.928 Y504.098
N30500G01 X184.011 Y348.979
N30510G01 X189.109 Y343.914
N30520G01 X190.11 Y344.059
N30530G01 X189.814 Y345.034
N30540G01 X189.455 Y345.987
N30550G01 X189.036 Y346.914
N30560G01 X188.558 Y347.812
N30570G01 X188.021 Y348.678
N30580G01 X187.426 Y349.51
N30590G01 X186.776 Y350.304
N30600G01 X186.021 Y351.11
N30610G01 X36.118 Y501.013
N30620G01 X35.316 Y501.762
N30630G01 X34.519 Y502.412
N30640G01 X33.684 Y503.008
N30650G01 X32.816 Y503.545
N30660G01 X31.912 Y504.027
N30670G01 X30.983 Y504.448
N30680G01 X30.026 Y504.808
N30690G01 X29.05 Y505.106
N30700G01 X28.055 Y505.34
N30710G01 X27.045 Y505.509
N30720G01 X26.024 Y505.612
N30730G01 X25.999 Y505.613
N30740G01 X183.305 Y348.271
N30750G01 X189.568 Y342.048
N30760G01 X189.688 Y341.92
N30770G01 X189.689 Y341.921
N30780G01 X189.862 Y341.724
N30790G01 X190.021 Y341.516
N30800G01 X190.02 Y341.515
N30810G01 X190.095 Y341.413
N30820G01 X190.094 Y341.412
N30830G01 X190.116 Y341.382
N30840G01 X190.136 Y341.349
N30850G01 X190.137 Y341.35
N30860G01 X190.203 Y341.242
N30870G01 X190.204 Y341.242
N30880G01 X190.336 Y341.015
N30890G01 X190.451 Y340.78
N30900G01 X190.45 Y340.779
N30910G01 X190.503 Y340.664
N30920G01 X190.502 Y340.663
N30930G01 X190.518 Y340.629
N30940G01 X190.531 Y340.595
N30950G01 X190.532 Y340.595
N30960G01 X190.57 Y340.492
N30970G01 X190.571 Y340.492
N30980G01 X190.616 Y340.367
N30990G01 X190.615 Y340.367
N31000G01 X190.631 Y340.321
N31010G01 X190.637 Y340.299
N31020G01 X190.612 Y341.03
N31030G01 X190.51 Y342.054
N31040G01 X190.342 Y343.065
N31050G01 X190.11 Y344.059
N31060G01 X191.076 Y344.319
N31070G01 X190.761 Y345.356
N31080G01 X190.38 Y346.369
N31090G01 X189.934 Y347.356
N31100G01 X189.425 Y348.311
N31110G01 X188.854 Y349.233
N31120G01 X188.221 Y350.119
N31130G01 X187.529 Y350.963
N31140G01 X186.74 Y351.806
N31150G01 X36.814 Y501.732
N31160G01 X35.973 Y502.516
N31170G01 X35.126 Y503.207
N31180G01 X34.238 Y503.84
N31190G01 X33.315 Y504.412
N31200G01 X32.354 Y504.924
N31210G01 X31.366 Y505.372
N31220G01 X30.349 Y505.756
N31230G01 X29.31 Y506.072
N31240G01 X28.252 Y506.321
N31250G01 X27.178 Y506.501
N31260G01 X26.092 Y506.61
N31270G01 X25.055 Y506.646
N31280G01 X23.215 Y506.522
N31290G01 X23.381 Y506.46
N31300G01 X23.419 Y506.442
N31310G01 X23.42 Y506.443
N31320G01 X23.584 Y506.367
N31330G01 X23.584 Y506.366
N31340G01 X23.678 Y506.32
N31350G01 X23.769 Y506.267
N31360G01 X23.77 Y506.268
N31370G01 X23.96 Y506.151
N31380G01 X24.142 Y506.019
N31390G01 X24.141 Y506.018
N31400G01 X24.224 Y505.955
N31410G01 X24.392 Y505.806
N31420G01 X182.6 Y347.561
N31430G01 X188.864 Y341.338
N31440G01 X188.94 Y341.257
N31450G01 X188.941 Y341.258
N31460G01 X189.089 Y341.09
N31470G01 X189.225 Y340.911
N31480G01 X189.224 Y340.911
N31490G01 X189.285 Y340.826
N31500G01 X189.34 Y340.737
N31510G01 X189.341 Y340.737
N31520G01 X189.454 Y340.544
N31530G01 X189.552 Y340.343
N31540G01 X189.551 Y340.342
N31550G01 X189.595 Y340.247
N31560G01 X189.629 Y340.155
N31570G01 X189.63 Y340.155
N31580G01 X189.675 Y340.03
N31590G01 X189.85 Y21.557
N31600G01 X189.841 Y21.333
N31610G01 X189.84 Y21.333
N31620G01 X189.833 Y21.228
N31630G01 X189.819 Y21.124
N31640G01 X189.82 Y21.124
N31650G01 X189.785 Y20.903
N31660G01 X189.733 Y20.685
N31670G01 X189.732 Y20.686
N31680G01 X189.705 Y20.584
N31690G01 X189.632 Y20.373
N31700G01 X189.631 Y20.373
N31710G01 X189.595 Y20.275
N31720G01 X189.551 Y20.179
N31730G01 X189.552 Y20.179
N31740G01 X189.454 Y19.977
N31750G01 X189.341 Y19.784
N31760G01 X189.34 Y19.785
N31770G01 X189.285 Y19.695
N31780G01 X189.223 Y19.611
N31790G01 X189.224 Y19.61
N31800G01 X189.089 Y19.431
N31810G01 X188.941 Y19.264
N31820G01 X188.94 Y19.265
N31830G01 X188.868 Y19.188
N31840G01 X188.791 Y19.117
N31850G01 X188.792 Y19.116
N31860G01 X188.625 Y18.967
N31870G01 X188.446 Y18.832
N31880G01 X188.446 Y18.833
N31890G01 X188.361 Y18.771
N31900G01 X188.17 Y18.654
N31910G01 X188.169 Y18.655
N31920G01 X188.079 Y18.602
N31930G01 X187.877 Y18.504
N31940G01 X187.877 Y18.505
N31950G01 X187.782 Y18.462
N31960G01 X187.683 Y18.425
N31970G01 X187.684 Y18.424
N31980G01 X187.472 Y18.351
N31990G01 X187.255 Y18.294
N32000G01 X187.255 Y18.295
N32010G01 X187.153 Y18.271
N32020G01 X187.05 Y18.254
N32030G01 X187.05 Y18.253
N32040G01 X186.828 Y18.223
N32050G01 X186.604 Y18.209
N32060G01 X186.604 Y18.211
N32070G01 X186.5 Y18.207
N32080G01 X16.85 Y18.249
N32090G01 Y8.35
N32100G01 X186.499 Y8.35
N32110G01 X186.604 Y8.346
N32120G01 X186.604 Y8.347
N32130G01 X186.828 Y8.334
N32140G01 X187.05 Y8.303
N32150G01 X187.05 Y8.302
N32160G01 X187.153 Y8.285
N32170G01 X187.255 Y8.261
N32180G01 X187.255 Y8.262
N32190G01 X187.431 Y8.217
N32200G01 X187.431 Y8.216
N32210G01 X187.472 Y8.205
N32220G01 X187.512 Y8.191
N32230G01 X187.512 Y8.192
N32240G01 X187.684 Y8.132
N32250G01 X187.683 Y8.131
N32260G01 X187.782 Y8.095
N32270G01 X187.877 Y8.051
N32280G01 X187.877 Y8.052
N32290G01 X188.079 Y7.954
N32300G01 X188.169 Y7.901
N32310G01 X188.17 Y7.902
N32320G01 X188.325 Y7.808
N32330G01 X188.324 Y7.807
N32340G01 X188.361 Y7.785
N32350G01 X188.446 Y7.724
N32360G01 X188.446 Y7.725
N32370G01 X188.625 Y7.589
N32380G01 X188.792 Y7.441
N32390G01 X188.792 Y7.44
N32400G01 X188.868 Y7.368
N32410G01 X188.94 Y7.292
N32420G01 X188.941 Y7.292
N32430G01 X189.089 Y7.125
N32440G01 X189.224 Y6.946
N32450G01 X189.223 Y6.946
N32460G01 X189.285 Y6.861
N32470G01 X189.34 Y6.771
N32480G01 X189.341 Y6.772
N32490G01 X189.454 Y6.579
N32500G01 X189.552 Y6.378
N32510G01 X189.551 Y6.377
N32520G01 X189.595 Y6.282
N32530G01 X189.629 Y6.19
N32540G01 X189.63 Y6.19
N32550G01 X189.674 Y6.065
N32560G01 X189.673 Y6.065
N32570G01 X189.705 Y5.972
N32580G01 X189.732 Y5.871
N32590G01 X189.733 Y5.871
N32600G01 X189.776 Y5.695
N32610G01 X189.775 Y5.694
N32620G01 X189.785 Y5.653
N32630G01 X189.791 Y5.611
N32640G01 X189.793 Y5.611
N32650G01 X189.82 Y5.432
N32660G01 X189.819 Y5.432
N32670G01 X189.833 Y5.328
N32680G01 X189.84 Y5.223
N32690G01 X189.841 Y5.223
N32700G01 X189.849 Y5.042
N32710G01 X189.847 Y5.042
N32720G01 X189.85 Y5
N32730G01 Y3.35
N32740G01 X191.65 Y3.35
N32750G01 X191.65 Y339.944
N32760G01 X191.611 Y341.097
N32770G01 X191.502 Y342.185
N32780G01 X191.323 Y343.261
N32790G01 X191.076 Y344.319
N32800G01 X192.042 Y344.578
N32810G01 X191.709 Y345.677
N32820G01 X191.305 Y346.752
N32830G01 X190.832 Y347.797
N32840G01 X190.292 Y348.81
N32850G01 X189.686 Y349.788
N32860G01 X189.015 Y350.727
N32870G01 X188.281 Y351.623
N32880G01 X187.459 Y352.501
N32890G01 X37.509 Y502.451
N32900G01 X36.631 Y503.27
N32910G01 X35.734 Y504.003
N32920G01 X34.793 Y504.673
N32930G01 X33.814 Y505.28
N32940G01 X32.796 Y505.822
N32950G01 X31.749 Y506.296
N32960G01 X30.672 Y506.703
N32970G01 X29.571 Y507.038
N32980G01 X28.449 Y507.302
N32990G01 X27.31 Y507.493
N33000G01 X26.16 Y507.609
N33010G01 X25.038 Y507.647
N33020G01 X22.601 Y507.483
N33030G01 X20.306 Y507.014
N33040G01 X18.131 Y506.258
N33050G01 X16.095 Y505.237
N33060G01 X14.218 Y503.969
N33070G01 X12.523 Y502.477
N33080G01 X11.03 Y500.781
N33090G01 X9.763 Y498.904
N33100G01 X8.741 Y496.868
N33110G01 X7.985 Y494.693
N33120G01 X7.516 Y492.398
N33130G01 X7.35 Y489.921
N33140G01 X7.35 Y2.35
N33150G01 X11.15 Y2.35
N33160G01 X11.149 Y494.766
N33170G01 X11.152 Y494.815
N33180G01 X11.151 Y494.815
N33190G01 X11.161 Y494.996
N33200G01 X11.186 Y495.176
N33210G01 X11.187 Y495.176
N33220G01 X11.195 Y495.224
N33230G01 X11.207 Y495.272
N33240G01 X11.205 Y495.272
N33250G01 X11.251 Y495.448
N33260G01 X11.311 Y495.619
N33270G01 X11.312 Y495.619
N33280G01 X11.328 Y495.665
N33290G01 X11.405 Y495.83
N33300G01 X11.406 Y495.829
N33310G01 X11.427 Y495.873
N33320G01 X11.452 Y495.916
N33330G01 X11.451 Y495.916
N33340G01 X11.546 Y496.071
N33350G01 X11.653 Y496.218
N33360G01 X11.654 Y496.217
N33370G01 X11.683 Y496.257
N33380G01 X11.804 Y496.392
N33390G01 X20.437 Y505.027
N33400G01 X20.571 Y505.15
N33410G01 X20.572 Y505.149
N33420G01 X20.608 Y505.182
N33430G01 X20.648 Y505.211
N33440G01 X20.647 Y505.212
N33450G01 X20.793 Y505.319
N33460G01 X20.948 Y505.414
N33470G01 X20.949 Y505.412
N33480G01 X20.991 Y505.438
N33490G01 X21.036 Y505.459
N33500G01 X21.035 Y505.46
N33510G01 X21.2 Y505.536
N33520G01 X21.246 Y505.553
N33530G01 X21.245 Y505.554
N33540G01 X21.417 Y505.614
N33550G01 X21.593 Y505.659
N33560G01 X21.593 Y505.658
N33570G01 X21.641 Y505.67
N33580G01 X21.689 Y505.677
N33590G01 X21.689 Y505.679
N33600G01 X21.869 Y505.704
N33610G01 X22.05 Y505.714
N33620G01 X22.05 Y505.713
N33630G01 X22.099 Y505.715
N33640G01 X22.148 Y505.713
N33650G01 X22.148 Y505.714
N33660G01 X22.329 Y505.704
N33670G01 X22.509 Y505.679
N33680G01 X22.509 Y505.677
N33690G01 X22.558 Y505.67
N33700G01 X22.605 Y505.658
N33710G01 X22.605 Y505.659
N33720G01 X22.781 Y505.614
N33730G01 X22.953 Y505.554
N33740G01 X22.952 Y505.553
N33750G01 X22.998 Y505.536
N33760G01 X23.163 Y505.46
N33770G01 X23.162 Y505.459
N33780G01 X23.207 Y505.438
N33790G01 X23.249 Y505.412
N33800G01 X23.25 Y505.414
N33810G01 X23.405 Y505.319
N33820G01 X23.551 Y505.212
N33830G01 X23.55 Y505.211
N33840G01 X23.59 Y505.182
N33850G01 X23.725 Y505.061
N33860G01 X181.895 Y346.852
N33870G01 X188.159 Y340.629
N33880G01 X188.194 Y340.59
N33890G01 X188.195 Y340.591
N33900G01 X188.316 Y340.456
N33910G01 X188.425 Y340.311
N33920G01 X188.424 Y340.31
N33930G01 X188.453 Y340.27
N33940G01 X188.479 Y340.228
N33950G01 X188.48 Y340.229
N33960G01 X188.572 Y340.073
N33970G01 X188.651 Y339.909
N33980G01 X188.65 Y339.909
N33990G01 X188.671 Y339.864
N34000G01 X188.687 Y339.818
N34010G01 X188.688 Y339.818
N34020G01 X188.733 Y339.694
N34030G01 X188.85 Y21.557
N34040G01 X188.842 Y21.375
N34050G01 X188.841 Y21.375
N34060G01 X188.838 Y21.326
N34070G01 X188.831 Y21.278
N34080G01 X188.832 Y21.278
N34090G01 X188.804 Y21.098
N34100G01 X188.761 Y20.922
N34110G01 X188.76 Y20.922
N34120G01 X188.748 Y20.874
N34130G01 X188.688 Y20.703
N34140G01 X188.687 Y20.704
N34150G01 X188.671 Y20.657
N34160G01 X188.65 Y20.613
N34170G01 X188.651 Y20.612
N34180G01 X188.572 Y20.449
N34190G01 X188.48 Y20.293
N34200G01 X188.479 Y20.293
N34210G01 X188.453 Y20.251
N34220G01 X188.424 Y20.212
N34230G01 X188.425 Y20.211
N34240G01 X188.316 Y20.066
N34250G01 X188.195 Y19.931
N34260G01 X188.194 Y19.931
N34270G01 X188.161 Y19.895
N34280G01 X188.125 Y19.862
N34290G01 X188.126 Y19.861
N34300G01 X187.99 Y19.74
N34310G01 X187.845 Y19.631
N34320G01 X187.845 Y19.632
N34330G01 X187.805 Y19.603
N34340G01 X187.65 Y19.508
N34350G01 X187.649 Y19.509
N34360G01 X187.607 Y19.484
N34370G01 X187.444 Y19.405
N34380G01 X187.443 Y19.407
N34390G01 X187.399 Y19.386
N34400G01 X187.353 Y19.369
N34410G01 X187.353 Y19.368
N34420G01 X187.182 Y19.308
N34430G01 X187.006 Y19.263
N34440G01 X187.006 Y19.264
N34450G01 X186.958 Y19.252
N34460G01 X186.909 Y19.245
N34470G01 X186.91 Y19.243
N34480G01 X186.73 Y19.218
N34490G01 X186.549 Y19.208
N34500G01 X186.549 Y19.209
N34510G01 X186.5 Y19.207
N34520G01 X15.85 Y19.249
N34530G01 Y7.35
N34540G01 X186.499 Y7.35
N34550G01 X186.549 Y7.347
N34560G01 X186.549 Y7.348
N34570G01 X186.73 Y7.338
N34580G01 X186.91 Y7.313
N34590G01 X186.909 Y7.312
N34600G01 X186.958 Y7.305
N34610G01 X187.006 Y7.293
N34620G01 X187.006 Y7.294
N34630G01 X187.182 Y7.248
N34640G01 X187.353 Y7.188
N34650G01 X187.353 Y7.187
N34660G01 X187.399 Y7.171
N34670G01 X187.443 Y7.15
N34680G01 X187.444 Y7.151
N34690G01 X187.607 Y7.072
N34700G01 X187.649 Y7.047
N34710G01 X187.65 Y7.048
N34720G01 X187.805 Y6.954
N34730G01 X187.845 Y6.924
N34740G01 X187.845 Y6.925
N34750G01 X187.99 Y6.816
N34760G01 X188.126 Y6.695
N34770G01 X188.125 Y6.694
N34780G01 X188.161 Y6.661
N34790G01 X188.194 Y6.625
N34800G01 X188.195 Y6.626
N34810G01 X188.316 Y6.49
N34820G01 X188.425 Y6.345
N34830G01 X188.424 Y6.345
N34840G01 X188.453 Y6.305
N34850G01 X188.479 Y6.263
N34860G01 X188.48 Y6.264
N34870G01 X188.572 Y6.107
N34880G01 X188.651 Y5.944
N34890G01 X188.65 Y5.943
N34900G01 X188.671 Y5.899
N34910G01 X188.687 Y5.853
N34920G01 X188.688 Y5.853
N34930G01 X188.733 Y5.728
N34940G01 X188.732 Y5.728
N34950G01 X188.748 Y5.682
N34960G01 X188.76 Y5.634
N34970G01 X188.761 Y5.635
N34980G01 X188.804 Y5.458
N34990G01 X188.832 Y5.279
N35000G01 X188.831 Y5.279
N35010G01 X188.838 Y5.23
N35020G01 X188.841 Y5.181
N35030G01 X188.842 Y5.181
N35040G01 X188.85 Y5
N35050G01 Y2.35
N35060G01 X192.65 Y2.35
N35070G01 X192.65 Y339.96
N35080G01 X192.609 Y341.163
N35090G01 X192.494 Y342.317
N35100G01 X192.305 Y343.457
N35110G01 X192.042 Y344.578
N35120G01 X193.009 Y344.837
N35130G01 X192.656 Y345.999
N35140G01 X192.229 Y347.134
N35150G01 X191.73 Y348.239
N35160G01 X191.159 Y349.309
N35170G01 X190.519 Y350.343
N35180G01 X189.81 Y351.335
N35190G01 X189.034 Y352.282
N35200G01 X188.177 Y353.197
N35210G01 X38.203 Y503.17
N35220G01 X37.289 Y504.024
N35230G01 X36.341 Y504.798
N35240G01 X35.347 Y505.506
N35250G01 X34.313 Y506.147
N35260G01 X33.238 Y506.72
N35270G01 X32.132 Y507.221
N35280G01 X30.995 Y507.65
N35290G01 X29.831 Y508.004
N35300G01 X28.647 Y508.283
N35310G01 X27.443 Y508.485
N35320G01 X26.227 Y508.607
N35330G01 X25.022 Y508.648
N35340G01 X22.467 Y508.476
N35350G01 X20.041 Y507.98
N35360G01 X17.741 Y507.181
N35370G01 X15.589 Y506.101
N35380G01 X13.605 Y504.761
N35390G01 X11.814 Y503.185
N35400G01 X10.237 Y501.394
N35410G01 X8.898 Y499.411
N35420G01 X7.818 Y497.258
N35430G01 X7.019 Y494.958
N35440G01 X6.523 Y492.532
N35450G01 X6.35 Y489.954
N35460G01 X6.35 Y1.35
N35470G01 X12.15 Y1.35
N35480G01 X12.149 Y494.766
N35490G01 X12.156 Y494.898
N35500G01 X12.175 Y495.029
N35510G01 X12.208 Y495.158
N35520G01 X12.252 Y495.282
N35530G01 X12.309 Y495.402
N35540G01 X12.377 Y495.516
N35550G01 X12.456 Y495.622
N35560G01 X12.545 Y495.72
N35570G01 X21.144 Y504.32
N35580G01 X21.243 Y504.409
N35590G01 X21.349 Y504.488
N35600G01 X21.463 Y504.556
N35610G01 X21.582 Y504.612
N35620G01 X21.707 Y504.657
N35630G01 X21.836 Y504.689
N35640G01 X21.967 Y504.709
N35650G01 X22.099 Y504.715
N35660G01 X22.231 Y504.709
N35670G01 X22.362 Y504.689
N35680G01 X22.491 Y504.657
N35690G01 X22.616 Y504.612
N35700G01 X22.735 Y504.556
N35710G01 X22.849 Y504.488
N35720G01 X22.956 Y504.409
N35730G01 X23.054 Y504.32
N35740G01 X181.188 Y346.145
N35750G01 X187.454 Y339.919
N35760G01 X187.543 Y339.821
N35770G01 X187.622 Y339.715
N35780G01 X187.69 Y339.601
N35790G01 X187.747 Y339.481
N35800G01 X187.791 Y339.357
N35810G01 X187.85 Y21.557
N35820G01 X187.843 Y21.424
N35830G01 X187.824 Y21.293
N35840G01 X187.791 Y21.165
N35850G01 X187.747 Y21.04
N35860G01 X187.69 Y20.92
N35870G01 X187.622 Y20.807
N35880G01 X187.543 Y20.7
N35890G01 X187.454 Y20.602
N35900G01 X187.356 Y20.513
N35910G01 X187.25 Y20.434
N35920G01 X187.136 Y20.366
N35930G01 X187.016 Y20.309
N35940G01 X186.891 Y20.265
N35950G01 X186.763 Y20.233
N35960G01 X186.632 Y20.213
N35970G01 X186.5 Y20.207
N35980G01 X14.85 Y20.249
N35990G01 X14.849 Y6.35
N36000G01 X186.5
N36010G01 X186.632 Y6.343
N36020G01 X186.763 Y6.324
N36030G01 X186.891 Y6.292
N36040G01 X187.016 Y6.247
N36050G01 X187.136 Y6.19
N36060G01 X187.25 Y6.122
N36070G01 X187.356 Y6.043
N36080G01 X187.454 Y5.954
N36090G01 X187.543 Y5.856
N36100G01 X187.622 Y5.75
N36110G01 X187.69 Y5.636
N36120G01 X187.747 Y5.516
N36130G01 X187.791 Y5.392
N36140G01 X187.824 Y5.263
N36150G01 X187.843 Y5.132
N36160G01 X187.85 Y5
N36170G01 Y1.35
N36180G01 X193.65 Y1.35
N36190G01 X193.65 Y339.977
N36200G01 X193.607 Y341.23
N36210G01 X193.486 Y342.449
N36220G01 X193.286 Y343.653
N36230G01 X193.009 Y344.837
N36240 G00 Z9.999
N36250 G00 X8.35 Y3.35
N36260G01 Z-4.999 F500
N36270G01 X10.15 Y3.35 F1000
N36280G01 X10.149 Y494.766
N36290G01 X10.153 Y494.871
N36300G01 X10.152 Y494.871
N36310G01 X10.166 Y495.094
N36320G01 X10.196 Y495.316
N36330G01 X10.197 Y495.316
N36340G01 X10.214 Y495.419
N36350G01 X10.238 Y495.521
N36360G01 X10.237 Y495.521
N36370G01 X10.294 Y495.738
N36380G01 X10.367 Y495.95
N36390G01 X10.368 Y495.949
N36400G01 X10.405 Y496.048
N36410G01 X10.498 Y496.251
N36420G01 X10.499 Y496.251
N36430G01 X10.545 Y496.345
N36440G01 X10.598 Y496.435
N36450G01 X10.597 Y496.436
N36460G01 X10.714 Y496.627
N36470G01 X10.846 Y496.808
N36480G01 X10.846 Y496.807
N36490G01 X10.91 Y496.891
N36500G01 X10.938 Y496.922
N36510G01 X10.938 Y496.923
N36520G01 X11.059 Y497.058
N36530G01 X11.097 Y497.099
N36540G01 X19.73 Y505.734
N36550G01 X19.762 Y505.762
N36560G01 X19.761 Y505.763
N36570G01 X19.765 Y505.767
N36580G01 X18.521 Y505.335
N36590G01 X16.601 Y504.372
N36600G01 X14.83 Y503.176
N36610G01 X13.231 Y501.768
N36620G01 X11.823 Y500.168
N36630G01 X10.627 Y498.398
N36640G01 X9.664 Y496.478
N36650G01 X8.952 Y494.428
N36660G01 X8.509 Y492.264
N36670G01 X8.35 Y489.887
N36680G01 X8.35 Y3.35
N36690 G00 Z9.999
N36700 G00 X20.85 Y12.35
N36710G01 Z-4.999 F500
N36720G01 X186.499 Y12.35 F1000
N36730G01 X186.755 Y12.343
N36740G01 X186.776 Y12.341
N36750G01 X186.776 Y12.342
N36760G01 X186.855 Y12.338
N36770G01 X186.855 Y12.339
N36780G01 X187.188 Y12.317
N36790G01 X187.188 Y12.316
N36800G01 X187.22 Y12.314
N36810G01 X187.252 Y12.31
N36820G01 X187.252 Y12.311
N36830G01 X187.326 Y12.301
N36840G01 X187.326 Y12.302
N36850G01 X187.586 Y12.267
N36860G01 X187.586 Y12.266
N36870G01 X187.65 Y12.256
N36880G01 Y14.3
N36890G01 X187.58 Y14.29
N36900G01 X187.58 Y14.289
N36910G01 X187.22 Y14.242
N36920G01 X186.858 Y14.217
N36930G01 X186.857 Y14.218
N36940G01 X186.612 Y14.209
N36950G01 X20.85 Y14.248
N36960G01 Y12.35
N36970G01 X19.85 Y11.35
N36980G01 X186.499 Y11.35
N36990G01 X186.727 Y11.343
N37000G01 X186.789 Y11.34
N37010G01 X186.789 Y11.341
N37020G01 X187.122 Y11.319
N37030G01 X187.193 Y11.31
N37040G01 X187.193 Y11.311
N37050G01 X187.453 Y11.276
N37060G01 X187.453 Y11.275
N37070G01 X187.705 Y11.234
N37080G01 X187.705 Y11.233
N37090G01 X187.738 Y11.228
N37100G01 X187.848 Y11.204
N37110G01 X187.931 Y11.183
N37120G01 X187.931 Y11.184
N37130G01 X188.003 Y11.166
N37140G01 X188.004 Y11.167
N37150G01 X188.179 Y11.122
N37160G01 X188.179 Y11.121
N37170G01 X188.343 Y11.076
N37180G01 X188.504 Y11.022
N37190G01 X188.504 Y11.023
N37200G01 X188.65 Y10.973
N37210G01 Y15.584
N37220G01 X188.452 Y15.516
N37230G01 X188.452 Y15.517
N37240G01 X188.375 Y15.49
N37250G01 X188.374 Y15.491
N37260G01 X188.343 Y15.48
N37270G01 X188.31 Y15.472
N37280G01 X188.311 Y15.471
N37290G01 X188.232 Y15.45
N37300G01 X188.232 Y15.449
N37310G01 X188.015 Y15.392
N37320G01 X188.015 Y15.393
N37330G01 X187.771 Y15.336
N37340G01 X187.771 Y15.337
N37350G01 X187.738 Y15.329
N37360G01 X187.705 Y15.324
N37370G01 X187.705 Y15.323
N37380G01 X187.45 Y15.281
N37390G01 X187.451 Y15.28
N37400G01 X187.122 Y15.237
N37410G01 X186.791 Y15.215
N37420G01 X186.791 Y15.216
N37430G01 X186.573 Y15.208
N37440G01 X19.85 Y15.248
N37450G01 Y11.35
N37460G01 X18.85 Y10.35
N37470G01 X186.499 Y10.35
N37480G01 X186.726 Y10.342
N37490G01 X186.727 Y10.343
N37500G01 X186.988 Y10.327
N37510G01 X186.988 Y10.326
N37520G01 X187.024 Y10.324
N37530G01 X187.059 Y10.319
N37540G01 X187.059 Y10.32
N37550G01 X187.319 Y10.285
N37560G01 X187.319 Y10.284
N37570G01 X187.543 Y10.247
N37580G01 X187.635 Y10.227
N37590G01 X187.687 Y10.213
N37600G01 X187.687 Y10.215
N37610G01 X187.754 Y10.198
N37620G01 X187.754 Y10.199
N37630G01 X187.93 Y10.154
N37640G01 X187.93 Y10.153
N37650G01 X188.019 Y10.129
N37660G01 X188.019 Y10.128
N37670G01 X188.053 Y10.119
N37680G01 X188.085 Y10.108
N37690G01 X188.086 Y10.109
N37700G01 X188.173 Y10.079
N37710G01 X188.174 Y10.08
N37720G01 X188.345 Y10.02
N37730G01 X188.345 Y10.019
N37740G01 X188.547 Y9.942
N37750G01 X188.751 Y9.85
N37760G01 X188.752 Y9.851
N37770G01 X188.953 Y9.753
N37780G01 X188.953 Y9.752
N37790G01 X189.021 Y9.718
N37800G01 X189.209 Y9.61
N37810G01 X189.209 Y9.611
N37820G01 X189.364 Y9.517
N37830G01 X189.364 Y9.516
N37840G01 X189.472 Y9.448
N37850G01 X189.65 Y9.321
N37860G01 Y17.236
N37870G01 X189.5 Y17.128
N37880G01 X189.5 Y17.129
N37890G01 X189.472 Y17.108
N37900G01 X189.407 Y17.068
N37910G01 X189.407 Y17.067
N37920G01 X189.216 Y16.95
N37930G01 X189.216 Y16.951
N37940G01 X189.021 Y16.838
N37950G01 X188.953 Y16.804
N37960G01 X188.953 Y16.803
N37970G01 X188.752 Y16.706
N37980G01 X188.751 Y16.707
N37990G01 X188.547 Y16.614
N38000G01 X188.337 Y16.535
N38010G01 X188.337 Y16.534
N38020G01 X188.126 Y16.461
N38030G01 X188.125 Y16.462
N38040G01 X188.053 Y16.437
N38050G01 X187.978 Y16.417
N38060G01 X187.979 Y16.416
N38070G01 X187.762 Y16.359
N38080G01 X187.762 Y16.361
N38090G01 X187.543 Y16.309
N38100G01 X187.319 Y16.273
N38110G01 X187.319 Y16.272
N38120G01 X187.024 Y16.232
N38130G01 X186.727 Y16.213
N38140G01 X186.726 Y16.214
N38150G01 X186.537 Y16.207
N38160G01 X18.85 Y16.248
N38170G01 Y10.35
N38180G01 X17.85 Y9.35
N38190G01 X186.499 Y9.35
N38200G01 X186.664 Y9.344
N38210G01 X186.664 Y9.345
N38220G01 X186.926 Y9.329
N38230G01 X187.186 Y9.294
N38240G01 X187.186 Y9.293
N38250G01 X187.348 Y9.266
