(GCode created using the HeeksCNC Mach3 post processor)
(/home/user/Documents/outline-file.tap)
(G-code generated with BlenderCAM and NC library)
N10 G17 G21 G90
(Tool change)
N20G43H1
N30T1 M06
N40 G00 X0 Y0 Z9.999 S12000 M03
N50 G00 X0 Y-1.349
N60G01 Z-1 F500
N70G01 X-0.132 Y-1.343 F1000
N80G01 X-0.263 Y-1.324
N90G01 X-0.391 Y-1.291
N100G01 X-0.516 Y-1.247
N110G01 X-0.636 Y-1.19
N120G01 X-0.75 Y-1.122
N130G01 X-0.856 Y-1.043
N140G01 X-0.954 Y-0.954
N150G01 X-1.043 Y-0.856
N160G01 X-1.122 Y-0.749
N170G01 X-1.19 Y-0.636
N180G01 X-1.247 Y-0.516
N190G01 X-1.291 Y-0.391
N200G01 X-1.324 Y-0.263
N210G01 X-1.343 Y-0.132
N220G01 X-1.35 Y0
N230G01 X-1.346 Y490.09
N240G01 X-1.118 Y493.483
N250G01 X-1.117 Y493.482
N260G01 X-1.115 Y493.524
N270G01 X-1.094 Y493.662
N280G01 X-0.429 Y496.916
N290G01 X-0.398 Y497.037
N300G01 X-0.38 Y497.088
N310G01 X-0.382 Y497.089
N320G01 X0.689 Y500.174
N330G01 X0.69 Y500.173
N340G01 X0.717 Y500.247
N350G01 X0.759 Y500.336
N360G01 X0.758 Y500.336
N370G01 X2.206 Y503.223
N380G01 X2.207 Y503.222
N390G01 X2.222 Y503.254
N400G01 X2.294 Y503.373
N410G01 X4.09 Y506.032
N420G01 X4.165 Y506.133
N430G01 X6.308 Y508.569
N440G01 X6.31 Y508.568
N450G01 X6.367 Y508.632
N460G01 X6.431 Y508.689
N470G01 X6.43 Y508.69
N480G01 X8.831 Y510.804
N490G01 X8.832 Y510.803
N500G01 X8.866 Y510.834
N510G01 X8.973 Y510.913
N520G01 X11.631 Y512.709
N530G01 X11.745 Y512.777
N540G01 X11.777 Y512.792
N550G01 X11.776 Y512.793
N560G01 X14.663 Y514.241
N570G01 X14.663 Y514.24
N580G01 X14.752 Y514.282
N590G01 X14.826 Y514.309
N600G01 X14.825 Y514.31
N610G01 X17.91 Y515.382
N620G01 X17.911 Y515.38
N630G01 X17.962 Y515.398
N640G01 X18.083 Y515.429
N650G01 X21.337 Y516.094
N660G01 X21.475 Y516.115
N670G01 X21.516 Y516.117
N680G01 X21.516 Y516.118
N690G01 X24.909 Y516.346
N700G01 X24.909 Y516.345
N710G01 X24.999 Y516.349
N720G01 X25.045 Y516.347
N730G01 X25.045 Y516.349
N740G01 X26.695 Y516.293
N750G01 X26.695 Y516.291
N760G01 X26.782 Y516.287
N770G01 X28.418 Y516.124
N780G01 X28.506 Y516.111
N790G01 X28.506 Y516.112
N800G01 X30.162 Y515.836
N810G01 X31.795 Y515.455
N820G01 X31.794 Y515.453
N830G01 X31.879 Y515.432
N840G01 X33.437 Y514.958
N850G01 X33.52 Y514.929
N860G01 X33.52 Y514.93
N870G01 X35.084 Y514.341
N880G01 X36.605 Y513.653
N890G01 X36.605 Y513.652
N900G01 X36.684 Y513.615
N910G01 X38.122 Y512.848
N920G01 X38.196 Y512.803
N930G01 X38.197 Y512.805
N940G01 X39.621 Y511.92
N950G01 X40.987 Y510.945
N960G01 X40.986 Y510.944
N970G01 X41.058 Y510.891
N980G01 X42.329 Y509.849
N990G01 X42.394 Y509.79
N1000G01 X42.395 Y509.791
N1010G01 X43.6 Y508.662
N1020G01 X43.599 Y508.661
N1030G01 X43.632 Y508.631
N1040G01 X193.632 Y358.632
N1050G01 X194.789 Y357.394
N1060G01 X194.788 Y357.393
N1070G01 X194.846 Y357.329
N1080G01 X195.886 Y356.056
N1090G01 X195.939 Y355.985
N1100G01 X195.94 Y355.986
N1110G01 X196.89 Y354.654
N1120G01 X196.889 Y354.654
N1130G01 X196.914 Y354.62
N1140G01 X196.937 Y354.581
N1150G01 X196.939 Y354.581
N1160G01 X197.798 Y353.194
N1170G01 X197.797 Y353.194
N1180G01 X197.841 Y353.12
N1190G01 X198.608 Y351.681
N1200G01 X198.645 Y351.602
N1210G01 X198.646 Y351.603
N1220G01 X199.335 Y350.08
N1230G01 X199.925 Y348.516
N1240G01 X199.924 Y348.516
N1250G01 X199.954 Y348.432
N1260G01 X200.428 Y346.874
N1270G01 X200.449 Y346.79
N1280G01 X200.451 Y346.791
N1290G01 X200.824 Y345.202
N1300G01 X200.823 Y345.202
N1310G01 X200.834 Y345.157
N1320G01 X200.84 Y345.116
N1330G01 X200.841 Y345.116
N1340G01 X201.111 Y343.503
N1350G01 X201.11 Y343.503
N1360G01 X201.123 Y343.415
N1370G01 X201.287 Y341.782
N1380G01 X201.291 Y341.693
N1390G01 X201.293 Y341.693
N1400G01 X201.35 Y340
N1410G01 X201.348 Y0
N1420G01 X201.342 Y-0.132
N1430G01 X201.322 Y-0.263
N1440G01 X201.29 Y-0.391
N1450G01 X201.245 Y-0.516
N1460G01 X201.189 Y-0.636
N1470G01 X201.121 Y-0.749
N1480G01 X201.042 Y-0.856
N1490G01 X200.953 Y-0.954
N1500G01 X200.854 Y-1.043
N1510G01 X200.748 Y-1.122
N1520G01 X200.634 Y-1.19
N1530G01 X200.515 Y-1.247
N1540G01 X200.39 Y-1.291
N1550G01 X200.261 Y-1.324
N1560G01 X200.13 Y-1.343
N1570G01 X199.998 Y-1.349
N1580G01 X0
N1590G01 Z-2 F500
N1600G01 X-0.132 Y-1.343 F1000
N1610G01 X-0.263 Y-1.324
N1620G01 X-0.391 Y-1.291
N1630G01 X-0.516 Y-1.247
N1640G01 X-0.636 Y-1.19
N1650G01 X-0.75 Y-1.122
N1660G01 X-0.856 Y-1.043
N1670G01 X-0.954 Y-0.954
N1680G01 X-1.043 Y-0.856
N1690G01 X-1.122 Y-0.749
N1700G01 X-1.19 Y-0.636
N1710G01 X-1.247 Y-0.516
N1720G01 X-1.291 Y-0.391
N1730G01 X-1.324 Y-0.263
N1740G01 X-1.343 Y-0.132
N1750G01 X-1.35 Y0
N1760G01 X-1.346 Y490.09
N1770G01 X-1.118 Y493.483
N1780G01 X-1.117 Y493.482
N1790G01 X-1.115 Y493.524
N1800G01 X-1.094 Y493.662
N1810G01 X-0.429 Y496.916
N1820G01 X-0.398 Y497.037
N1830G01 X-0.38 Y497.088
N1840G01 X-0.382 Y497.089
N1850G01 X0.689 Y500.174
N1860G01 X0.69 Y500.173
N1870G01 X0.717 Y500.247
N1880G01 X0.759 Y500.336
N1890G01 X0.758 Y500.336
N1900G01 X2.206 Y503.223
N1910G01 X2.207 Y503.222
N1920G01 X2.222 Y503.254
N1930G01 X2.294 Y503.373
N1940G01 X4.09 Y506.032
N1950G01 X4.165 Y506.133
N1960G01 X6.308 Y508.569
N1970G01 X6.31 Y508.568
N1980G01 X6.367 Y508.632
N1990G01 X6.431 Y508.689
N2000G01 X6.43 Y508.69
N2010G01 X8.831 Y510.804
N2020G01 X8.832 Y510.803
N2030G01 X8.866 Y510.834
N2040G01 X8.973 Y510.913
N2050G01 X11.631 Y512.709
N2060G01 X11.745 Y512.777
N2070G01 X11.777 Y512.792
N2080G01 X11.776 Y512.793
N2090G01 X14.663 Y514.241
N2100G01 X14.663 Y514.24
N2110G01 X14.752 Y514.282
N2120G01 X14.826 Y514.309
N2130G01 X14.825 Y514.31
N2140G01 X17.91 Y515.382
N2150G01 X17.911 Y515.38
N2160G01 X17.962 Y515.398
N2170G01 X18.083 Y515.429
N2180G01 X21.337 Y516.094
N2190G01 X21.475 Y516.115
N2200G01 X21.516 Y516.117
N2210G01 X21.516 Y516.118
N2220G01 X24.909 Y516.346
N2230G01 X24.909 Y516.345
N2240G01 X24.999 Y516.349
N2250G01 X25.045 Y516.347
N2260G01 X25.045 Y516.349
N2270G01 X26.695 Y516.293
N2280G01 X26.695 Y516.291
N2290G01 X26.782 Y516.287
N2300G01 X28.418 Y516.124
N2310G01 X28.506 Y516.111
N2320G01 X28.506 Y516.112
N2330G01 X30.162 Y515.836
N2340G01 X31.795 Y515.455
N2350G01 X31.794 Y515.453
N2360G01 X31.879 Y515.432
N2370G01 X33.437 Y514.958
N2380G01 X33.52 Y514.929
N2390G01 X33.52 Y514.93
N2400G01 X35.084 Y514.341
N2410G01 X36.605 Y513.653
N2420G01 X36.605 Y513.652
N2430G01 X36.684 Y513.615
N2440G01 X38.122 Y512.848
N2450G01 X38.196 Y512.803
N2460G01 X38.197 Y512.805
N2470G01 X39.621 Y511.92
N2480G01 X40.987 Y510.945
N2490G01 X40.986 Y510.944
N2500G01 X41.058 Y510.891
N2510G01 X42.329 Y509.849
N2520G01 X42.394 Y509.79
N2530G01 X42.395 Y509.791
N2540G01 X43.6 Y508.662
N2550G01 X43.599 Y508.661
N2560G01 X43.632 Y508.631
N2570G01 X193.632 Y358.632
N2580G01 X194.789 Y357.394
N2590G01 X194.788 Y357.393
N2600G01 X194.846 Y357.329
N2610G01 X195.886 Y356.056
N2620G01 X195.939 Y355.985
N2630G01 X195.94 Y355.986
N2640G01 X196.89 Y354.654
N2650G01 X196.889 Y354.654
N2660G01 X196.914 Y354.62
N2670G01 X196.937 Y354.581
N2680G01 X196.939 Y354.581
N2690G01 X197.798 Y353.194
N2700G01 X197.797 Y353.194
N2710G01 X197.841 Y353.12
N2720G01 X198.608 Y351.681
N2730G01 X198.645 Y351.602
N2740G01 X198.646 Y351.603
N2750G01 X199.335 Y350.08
N2760G01 X199.925 Y348.516
N2770G01 X199.924 Y348.516
N2780G01 X199.954 Y348.432
N2790G01 X200.428 Y346.874
N2800G01 X200.449 Y346.79
N2810G01 X200.451 Y346.791
N2820G01 X200.824 Y345.202
N2830G01 X200.823 Y345.202
N2840G01 X200.834 Y345.157
N2850G01 X200.84 Y345.116
N2860G01 X200.841 Y345.116
N2870G01 X201.111 Y343.503
N2880G01 X201.11 Y343.503
N2890G01 X201.123 Y343.415
N2900G01 X201.287 Y341.782
N2910G01 X201.291 Y341.693
N2920G01 X201.293 Y341.693
N2930G01 X201.35 Y340
N2940G01 X201.348 Y0
N2950G01 X201.342 Y-0.132
N2960G01 X201.322 Y-0.263
N2970G01 X201.29 Y-0.391
N2980G01 X201.245 Y-0.516
N2990G01 X201.189 Y-0.636
N3000G01 X201.121 Y-0.749
N3010G01 X201.042 Y-0.856
N3020G01 X200.953 Y-0.954
N3030G01 X200.854 Y-1.043
N3040G01 X200.748 Y-1.122
N3050G01 X200.634 Y-1.19
N3060G01 X200.515 Y-1.247
N3070G01 X200.39 Y-1.291
N3080G01 X200.261 Y-1.324
N3090G01 X200.13 Y-1.343
N3100G01 X199.998 Y-1.349
N3110G01 X0
N3120G01 Z-3 F500
N3130G01 X-0.132 Y-1.343 F1000
N3140G01 X-0.263 Y-1.324
N3150G01 X-0.391 Y-1.291
N3160G01 X-0.516 Y-1.247
N3170G01 X-0.636 Y-1.19
N3180G01 X-0.75 Y-1.122
N3190G01 X-0.856 Y-1.043
N3200G01 X-0.954 Y-0.954
N3210G01 X-1.043 Y-0.856
N3220G01 X-1.122 Y-0.749
N3230G01 X-1.19 Y-0.636
N3240G01 X-1.247 Y-0.516
N3250G01 X-1.291 Y-0.391
N3260G01 X-1.324 Y-0.263
N3270G01 X-1.343 Y-0.132
N3280G01 X-1.35 Y0
N3290G01 X-1.346 Y490.09
N3300G01 X-1.118 Y493.483
N3310G01 X-1.117 Y493.482
N3320G01 X-1.115 Y493.524
N3330G01 X-1.094 Y493.662
N3340G01 X-0.429 Y496.916
N3350G01 X-0.398 Y497.037
N3360G01 X-0.38 Y497.088
N3370G01 X-0.382 Y497.089
N3380G01 X0.689 Y500.174
N3390G01 X0.69 Y500.173
N3400G01 X0.717 Y500.247
N3410G01 X0.759 Y500.336
N3420G01 X0.758 Y500.336
N3430G01 X2.206 Y503.223
N3440G01 X2.207 Y503.222
N3450G01 X2.222 Y503.254
N3460G01 X2.294 Y503.373
N3470G01 X4.09 Y506.032
N3480G01 X4.165 Y506.133
N3490G01 X6.308 Y508.569
N3500G01 X6.31 Y508.568
N3510G01 X6.367 Y508.632
N3520G01 X6.431 Y508.689
N3530G01 X6.43 Y508.69
N3540G01 X8.831 Y510.804
N3550G01 X8.832 Y510.803
N3560G01 X8.866 Y510.834
N3570G01 X8.973 Y510.913
N3580G01 X11.631 Y512.709
N3590G01 X11.745 Y512.777
N3600G01 X11.777 Y512.792
N3610G01 X11.776 Y512.793
N3620G01 X14.663 Y514.241
N3630G01 X14.663 Y514.24
N3640G01 X14.752 Y514.282
N3650G01 X14.826 Y514.309
N3660G01 X14.825 Y514.31
N3670G01 X17.91 Y515.382
N3680G01 X17.911 Y515.38
N3690G01 X17.962 Y515.398
N3700G01 X18.083 Y515.429
N3710G01 X21.337 Y516.094
N3720G01 X21.475 Y516.115
N3730G01 X21.516 Y516.117
N3740G01 X21.516 Y516.118
N3750G01 X24.909 Y516.346
N3760G01 X24.909 Y516.345
N3770G01 X24.999 Y516.349
N3780G01 X25.045 Y516.347
N3790G01 X25.045 Y516.349
N3800G01 X26.695 Y516.293
N3810G01 X26.695 Y516.291
N3820G01 X26.782 Y516.287
N3830G01 X28.418 Y516.124
N3840G01 X28.506 Y516.111
N3850G01 X28.506 Y516.112
N3860G01 X30.162 Y515.836
N3870G01 X31.795 Y515.455
N3880G01 X31.794 Y515.453
N3890G01 X31.879 Y515.432
N3900G01 X33.437 Y514.958
N3910G01 X33.52 Y514.929
N3920G01 X33.52 Y514.93
N3930G01 X35.084 Y514.341
N3940G01 X36.605 Y513.653
N3950G01 X36.605 Y513.652
N3960G01 X36.684 Y513.615
N3970G01 X38.122 Y512.848
N3980G01 X38.196 Y512.803
N3990G01 X38.197 Y512.805
N4000G01 X39.621 Y511.92
N4010G01 X40.987 Y510.945
N4020G01 X40.986 Y510.944
N4030G01 X41.058 Y510.891
N4040G01 X42.329 Y509.849
N4050G01 X42.394 Y509.79
N4060G01 X42.395 Y509.791
N4070G01 X43.6 Y508.662
N4080G01 X43.599 Y508.661
N4090G01 X43.632 Y508.631
N4100G01 X193.632 Y358.632
N4110G01 X194.789 Y357.394
N4120G01 X194.788 Y357.393
N4130G01 X194.846 Y357.329
N4140G01 X195.886 Y356.056
N4150G01 X195.939 Y355.985
N4160G01 X195.94 Y355.986
N4170G01 X196.89 Y354.654
N4180G01 X196.889 Y354.654
N4190G01 X196.914 Y354.62
N4200G01 X196.937 Y354.581
N4210G01 X196.939 Y354.581
N4220G01 X197.798 Y353.194
N4230G01 X197.797 Y353.194
N4240G01 X197.841 Y353.12
N4250G01 X198.608 Y351.681
N4260G01 X198.645 Y351.602
N4270G01 X198.646 Y351.603
N4280G01 X199.335 Y350.08
N4290G01 X199.925 Y348.516
N4300G01 X199.924 Y348.516
N4310G01 X199.954 Y348.432
N4320G01 X200.428 Y346.874
N4330G01 X200.449 Y346.79
N4340G01 X200.451 Y346.791
N4350G01 X200.824 Y345.202
N4360G01 X200.823 Y345.202
N4370G01 X200.834 Y345.157
N4380G01 X200.84 Y345.116
N4390G01 X200.841 Y345.116
N4400G01 X201.111 Y343.503
N4410G01 X201.11 Y343.503
N4420G01 X201.123 Y343.415
N4430G01 X201.287 Y341.782
N4440G01 X201.291 Y341.693
N4450G01 X201.293 Y341.693
N4460G01 X201.35 Y340
N4470G01 X201.348 Y0
N4480G01 X201.342 Y-0.132
N4490G01 X201.322 Y-0.263
N4500G01 X201.29 Y-0.391
N4510G01 X201.245 Y-0.516
N4520G01 X201.189 Y-0.636
N4530G01 X201.121 Y-0.749
N4540G01 X201.042 Y-0.856
N4550G01 X200.953 Y-0.954
N4560G01 X200.854 Y-1.043
N4570G01 X200.748 Y-1.122
N4580G01 X200.634 Y-1.19
N4590G01 X200.515 Y-1.247
N4600G01 X200.39 Y-1.291
N4610G01 X200.261 Y-1.324
N4620G01 X200.13 Y-1.343
N4630G01 X199.998 Y-1.349
N4640G01 X0
N4650G01 Z-4 F500
N4660G01 X-0.132 Y-1.343 F1000
N4670G01 X-0.263 Y-1.324
N4680G01 X-0.391 Y-1.291
N4690G01 X-0.516 Y-1.247
N4700G01 X-0.636 Y-1.19
N4710G01 X-0.75 Y-1.122
N4720G01 X-0.856 Y-1.043
N4730G01 X-0.954 Y-0.954
N4740G01 X-1.043 Y-0.856
N4750G01 X-1.122 Y-0.749
N4760G01 X-1.19 Y-0.636
N4770G01 X-1.247 Y-0.516
N4780G01 X-1.291 Y-0.391
N4790G01 X-1.324 Y-0.263
N4800G01 X-1.343 Y-0.132
N4810G01 X-1.35 Y0
N4820G01 X-1.346 Y490.09
N4830G01 X-1.118 Y493.483
N4840G01 X-1.117 Y493.482
N4850G01 X-1.115 Y493.524
N4860G01 X-1.094 Y493.662
N4870G01 X-0.429 Y496.916
N4880G01 X-0.398 Y497.037
N4890G01 X-0.38 Y497.088
N4900G01 X-0.382 Y497.089
N4910G01 X0.689 Y500.174
N4920G01 X0.69 Y500.173
N4930G01 X0.717 Y500.247
N4940G01 X0.759 Y500.336
N4950G01 X0.758 Y500.336
N4960G01 X2.206 Y503.223
N4970G01 X2.207 Y503.222
N4980G01 X2.222 Y503.254
N4990G01 X2.294 Y503.373
N5000G01 X4.09 Y506.032
N5010G01 X4.165 Y506.133
N5020G01 X6.308 Y508.569
N5030G01 X6.31 Y508.568
N5040G01 X6.367 Y508.632
N5050G01 X6.431 Y508.689
N5060G01 X6.43 Y508.69
N5070G01 X8.831 Y510.804
N5080G01 X8.832 Y510.803
N5090G01 X8.866 Y510.834
N5100G01 X8.973 Y510.913
N5110G01 X11.631 Y512.709
N5120G01 X11.745 Y512.777
N5130G01 X11.777 Y512.792
N5140G01 X11.776 Y512.793
N5150G01 X14.663 Y514.241
N5160G01 X14.663 Y514.24
N5170G01 X14.752 Y514.282
N5180G01 X14.826 Y514.309
N5190G01 X14.825 Y514.31
N5200G01 X17.91 Y515.382
N5210G01 X17.911 Y515.38
N5220G01 X17.962 Y515.398
N5230G01 X18.083 Y515.429
N5240G01 X21.337 Y516.094
N5250G01 X21.475 Y516.115
N5260G01 X21.516 Y516.117
N5270G01 X21.516 Y516.118
N5280G01 X24.909 Y516.346
N5290G01 X24.909 Y516.345
N5300G01 X24.999 Y516.349
N5310G01 X25.045 Y516.347
N5320G01 X25.045 Y516.349
N5330G01 X26.695 Y516.293
N5340G01 X26.695 Y516.291
N5350G01 X26.782 Y516.287
N5360G01 X28.418 Y516.124
N5370G01 X28.506 Y516.111
N5380G01 X28.506 Y516.112
N5390G01 X30.162 Y515.836
N5400G01 X31.795 Y515.455
N5410G01 X31.794 Y515.453
N5420G01 X31.879 Y515.432
N5430G01 X33.437 Y514.958
N5440G01 X33.52 Y514.929
N5450G01 X33.52 Y514.93
N5460G01 X35.084 Y514.341
N5470G01 X36.605 Y513.653
N5480G01 X36.605 Y513.652
N5490G01 X36.684 Y513.615
N5500G01 X38.122 Y512.848
N5510G01 X38.196 Y512.803
N5520G01 X38.197 Y512.805
N5530G01 X39.621 Y511.92
N5540G01 X40.987 Y510.945
N5550G01 X40.986 Y510.944
N5560G01 X41.058 Y510.891
N5570G01 X42.329 Y509.849
N5580G01 X42.394 Y509.79
N5590G01 X42.395 Y509.791
N5600G01 X43.6 Y508.662
N5610G01 X43.599 Y508.661
N5620G01 X43.632 Y508.631
N5630G01 X193.632 Y358.632
N5640G01 X194.789 Y357.394
N5650G01 X194.788 Y357.393
N5660G01 X194.846 Y357.329
N5670G01 X195.886 Y356.056
N5680G01 X195.939 Y355.985
N5690G01 X195.94 Y355.986
N5700G01 X196.89 Y354.654
N5710G01 X196.889 Y354.654
N5720G01 X196.914 Y354.62
N5730G01 X196.937 Y354.581
N5740G01 X196.939 Y354.581
N5750G01 X197.798 Y353.194
N5760G01 X197.797 Y353.194
N5770G01 X197.841 Y353.12
N5780G01 X198.608 Y351.681
N5790G01 X198.645 Y351.602
N5800G01 X198.646 Y351.603
N5810G01 X199.335 Y350.08
N5820G01 X199.925 Y348.516
N5830G01 X199.924 Y348.516
N5840G01 X199.954 Y348.432
N5850G01 X200.428 Y346.874
N5860G01 X200.449 Y346.79
N5870G01 X200.451 Y346.791
N5880G01 X200.824 Y345.202
N5890G01 X200.823 Y345.202
N5900G01 X200.834 Y345.157
N5910G01 X200.84 Y345.116
N5920G01 X200.841 Y345.116
N5930G01 X201.111 Y343.503
N5940G01 X201.11 Y343.503
N5950G01 X201.123 Y343.415
N5960G01 X201.287 Y341.782
N5970G01 X201.291 Y341.693
N5980G01 X201.293 Y341.693
N5990G01 X201.35 Y340
N6000G01 X201.348 Y0
N6010G01 X201.342 Y-0.132
N6020G01 X201.322 Y-0.263
N6030G01 X201.29 Y-0.391
N6040G01 X201.245 Y-0.516
N6050G01 X201.189 Y-0.636
N6060G01 X201.121 Y-0.749
N6070G01 X201.042 Y-0.856
N6080G01 X200.953 Y-0.954
N6090G01 X200.854 Y-1.043
N6100G01 X200.748 Y-1.122
N6110G01 X200.634 Y-1.19
N6120G01 X200.515 Y-1.247
N6130G01 X200.39 Y-1.291
N6140G01 X200.261 Y-1.324
N6150G01 X200.13 Y-1.343
N6160G01 X199.998 Y-1.349
N6170G01 X0
N6180G01 Z-5 F500
N6190G01 X-0.132 Y-1.343 F1000
N6200G01 X-0.263 Y-1.324
N6210G01 X-0.391 Y-1.291
N6220G01 X-0.516 Y-1.247
N6230G01 X-0.636 Y-1.19
N6240G01 X-0.75 Y-1.122
N6250G01 X-0.856 Y-1.043
N6260G01 X-0.954 Y-0.954
N6270G01 X-1.043 Y-0.856
N6280G01 X-1.122 Y-0.749
N6290G01 X-1.19 Y-0.636
N6300G01 X-1.247 Y-0.516
N6310G01 X-1.291 Y-0.391
N6320G01 X-1.324 Y-0.263
N6330G01 X-1.343 Y-0.132
N6340G01 X-1.35 Y0
N6350G01 X-1.346 Y490.09
N6360G01 X-1.118 Y493.483
N6370G01 X-1.117 Y493.482
N6380G01 X-1.115 Y493.524
N6390G01 X-1.094 Y493.662
N6400G01 X-0.429 Y496.916
N6410G01 X-0.398 Y497.037
N6420G01 X-0.38 Y497.088
N6430G01 X-0.382 Y497.089
N6440G01 X0.689 Y500.174
N6450G01 X0.69 Y500.173
N6460G01 X0.717 Y500.247
N6470G01 X0.759 Y500.336
N6480G01 X0.758 Y500.336
N6490G01 X2.206 Y503.223
N6500G01 X2.207 Y503.222
N6510G01 X2.222 Y503.254
N6520G01 X2.294 Y503.373
N6530G01 X4.09 Y506.032
N6540G01 X4.165 Y506.133
N6550G01 X6.308 Y508.569
N6560G01 X6.31 Y508.568
N6570G01 X6.367 Y508.632
N6580G01 X6.431 Y508.689
N6590G01 X6.43 Y508.69
N6600G01 X8.831 Y510.804
N6610G01 X8.832 Y510.803
N6620G01 X8.866 Y510.834
N6630G01 X8.973 Y510.913
N6640G01 X11.631 Y512.709
N6650G01 X11.745 Y512.777
N6660G01 X11.777 Y512.792
N6670G01 X11.776 Y512.793
N6680G01 X14.663 Y514.241
N6690G01 X14.663 Y514.24
N6700G01 X14.752 Y514.282
N6710G01 X14.826 Y514.309
N6720G01 X14.825 Y514.31
N6730G01 X17.91 Y515.382
N6740G01 X17.911 Y515.38
N6750G01 X17.962 Y515.398
N6760G01 X18.083 Y515.429
N6770G01 X21.337 Y516.094
N6780G01 X21.475 Y516.115
N6790G01 X21.516 Y516.117
N6800G01 X21.516 Y516.118
N6810G01 X24.909 Y516.346
N6820G01 X24.909 Y516.345
N6830G01 X24.999 Y516.349
N6840G01 X25.045 Y516.347
N6850G01 X25.045 Y516.349
N6860G01 X26.695 Y516.293
N6870G01 X26.695 Y516.291
N6880G01 X26.782 Y516.287
N6890G01 X28.418 Y516.124
N6900G01 X28.506 Y516.111
N6910G01 X28.506 Y516.112
N6920G01 X30.162 Y515.836
N6930G01 X31.795 Y515.455
N6940G01 X31.794 Y515.453
N6950G01 X31.879 Y515.432
N6960G01 X33.437 Y514.958
N6970G01 X33.52 Y514.929
N6980G01 X33.52 Y514.93
N6990G01 X35.084 Y514.341
N7000G01 X36.605 Y513.653
N7010G01 X36.605 Y513.652
N7020G01 X36.684 Y513.615
N7030G01 X38.122 Y512.848
N7040G01 X38.196 Y512.803
N7050G01 X38.197 Y512.805
N7060G01 X39.621 Y511.92
N7070G01 X40.987 Y510.945
N7080G01 X40.986 Y510.944
N7090G01 X41.058 Y510.891
N7100G01 X42.329 Y509.849
N7110G01 X42.394 Y509.79
N7120G01 X42.395 Y509.791
N7130G01 X43.6 Y508.662
N7140G01 X43.599 Y508.661
N7150G01 X43.632 Y508.631
N7160G01 X193.632 Y358.632
N7170G01 X194.789 Y357.394
N7180G01 X194.788 Y357.393
N7190G01 X194.846 Y357.329
N7200G01 X195.886 Y356.056
N7210G01 X195.939 Y355.985
N7220G01 X195.94 Y355.986
N7230G01 X196.89 Y354.654
N7240G01 X196.889 Y354.654
N7250G01 X196.914 Y354.62
N7260G01 X196.937 Y354.581
N7270G01 X196.939 Y354.581
N7280G01 X197.798 Y353.194
N7290G01 X197.797 Y353.194
N7300G01 X197.841 Y353.12
N7310G01 X198.608 Y351.681
N7320G01 X198.645 Y351.602
N7330G01 X198.646 Y351.603
N7340G01 X199.335 Y350.08
N7350G01 X199.925 Y348.516
N7360G01 X199.924 Y348.516
N7370G01 X199.954 Y348.432
N7380G01 X200.428 Y346.874
N7390G01 X200.449 Y346.79
N7400G01 X200.451 Y346.791
N7410G01 X200.824 Y345.202
N7420G01 X200.823 Y345.202
N7430G01 X200.834 Y345.157
N7440G01 X200.84 Y345.116
N7450G01 X200.841 Y345.116
N7460G01 X201.111 Y343.503
N7470G01 X201.11 Y343.503
N7480G01 X201.123 Y343.415
N7490G01 X201.287 Y341.782
N7500G01 X201.291 Y341.693
N7510G01 X201.293 Y341.693
N7520G01 X201.35 Y340
N7530G01 X201.348 Y0
N7540G01 X201.342 Y-0.132
N7550G01 X201.322 Y-0.263
N7560G01 X201.29 Y-0.391
N7570G01 X201.245 Y-0.516
N7580G01 X201.189 Y-0.636
N7590G01 X201.121 Y-0.749
N7600G01 X201.042 Y-0.856
N7610G01 X200.953 Y-0.954
N7620G01 X200.854 Y-1.043
N7630G01 X200.748 Y-1.122
N7640G01 X200.634 Y-1.19
N7650G01 X200.515 Y-1.247
N7660G01 X200.39 Y-1.291
N7670G01 X200.261 Y-1.324
N7680G01 X200.13 Y-1.343
N7690G01 X199.998 Y-1.349
N7700G01 X0
N7710G01 Z-6 F500
N7720G01 X-0.132 Y-1.343 F1000
N7730G01 X-0.263 Y-1.324
N7740G01 X-0.391 Y-1.291
N7750G01 X-0.516 Y-1.247
N7760G01 X-0.636 Y-1.19
N7770G01 X-0.75 Y-1.122
N7780G01 X-0.856 Y-1.043
N7790G01 X-0.954 Y-0.954
N7800G01 X-1.043 Y-0.856
N7810G01 X-1.122 Y-0.749
N7820G01 X-1.19 Y-0.636
N7830G01 X-1.247 Y-0.516
N7840G01 X-1.291 Y-0.391
N7850G01 X-1.324 Y-0.263
N7860G01 X-1.343 Y-0.132
N7870G01 X-1.35 Y0
N7880G01 X-1.346 Y490.09
N7890G01 X-1.118 Y493.483
N7900G01 X-1.117 Y493.482
N7910G01 X-1.115 Y493.524
N7920G01 X-1.094 Y493.662
N7930G01 X-0.429 Y496.916
N7940G01 X-0.398 Y497.037
N7950G01 X-0.38 Y497.088
N7960G01 X-0.382 Y497.089
N7970G01 X0.689 Y500.174
N7980G01 X0.69 Y500.173
N7990G01 X0.717 Y500.247
N8000G01 X0.759 Y500.336
N8010G01 X0.758 Y500.336
N8020G01 X2.206 Y503.223
N8030G01 X2.207 Y503.222
N8040G01 X2.222 Y503.254
N8050G01 X2.294 Y503.373
N8060G01 X4.09 Y506.032
N8070G01 X4.165 Y506.133
N8080G01 X6.308 Y508.569
N8090G01 X6.31 Y508.568
N8100G01 X6.367 Y508.632
N8110G01 X6.431 Y508.689
N8120G01 X6.43 Y508.69
N8130G01 X8.831 Y510.804
N8140G01 X8.832 Y510.803
N8150G01 X8.866 Y510.834
N8160G01 X8.973 Y510.913
N8170G01 X11.631 Y512.709
N8180G01 X11.745 Y512.777
N8190G01 X11.777 Y512.792
N8200G01 X11.776 Y512.793
N8210G01 X14.663 Y514.241
N8220G01 X14.663 Y514.24
N8230G01 X14.752 Y514.282
N8240G01 X14.826 Y514.309
N8250G01 X14.825 Y514.31
N8260G01 X17.91 Y515.382
N8270G01 X17.911 Y515.38
N8280G01 X17.962 Y515.398
N8290G01 X18.083 Y515.429
N8300G01 X21.337 Y516.094
N8310G01 X21.475 Y516.115
N8320G01 X21.516 Y516.117
N8330G01 X21.516 Y516.118
N8340G01 X24.909 Y516.346
N8350G01 X24.909 Y516.345
N8360G01 X24.999 Y516.349
N8370G01 X25.045 Y516.347
N8380G01 X25.045 Y516.349
N8390G01 X26.695 Y516.293
N8400G01 X26.695 Y516.291
N8410G01 X26.782 Y516.287
N8420G01 X28.418 Y516.124
N8430G01 X28.506 Y516.111
N8440G01 X28.506 Y516.112
N8450G01 X30.162 Y515.836
N8460G01 X31.795 Y515.455
N8470G01 X31.794 Y515.453
N8480G01 X31.879 Y515.432
N8490G01 X33.437 Y514.958
N8500G01 X33.52 Y514.929
N8510G01 X33.52 Y514.93
N8520G01 X35.084 Y514.341
N8530G01 X36.605 Y513.653
N8540G01 X36.605 Y513.652
N8550G01 X36.684 Y513.615
N8560G01 X38.122 Y512.848
N8570G01 X38.196 Y512.803
N8580G01 X38.197 Y512.805
N8590G01 X39.621 Y511.92
N8600G01 X40.987 Y510.945
N8610G01 X40.986 Y510.944
N8620G01 X41.058 Y510.891
N8630G01 X42.329 Y509.849
N8640G01 X42.394 Y509.79
N8650G01 X42.395 Y509.791
N8660G01 X43.6 Y508.662
N8670G01 X43.599 Y508.661
N8680G01 X43.632 Y508.631
N8690G01 X193.632 Y358.632
N8700G01 X194.789 Y357.394
N8710G01 X194.788 Y357.393
N8720G01 X194.846 Y357.329
N8730G01 X195.886 Y356.056
N8740G01 X195.939 Y355.985
N8750G01 X195.94 Y355.986
N8760G01 X196.89 Y354.654
N8770G01 X196.889 Y354.654
N8780G01 X196.914 Y354.62
N8790G01 X196.937 Y354.581
N8800G01 X196.939 Y354.581
N8810G01 X197.798 Y353.194
N8820G01 X197.797 Y353.194
N8830G01 X197.841 Y353.12
N8840G01 X198.608 Y351.681
N8850G01 X198.645 Y351.602
N8860G01 X198.646 Y351.603
N8870G01 X199.335 Y350.08
N8880G01 X199.925 Y348.516
N8890G01 X199.924 Y348.516
N8900G01 X199.954 Y348.432
N8910G01 X200.428 Y346.874
N8920G01 X200.449 Y346.79
N8930G01 X200.451 Y346.791
N8940G01 X200.824 Y345.202
N8950G01 X200.823 Y345.202
N8960G01 X200.834 Y345.157
N8970G01 X200.84 Y345.116
N8980G01 X200.841 Y345.116
N8990G01 X201.111 Y343.503
N9000G01 X201.11 Y343.503
N9010G01 X201.123 Y343.415
N9020G01 X201.287 Y341.782
N9030G01 X201.291 Y341.693
N9040G01 X201.293 Y341.693
N9050G01 X201.35 Y340
N9060G01 X201.348 Y0
N9070G01 X201.342 Y-0.132
N9080G01 X201.322 Y-0.263
N9090G01 X201.29 Y-0.391
N9100G01 X201.245 Y-0.516
N9110G01 X201.189 Y-0.636
N9120G01 X201.121 Y-0.749
N9130G01 X201.042 Y-0.856
N9140G01 X200.953 Y-0.954
N9150G01 X200.854 Y-1.043
N9160G01 X200.748 Y-1.122
N9170G01 X200.634 Y-1.19
N9180G01 X200.515 Y-1.247
N9190G01 X200.39 Y-1.291
N9200G01 X200.261 Y-1.324
N9210G01 X200.13 Y-1.343
N9220G01 X199.998 Y-1.349
N9230G01 X0
N9240G01 Z-7 F500
N9250G01 X-0.132 Y-1.343 F1000
N9260G01 X-0.263 Y-1.324
N9270G01 X-0.391 Y-1.291
N9280G01 X-0.516 Y-1.247
N9290G01 X-0.636 Y-1.19
N9300G01 X-0.75 Y-1.122
N9310G01 X-0.856 Y-1.043
N9320G01 X-0.954 Y-0.954
N9330G01 X-1.043 Y-0.856
N9340G01 X-1.122 Y-0.749
N9350G01 X-1.19 Y-0.636
N9360G01 X-1.247 Y-0.516
N9370G01 X-1.291 Y-0.391
N9380G01 X-1.324 Y-0.263
N9390G01 X-1.343 Y-0.132
N9400G01 X-1.35 Y0
N9410G01 X-1.346 Y490.09
N9420G01 X-1.118 Y493.483
N9430G01 X-1.117 Y493.482
N9440G01 X-1.115 Y493.524
N9450G01 X-1.094 Y493.662
N9460G01 X-0.429 Y496.916
N9470G01 X-0.398 Y497.037
N9480G01 X-0.38 Y497.088
N9490G01 X-0.382 Y497.089
N9500G01 X0.689 Y500.174
N9510G01 X0.69 Y500.173
N9520G01 X0.717 Y500.247
N9530G01 X0.759 Y500.336
N9540G01 X0.758 Y500.336
N9550G01 X2.206 Y503.223
N9560G01 X2.207 Y503.222
N9570G01 X2.222 Y503.254
N9580G01 X2.294 Y503.373
N9590G01 X4.09 Y506.032
N9600G01 X4.165 Y506.133
N9610G01 X6.308 Y508.569
N9620G01 X6.31 Y508.568
N9630G01 X6.367 Y508.632
N9640G01 X6.431 Y508.689
N9650G01 X6.43 Y508.69
N9660G01 X8.831 Y510.804
N9670G01 X8.832 Y510.803
N9680G01 X8.866 Y510.834
N9690G01 X8.973 Y510.913
N9700G01 X11.631 Y512.709
N9710G01 X11.745 Y512.777
N9720G01 X11.777 Y512.792
N9730G01 X11.776 Y512.793
N9740G01 X14.663 Y514.241
N9750G01 X14.663 Y514.24
N9760G01 X14.752 Y514.282
N9770G01 X14.826 Y514.309
N9780G01 X14.825 Y514.31
N9790G01 X17.91 Y515.382
N9800G01 X17.911 Y515.38
N9810G01 X17.962 Y515.398
N9820G01 X18.083 Y515.429
N9830G01 X21.337 Y516.094
N9840G01 X21.475 Y516.115
N9850G01 X21.516 Y516.117
N9860G01 X21.516 Y516.118
N9870G01 X24.909 Y516.346
N9880G01 X24.909 Y516.345
N9890G01 X24.999 Y516.349
N9900G01 X25.045 Y516.347
N9910G01 X25.045 Y516.349
N9920G01 X26.695 Y516.293
N9930G01 X26.695 Y516.291
N9940G01 X26.782 Y516.287
N9950G01 X28.418 Y516.124
N9960G01 X28.506 Y516.111
N9970G01 X28.506 Y516.112
N9980G01 X30.162 Y515.836
N9990G01 X31.795 Y515.455
N10000G01 X31.794 Y515.453
N10010G01 X31.879 Y515.432
N10020G01 X33.437 Y514.958
N10030G01 X33.52 Y514.929
N10040G01 X33.52 Y514.93
N10050G01 X35.084 Y514.341
N10060G01 X36.605 Y513.653
N10070G01 X36.605 Y513.652
N10080G01 X36.684 Y513.615
N10090G01 X38.122 Y512.848
N10100G01 X38.196 Y512.803
N10110G01 X38.197 Y512.805
N10120G01 X39.621 Y511.92
N10130G01 X40.987 Y510.945
N10140G01 X40.986 Y510.944
N10150G01 X41.058 Y510.891
N10160G01 X42.329 Y509.849
N10170G01 X42.394 Y509.79
N10180G01 X42.395 Y509.791
N10190G01 X43.6 Y508.662
N10200G01 X43.599 Y508.661
N10210G01 X43.632 Y508.631
N10220G01 X193.632 Y358.632
N10230G01 X194.789 Y357.394
N10240G01 X194.788 Y357.393
N10250G01 X194.846 Y357.329
N10260G01 X195.886 Y356.056
N10270G01 X195.939 Y355.985
N10280G01 X195.94 Y355.986
N10290G01 X196.89 Y354.654
N10300G01 X196.889 Y354.654
N10310G01 X196.914 Y354.62
N10320G01 X196.937 Y354.581
N10330G01 X196.939 Y354.581
N10340G01 X197.798 Y353.194
N10350G01 X197.797 Y353.194
N10360G01 X197.841 Y353.12
N10370G01 X198.608 Y351.681
N10380G01 X198.645 Y351.602
N10390G01 X198.646 Y351.603
N10400G01 X199.335 Y350.08
N10410G01 X199.925 Y348.516
N10420G01 X199.924 Y348.516
N10430G01 X199.954 Y348.432
N10440G01 X200.428 Y346.874
N10450G01 X200.449 Y346.79
N10460G01 X200.451 Y346.791
N10470G01 X200.824 Y345.202
N10480G01 X200.823 Y345.202
N10490G01 X200.834 Y345.157
N10500G01 X200.84 Y345.116
N10510G01 X200.841 Y345.116
N10520G01 X201.111 Y343.503
N10530G01 X201.11 Y343.503
N10540G01 X201.123 Y343.415
N10550G01 X201.287 Y341.782
N10560G01 X201.291 Y341.693
N10570G01 X201.293 Y341.693
N10580G01 X201.35 Y340
N10590G01 X201.348 Y0
N10600G01 X201.342 Y-0.132
N10610G01 X201.322 Y-0.263
N10620G01 X201.29 Y-0.391
N10630G01 X201.245 Y-0.516
N10640G01 X201.189 Y-0.636
N10650G01 X201.121 Y-0.749
N10660G01 X201.042 Y-0.856
N10670G01 X200.953 Y-0.954
N10680G01 X200.854 Y-1.043
N10690G01 X200.748 Y-1.122
N10700G01 X200.634 Y-1.19
N10710G01 X200.515 Y-1.247
N10720G01 X200.39 Y-1.291
N10730G01 X200.261 Y-1.324
N10740G01 X200.13 Y-1.343
N10750G01 X199.998 Y-1.349
N10760G01 X0
N10770G01 Z-8 F500
N10780G01 X-0.132 Y-1.343 F1000
N10790G01 X-0.263 Y-1.324
N10800G01 X-0.391 Y-1.291
N10810G01 X-0.516 Y-1.247
N10820G01 X-0.636 Y-1.19
N10830G01 X-0.75 Y-1.122
N10840G01 X-0.856 Y-1.043
N10850G01 X-0.954 Y-0.954
N10860G01 X-1.043 Y-0.856
N10870G01 X-1.122 Y-0.749
N10880G01 X-1.19 Y-0.636
N10890G01 X-1.247 Y-0.516
N10900G01 X-1.291 Y-0.391
N10910G01 X-1.324 Y-0.263
N10920G01 X-1.343 Y-0.132
N10930G01 X-1.35 Y0
N10940G01 X-1.346 Y490.09
N10950G01 X-1.118 Y493.483
N10960G01 X-1.117 Y493.482
N10970G01 X-1.115 Y493.524
N10980G01 X-1.094 Y493.662
N10990G01 X-0.429 Y496.916
N11000G01 X-0.398 Y497.037
N11010G01 X-0.38 Y497.088
N11020G01 X-0.382 Y497.089
N11030G01 X0.689 Y500.174
N11040G01 X0.69 Y500.173
N11050G01 X0.717 Y500.247
N11060G01 X0.759 Y500.336
N11070G01 X0.758 Y500.336
N11080G01 X2.206 Y503.223
N11090G01 X2.207 Y503.222
N11100G01 X2.222 Y503.254
N11110G01 X2.294 Y503.373
N11120G01 X4.09 Y506.032
N11130G01 X4.165 Y506.133
N11140G01 X6.308 Y508.569
N11150G01 X6.31 Y508.568
N11160G01 X6.367 Y508.632
N11170G01 X6.431 Y508.689
N11180G01 X6.43 Y508.69
N11190G01 X8.831 Y510.804
N11200G01 X8.832 Y510.803
N11210G01 X8.866 Y510.834
N11220G01 X8.973 Y510.913
N11230G01 X11.631 Y512.709
N11240G01 X11.745 Y512.777
N11250G01 X11.777 Y512.792
N11260G01 X11.776 Y512.793
N11270G01 X14.663 Y514.241
N11280G01 X14.663 Y514.24
N11290G01 X14.752 Y514.282
N11300G01 X14.826 Y514.309
N11310G01 X14.825 Y514.31
N11320G01 X17.91 Y515.382
N11330G01 X17.911 Y515.38
N11340G01 X17.962 Y515.398
N11350G01 X18.083 Y515.429
N11360G01 X21.337 Y516.094
N11370G01 X21.475 Y516.115
N11380G01 X21.516 Y516.117
N11390G01 X21.516 Y516.118
N11400G01 X24.909 Y516.346
N11410G01 X24.909 Y516.345
N11420G01 X24.999 Y516.349
N11430G01 X25.045 Y516.347
N11440G01 X25.045 Y516.349
N11450G01 X26.695 Y516.293
N11460G01 X26.695 Y516.291
N11470G01 X26.782 Y516.287
N11480G01 X28.418 Y516.124
N11490G01 X28.506 Y516.111
N11500G01 X28.506 Y516.112
N11510G01 X30.162 Y515.836
N11520G01 X31.795 Y515.455
N11530G01 X31.794 Y515.453
N11540G01 X31.879 Y515.432
N11550G01 X33.437 Y514.958
N11560G01 X33.52 Y514.929
N11570G01 X33.52 Y514.93
N11580G01 X35.084 Y514.341
N11590G01 X36.605 Y513.653
N11600G01 X36.605 Y513.652
N11610G01 X36.684 Y513.615
N11620G01 X38.122 Y512.848
N11630G01 X38.196 Y512.803
N11640G01 X38.197 Y512.805
N11650G01 X39.621 Y511.92
N11660G01 X40.987 Y510.945
N11670G01 X40.986 Y510.944
N11680G01 X41.058 Y510.891
N11690G01 X42.329 Y509.849
N11700G01 X42.394 Y509.79
N11710G01 X42.395 Y509.791
N11720G01 X43.6 Y508.662
N11730G01 X43.599 Y508.661
N11740G01 X43.632 Y508.631
N11750G01 X193.632 Y358.632
N11760G01 X194.789 Y357.394
N11770G01 X194.788 Y357.393
N11780G01 X194.846 Y357.329
N11790G01 X195.886 Y356.056
N11800G01 X195.939 Y355.985
N11810G01 X195.94 Y355.986
N11820G01 X196.89 Y354.654
N11830G01 X196.889 Y354.654
N11840G01 X196.914 Y354.62
N11850G01 X196.937 Y354.581
N11860G01 X196.939 Y354.581
N11870G01 X197.798 Y353.194
N11880G01 X197.797 Y353.194
N11890G01 X197.841 Y353.12
N11900G01 X198.608 Y351.681
N11910G01 X198.645 Y351.602
N11920G01 X198.646 Y351.603
N11930G01 X199.335 Y350.08
N11940G01 X199.925 Y348.516
N11950G01 X199.924 Y348.516
N11960G01 X199.954 Y348.432
N11970G01 X200.428 Y346.874
N11980G01 X200.449 Y346.79
N11990G01 X200.451 Y346.791
N12000G01 X200.824 Y345.202
N12010G01 X200.823 Y345.202
N12020G01 X200.834 Y345.157
N12030G01 X200.84 Y345.116
N12040G01 X200.841 Y345.116
N12050G01 X201.111 Y343.503
N12060G01 X201.11 Y343.503
N12070G01 X201.123 Y343.415
N12080G01 X201.287 Y341.782
N12090G01 X201.291 Y341.693
N12100G01 X201.293 Y341.693
N12110G01 X201.35 Y340
N12120G01 X201.348 Y0
N12130G01 X201.342 Y-0.132
N12140G01 X201.322 Y-0.263
N12150G01 X201.29 Y-0.391
N12160G01 X201.245 Y-0.516
N12170G01 X201.189 Y-0.636
N12180G01 X201.121 Y-0.749
N12190G01 X201.042 Y-0.856
N12200G01 X200.953 Y-0.954
N12210G01 X200.854 Y-1.043
N12220G01 X200.748 Y-1.122
N12230G01 X200.634 Y-1.19
N12240G01 X200.515 Y-1.247
N12250G01 X200.39 Y-1.291
N12260G01 X200.261 Y-1.324
N12270G01 X200.13 Y-1.343
N12280G01 X199.998 Y-1.349
N12290G01 X0
N12300G01 Z-9 F500
N12310G01 X-0.132 Y-1.343 F1000
N12320G01 X-0.263 Y-1.324
N12330G01 X-0.391 Y-1.291
N12340G01 X-0.516 Y-1.247
N12350G01 X-0.636 Y-1.19
N12360G01 X-0.75 Y-1.122
N12370G01 X-0.856 Y-1.043
N12380G01 X-0.954 Y-0.954
N12390G01 X-1.043 Y-0.856
N12400G01 X-1.122 Y-0.749
N12410G01 X-1.19 Y-0.636
N12420G01 X-1.247 Y-0.516
N12430G01 X-1.291 Y-0.391
N12440G01 X-1.324 Y-0.263
N12450G01 X-1.343 Y-0.132
N12460G01 X-1.35 Y0
N12470G01 X-1.346 Y490.09
N12480G01 X-1.118 Y493.483
N12490G01 X-1.117 Y493.482
N12500G01 X-1.115 Y493.524
N12510G01 X-1.094 Y493.662
N12520G01 X-0.429 Y496.916
N12530G01 X-0.398 Y497.037
N12540G01 X-0.38 Y497.088
N12550G01 X-0.382 Y497.089
N12560G01 X0.689 Y500.174
N12570G01 X0.69 Y500.173
N12580G01 X0.717 Y500.247
N12590G01 X0.759 Y500.336
N12600G01 X0.758 Y500.336
N12610G01 X2.206 Y503.223
N12620G01 X2.207 Y503.222
N12630G01 X2.222 Y503.254
N12640G01 X2.294 Y503.373
N12650G01 X4.09 Y506.032
N12660G01 X4.165 Y506.133
N12670G01 X6.308 Y508.569
N12680G01 X6.31 Y508.568
N12690G01 X6.367 Y508.632
N12700G01 X6.431 Y508.689
N12710G01 X6.43 Y508.69
N12720G01 X8.831 Y510.804
N12730G01 X8.832 Y510.803
N12740G01 X8.866 Y510.834
N12750G01 X8.973 Y510.913
N12760G01 X11.631 Y512.709
N12770G01 X11.745 Y512.777
N12780G01 X11.777 Y512.792
N12790G01 X11.776 Y512.793
N12800G01 X14.663 Y514.241
N12810G01 X14.663 Y514.24
N12820G01 X14.752 Y514.282
N12830G01 X14.826 Y514.309
N12840G01 X14.825 Y514.31
N12850G01 X17.91 Y515.382
N12860G01 X17.911 Y515.38
N12870G01 X17.962 Y515.398
N12880G01 X18.083 Y515.429
N12890G01 X21.337 Y516.094
N12900G01 X21.475 Y516.115
N12910G01 X21.516 Y516.117
N12920G01 X21.516 Y516.118
N12930G01 X24.909 Y516.346
N12940G01 X24.909 Y516.345
N12950G01 X24.999 Y516.349
N12960G01 X25.045 Y516.347
N12970G01 X25.045 Y516.349
N12980G01 X26.695 Y516.293
N12990G01 X26.695 Y516.291
N13000G01 X26.782 Y516.287
N13010G01 X28.418 Y516.124
N13020G01 X28.506 Y516.111
N13030G01 X28.506 Y516.112
N13040G01 X30.162 Y515.836
N13050G01 X31.795 Y515.455
N13060G01 X31.794 Y515.453
N13070G01 X31.879 Y515.432
N13080G01 X33.437 Y514.958
N13090G01 X33.52 Y514.929
N13100G01 X33.52 Y514.93
N13110G01 X35.084 Y514.341
N13120G01 X36.605 Y513.653
N13130G01 X36.605 Y513.652
N13140G01 X36.684 Y513.615
N13150G01 X38.122 Y512.848
N13160G01 X38.196 Y512.803
N13170G01 X38.197 Y512.805
N13180G01 X39.621 Y511.92
N13190G01 X40.987 Y510.945
N13200G01 X40.986 Y510.944
N13210G01 X41.058 Y510.891
N13220G01 X42.329 Y509.849
N13230G01 X42.394 Y509.79
N13240G01 X42.395 Y509.791
N13250G01 X43.6 Y508.662
N13260G01 X43.599 Y508.661
N13270G01 X43.632 Y508.631
N13280G01 X193.632 Y358.632
N13290G01 X194.789 Y357.394
N13300G01 X194.788 Y357.393
N13310G01 X194.846 Y357.329
N13320G01 X195.886 Y356.056
N13330G01 X195.939 Y355.985
N13340G01 X195.94 Y355.986
N13350G01 X196.89 Y354.654
N13360G01 X196.889 Y354.654
N13370G01 X196.914 Y354.62
N13380G01 X196.937 Y354.581
N13390G01 X196.939 Y354.581
N13400G01 X197.798 Y353.194
N13410G01 X197.797 Y353.194
N13420G01 X197.841 Y353.12
N13430G01 X198.608 Y351.681
N13440G01 X198.645 Y351.602
N13450G01 X198.646 Y351.603
N13460G01 X199.335 Y350.08
N13470G01 X199.925 Y348.516
N13480G01 X199.924 Y348.516
N13490G01 X199.954 Y348.432
N13500G01 X200.428 Y346.874
N13510G01 X200.449 Y346.79
N13520G01 X200.451 Y346.791
N13530G01 X200.824 Y345.202
N13540G01 X200.823 Y345.202
N13550G01 X200.834 Y345.157
N13560G01 X200.84 Y345.116
N13570G01 X200.841 Y345.116
N13580G01 X201.111 Y343.503
N13590G01 X201.11 Y343.503
N13600G01 X201.123 Y343.415
N13610G01 X201.287 Y341.782
N13620G01 X201.291 Y341.693
N13630G01 X201.293 Y341.693
N13640G01 X201.35 Y340
N13650G01 X201.348 Y0
N13660G01 X201.342 Y-0.132
N13670G01 X201.322 Y-0.263
N13680G01 X201.29 Y-0.391
N13690G01 X201.245 Y-0.516
N13700G01 X201.189 Y-0.636
N13710G01 X201.121 Y-0.749
N13720G01 X201.042 Y-0.856
N13730G01 X200.953 Y-0.954
N13740G01 X200.854 Y-1.043
N13750G01 X200.748 Y-1.122
N13760G01 X200.634 Y-1.19
N13770G01 X200.515 Y-1.247
N13780G01 X200.39 Y-1.291
N13790G01 X200.261 Y-1.324
N13800G01 X200.13 Y-1.343
N13810G01 X199.998 Y-1.349
N13820G01 X0
N13830G01 Z-10 F500
N13840G01 X-0.132 Y-1.343 F1000
N13850G01 X-0.263 Y-1.324
N13860G01 X-0.391 Y-1.291
N13870G01 X-0.516 Y-1.247
N13880G01 X-0.636 Y-1.19
N13890G01 X-0.75 Y-1.122
N13900G01 X-0.856 Y-1.043
N13910G01 X-0.954 Y-0.954
N13920G01 X-1.043 Y-0.856
N13930G01 X-1.122 Y-0.749
N13940G01 X-1.19 Y-0.636
N13950G01 X-1.247 Y-0.516
N13960G01 X-1.291 Y-0.391
N13970G01 X-1.324 Y-0.263
N13980G01 X-1.343 Y-0.132
N13990G01 X-1.35 Y0
N14000G01 X-1.346 Y490.09
N14010G01 X-1.118 Y493.483
N14020G01 X-1.117 Y493.482
N14030G01 X-1.115 Y493.524
N14040G01 X-1.094 Y493.662
N14050G01 X-0.429 Y496.916
N14060G01 X-0.398 Y497.037
N14070G01 X-0.38 Y497.088
N14080G01 X-0.382 Y497.089
N14090G01 X0.689 Y500.174
N14100G01 X0.69 Y500.173
N14110G01 X0.717 Y500.247
N14120G01 X0.759 Y500.336
N14130G01 X0.758 Y500.336
N14140G01 X2.206 Y503.223
N14150G01 X2.207 Y503.222
N14160G01 X2.222 Y503.254
N14170G01 X2.294 Y503.373
N14180G01 X4.09 Y506.032
N14190G01 X4.165 Y506.133
N14200G01 X6.308 Y508.569
N14210G01 X6.31 Y508.568
N14220G01 X6.367 Y508.632
N14230G01 X6.431 Y508.689
N14240G01 X6.43 Y508.69
N14250G01 X8.831 Y510.804
N14260G01 X8.832 Y510.803
N14270G01 X8.866 Y510.834
N14280G01 X8.973 Y510.913
N14290G01 X11.631 Y512.709
N14300G01 X11.745 Y512.777
N14310G01 X11.777 Y512.792
N14320G01 X11.776 Y512.793
N14330G01 X14.663 Y514.241
N14340G01 X14.663 Y514.24
N14350G01 X14.752 Y514.282
N14360G01 X14.826 Y514.309
N14370G01 X14.825 Y514.31
N14380G01 X17.91 Y515.382
N14390G01 X17.911 Y515.38
N14400G01 X17.962 Y515.398
N14410G01 X18.083 Y515.429
N14420G01 X21.337 Y516.094
N14430G01 X21.475 Y516.115
N14440G01 X21.516 Y516.117
N14450G01 X21.516 Y516.118
N14460G01 X24.909 Y516.346
N14470G01 X24.909 Y516.345
N14480G01 X24.999 Y516.349
N14490G01 X25.045 Y516.347
N14500G01 X25.045 Y516.349
N14510G01 X26.695 Y516.293
N14520G01 X26.695 Y516.291
N14530G01 X26.782 Y516.287
N14540G01 X28.418 Y516.124
N14550G01 X28.506 Y516.111
N14560G01 X28.506 Y516.112
N14570G01 X30.162 Y515.836
N14580G01 X31.795 Y515.455
N14590G01 X31.794 Y515.453
N14600G01 X31.879 Y515.432
N14610G01 X33.437 Y514.958
N14620G01 X33.52 Y514.929
N14630G01 X33.52 Y514.93
N14640G01 X35.084 Y514.341
N14650G01 X36.605 Y513.653
N14660G01 X36.605 Y513.652
N14670G01 X36.684 Y513.615
N14680G01 X38.122 Y512.848
N14690G01 X38.196 Y512.803
N14700G01 X38.197 Y512.805
N14710G01 X39.621 Y511.92
N14720G01 X40.987 Y510.945
N14730G01 X40.986 Y510.944
N14740G01 X41.058 Y510.891
N14750G01 X42.329 Y509.849
N14760G01 X42.394 Y509.79
N14770G01 X42.395 Y509.791
N14780G01 X43.6 Y508.662
N14790G01 X43.599 Y508.661
N14800G01 X43.632 Y508.631
N14810G01 X193.632 Y358.632
N14820G01 X194.789 Y357.394
N14830G01 X194.788 Y357.393
N14840G01 X194.846 Y357.329
N14850G01 X195.886 Y356.056
N14860G01 X195.939 Y355.985
N14870G01 X195.94 Y355.986
N14880G01 X196.89 Y354.654
N14890G01 X196.889 Y354.654
N14900G01 X196.914 Y354.62
N14910G01 X196.937 Y354.581
N14920G01 X196.939 Y354.581
N14930G01 X197.798 Y353.194
N14940G01 X197.797 Y353.194
N14950G01 X197.841 Y353.12
N14960G01 X198.608 Y351.681
N14970G01 X198.645 Y351.602
N14980G01 X198.646 Y351.603
N14990G01 X199.335 Y350.08
N15000G01 X199.925 Y348.516
N15010G01 X199.924 Y348.516
N15020G01 X199.954 Y348.432
N15030G01 X200.428 Y346.874
N15040G01 X200.449 Y346.79
N15050G01 X200.451 Y346.791
N15060G01 X200.824 Y345.202
N15070G01 X200.823 Y345.202
N15080G01 X200.834 Y345.157
N15090G01 X200.84 Y345.116
N15100G01 X200.841 Y345.116
N15110G01 X201.111 Y343.503
N15120G01 X201.11 Y343.503
N15130G01 X201.123 Y343.415
N15140G01 X201.287 Y341.782
N15150G01 X201.291 Y341.693
N15160G01 X201.293 Y341.693
N15170G01 X201.35 Y340
N15180G01 X201.348 Y0
N15190G01 X201.342 Y-0.132
N15200G01 X201.322 Y-0.263
N15210G01 X201.29 Y-0.391
N15220G01 X201.245 Y-0.516
N15230G01 X201.189 Y-0.636
N15240G01 X201.121 Y-0.749
N15250G01 X201.042 Y-0.856
N15260G01 X200.953 Y-0.954
N15270G01 X200.854 Y-1.043
N15280G01 X200.748 Y-1.122
N15290G01 X200.634 Y-1.19
N15300G01 X200.515 Y-1.247
N15310G01 X200.39 Y-1.291
N15320G01 X200.261 Y-1.324
N15330G01 X200.13 Y-1.343
N15340G01 X199.998 Y-1.349
N15350G01 X0
N15360G01 Z-11 F500
N15370G01 X-0.132 Y-1.343 F1000
N15380G01 X-0.263 Y-1.324
N15390G01 X-0.391 Y-1.291
N15400G01 X-0.516 Y-1.247
N15410G01 X-0.636 Y-1.19
N15420G01 X-0.75 Y-1.122
N15430G01 X-0.856 Y-1.043
N15440G01 X-0.954 Y-0.954
N15450G01 X-1.043 Y-0.856
N15460G01 X-1.122 Y-0.749
N15470G01 X-1.19 Y-0.636
N15480G01 X-1.247 Y-0.516
N15490G01 X-1.291 Y-0.391
N15500G01 X-1.324 Y-0.263
N15510G01 X-1.343 Y-0.132
N15520G01 X-1.35 Y0
N15530G01 X-1.346 Y490.09
N15540G01 X-1.118 Y493.483
N15550G01 X-1.117 Y493.482
N15560G01 X-1.115 Y493.524
N15570G01 X-1.094 Y493.662
N15580G01 X-0.429 Y496.916
N15590G01 X-0.398 Y497.037
N15600G01 X-0.38 Y497.088
N15610G01 X-0.382 Y497.089
N15620G01 X0.689 Y500.174
N15630G01 X0.69 Y500.173
N15640G01 X0.717 Y500.247
N15650G01 X0.759 Y500.336
N15660G01 X0.758 Y500.336
N15670G01 X2.206 Y503.223
N15680G01 X2.207 Y503.222
N15690G01 X2.222 Y503.254
N15700G01 X2.294 Y503.373
N15710G01 X4.09 Y506.032
N15720G01 X4.165 Y506.133
N15730G01 X6.308 Y508.569
N15740G01 X6.31 Y508.568
N15750G01 X6.367 Y508.632
N15760G01 X6.431 Y508.689
N15770G01 X6.43 Y508.69
N15780G01 X8.831 Y510.804
N15790G01 X8.832 Y510.803
N15800G01 X8.866 Y510.834
N15810G01 X8.973 Y510.913
N15820G01 X11.631 Y512.709
N15830G01 X11.745 Y512.777
N15840G01 X11.777 Y512.792
N15850G01 X11.776 Y512.793
N15860G01 X14.663 Y514.241
N15870G01 X14.663 Y514.24
N15880G01 X14.752 Y514.282
N15890G01 X14.826 Y514.309
N15900G01 X14.825 Y514.31
N15910G01 X17.91 Y515.382
N15920G01 X17.911 Y515.38
N15930G01 X17.962 Y515.398
N15940G01 X18.083 Y515.429
N15950G01 X21.337 Y516.094
N15960G01 X21.475 Y516.115
N15970G01 X21.516 Y516.117
N15980G01 X21.516 Y516.118
N15990G01 X24.909 Y516.346
N16000G01 X24.909 Y516.345
N16010G01 X24.999 Y516.349
N16020G01 X25.045 Y516.347
N16030G01 X25.045 Y516.349
N16040G01 X26.695 Y516.293
N16050G01 X26.695 Y516.291
N16060G01 X26.782 Y516.287
N16070G01 X28.418 Y516.124
N16080G01 X28.506 Y516.111
N16090G01 X28.506 Y516.112
N16100G01 X30.162 Y515.836
N16110G01 X31.795 Y515.455
N16120G01 X31.794 Y515.453
N16130G01 X31.879 Y515.432
N16140G01 X33.437 Y514.958
N16150G01 X33.52 Y514.929
N16160G01 X33.52 Y514.93
N16170G01 X35.084 Y514.341
N16180G01 X36.605 Y513.653
N16190G01 X36.605 Y513.652
N16200G01 X36.684 Y513.615
N16210G01 X38.122 Y512.848
N16220G01 X38.196 Y512.803
N16230G01 X38.197 Y512.805
N16240G01 X39.621 Y511.92
N16250G01 X40.987 Y510.945
N16260G01 X40.986 Y510.944
N16270G01 X41.058 Y510.891
N16280G01 X42.329 Y509.849
N16290G01 X42.394 Y509.79
N16300G01 X42.395 Y509.791
N16310G01 X43.6 Y508.662
N16320G01 X43.599 Y508.661
N16330G01 X43.632 Y508.631
N16340G01 X193.632 Y358.632
N16350G01 X194.789 Y357.394
N16360G01 X194.788 Y357.393
N16370G01 X194.846 Y357.329
N16380G01 X195.886 Y356.056
N16390G01 X195.939 Y355.985
N16400G01 X195.94 Y355.986
N16410G01 X196.89 Y354.654
N16420G01 X196.889 Y354.654
N16430G01 X196.914 Y354.62
N16440G01 X196.937 Y354.581
N16450G01 X196.939 Y354.581
N16460G01 X197.798 Y353.194
N16470G01 X197.797 Y353.194
N16480G01 X197.841 Y353.12
N16490G01 X198.608 Y351.681
N16500G01 X198.645 Y351.602
N16510G01 X198.646 Y351.603
N16520G01 X199.335 Y350.08
N16530G01 X199.925 Y348.516
N16540G01 X199.924 Y348.516
N16550G01 X199.954 Y348.432
N16560G01 X200.428 Y346.874
N16570G01 X200.449 Y346.79
N16580G01 X200.451 Y346.791
N16590G01 X200.824 Y345.202
N16600G01 X200.823 Y345.202
N16610G01 X200.834 Y345.157
N16620G01 X200.84 Y345.116
N16630G01 X200.841 Y345.116
N16640G01 X201.111 Y343.503
N16650G01 X201.11 Y343.503
N16660G01 X201.123 Y343.415
N16670G01 X201.287 Y341.782
N16680G01 X201.291 Y341.693
N16690G01 X201.293 Y341.693
N16700G01 X201.35 Y340
N16710G01 X201.348 Y0
N16720G01 X201.342 Y-0.132
N16730G01 X201.322 Y-0.263
N16740G01 X201.29 Y-0.391
N16750G01 X201.245 Y-0.516
N16760G01 X201.189 Y-0.636
N16770G01 X201.121 Y-0.749
N16780G01 X201.042 Y-0.856
N16790G01 X200.953 Y-0.954
N16800G01 X200.854 Y-1.043
N16810G01 X200.748 Y-1.122
N16820G01 X200.634 Y-1.19
N16830G01 X200.515 Y-1.247
N16840G01 X200.39 Y-1.291
N16850G01 X200.261 Y-1.324
N16860G01 X200.13 Y-1.343
N16870G01 X199.998 Y-1.349
N16880G01 X0
N16890G01 Z-12 F500
N16900G01 X-0.132 Y-1.343 F1000
N16910G01 X-0.263 Y-1.324
N16920G01 X-0.391 Y-1.291
N16930G01 X-0.516 Y-1.247
N16940G01 X-0.636 Y-1.19
N16950G01 X-0.75 Y-1.122
N16960G01 X-0.856 Y-1.043
N16970G01 X-0.954 Y-0.954
N16980G01 X-1.043 Y-0.856
N16990G01 X-1.122 Y-0.749
N17000G01 X-1.19 Y-0.636
N17010G01 X-1.247 Y-0.516
N17020G01 X-1.291 Y-0.391
N17030G01 X-1.324 Y-0.263
N17040G01 X-1.343 Y-0.132
N17050G01 X-1.35 Y0
N17060G01 X-1.346 Y490.09
N17070G01 X-1.118 Y493.483
N17080G01 X-1.117 Y493.482
N17090G01 X-1.115 Y493.524
N17100G01 X-1.094 Y493.662
N17110G01 X-0.429 Y496.916
N17120G01 X-0.398 Y497.037
N17130G01 X-0.38 Y497.088
N17140G01 X-0.382 Y497.089
N17150G01 X0.689 Y500.174
N17160G01 X0.69 Y500.173
N17170G01 X0.717 Y500.247
N17180G01 X0.759 Y500.336
N17190G01 X0.758 Y500.336
N17200G01 X2.206 Y503.223
N17210G01 X2.207 Y503.222
N17220G01 X2.222 Y503.254
N17230G01 X2.294 Y503.373
N17240G01 X4.09 Y506.032
N17250G01 X4.165 Y506.133
N17260G01 X6.308 Y508.569
N17270G01 X6.31 Y508.568
N17280G01 X6.367 Y508.632
N17290G01 X6.431 Y508.689
N17300G01 X6.43 Y508.69
N17310G01 X8.831 Y510.804
N17320G01 X8.832 Y510.803
N17330G01 X8.866 Y510.834
N17340G01 X8.973 Y510.913
N17350G01 X11.631 Y512.709
N17360G01 X11.745 Y512.777
N17370G01 X11.777 Y512.792
N17380G01 X11.776 Y512.793
N17390G01 X14.663 Y514.241
N17400G01 X14.663 Y514.24
N17410G01 X14.752 Y514.282
N17420G01 X14.826 Y514.309
N17430G01 X14.825 Y514.31
N17440G01 X17.91 Y515.382
N17450G01 X17.911 Y515.38
N17460G01 X17.962 Y515.398
N17470G01 X18.083 Y515.429
N17480G01 X21.337 Y516.094
N17490G01 X21.475 Y516.115
N17500G01 X21.516 Y516.117
N17510G01 X21.516 Y516.118
N17520G01 X24.909 Y516.346
N17530G01 X24.909 Y516.345
N17540G01 X24.999 Y516.349
N17550G01 X25.045 Y516.347
N17560G01 X25.045 Y516.349
N17570G01 X26.695 Y516.293
N17580G01 X26.695 Y516.291
N17590G01 X26.782 Y516.287
N17600G01 X28.418 Y516.124
N17610G01 X28.506 Y516.111
N17620G01 X28.506 Y516.112
N17630G01 X30.162 Y515.836
N17640G01 X31.795 Y515.455
N17650G01 X31.794 Y515.453
N17660G01 X31.879 Y515.432
N17670G01 X33.437 Y514.958
N17680G01 X33.52 Y514.929
N17690G01 X33.52 Y514.93
N17700G01 X35.084 Y514.341
N17710G01 X36.605 Y513.653
N17720G01 X36.605 Y513.652
N17730G01 X36.684 Y513.615
N17740G01 X38.122 Y512.848
N17750G01 X38.196 Y512.803
N17760G01 X38.197 Y512.805
N17770G01 X39.621 Y511.92
N17780G01 X40.987 Y510.945
N17790G01 X40.986 Y510.944
N17800G01 X41.058 Y510.891
N17810G01 X42.329 Y509.849
N17820G01 X42.394 Y509.79
N17830G01 X42.395 Y509.791
N17840G01 X43.6 Y508.662
N17850G01 X43.599 Y508.661
N17860G01 X43.632 Y508.631
N17870G01 X193.632 Y358.632
N17880G01 X194.789 Y357.394
N17890G01 X194.788 Y357.393
N17900G01 X194.846 Y357.329
N17910G01 X195.886 Y356.056
N17920G01 X195.939 Y355.985
N17930G01 X195.94 Y355.986
N17940G01 X196.89 Y354.654
N17950G01 X196.889 Y354.654
N17960G01 X196.914 Y354.62
N17970G01 X196.937 Y354.581
N17980G01 X196.939 Y354.581
N17990G01 X197.798 Y353.194
N18000G01 X197.797 Y353.194
N18010G01 X197.841 Y353.12
N18020G01 X198.608 Y351.681
N18030G01 X198.645 Y351.602
N18040G01 X198.646 Y351.603
N18050G01 X199.335 Y350.08
N18060G01 X199.925 Y348.516
N18070G01 X199.924 Y348.516
N18080G01 X199.954 Y348.432
N18090G01 X200.428 Y346.874
N18100G01 X200.449 Y346.79
N18110G01 X200.451 Y346.791
N18120G01 X200.824 Y345.202
N18130G01 X200.823 Y345.202
N18140G01 X200.834 Y345.157
N18150G01 X200.84 Y345.116
N18160G01 X200.841 Y345.116
N18170G01 X201.111 Y343.503
N18180G01 X201.11 Y343.503
N18190G01 X201.123 Y343.415
N18200G01 X201.287 Y341.782
N18210G01 X201.291 Y341.693
N18220G01 X201.293 Y341.693
N18230G01 X201.35 Y340
N18240G01 X201.348 Y0
N18250G01 X201.342 Y-0.132
N18260G01 X201.322 Y-0.263
N18270G01 X201.29 Y-0.391
N18280G01 X201.245 Y-0.516
N18290G01 X201.189 Y-0.636
N18300G01 X201.121 Y-0.749
N18310G01 X201.042 Y-0.856
N18320G01 X200.953 Y-0.954
N18330G01 X200.854 Y-1.043
N18340G01 X200.748 Y-1.122
N18350G01 X200.634 Y-1.19
N18360G01 X200.515 Y-1.247
N18370G01 X200.39 Y-1.291
N18380G01 X200.261 Y-1.324
N18390G01 X200.13 Y-1.343
N18400G01 X199.998 Y-1.349
N18410G01 X0
N18420G01 Z-13 F500
N18430G01 X-0.132 Y-1.343 F1000
N18440G01 X-0.263 Y-1.324
N18450G01 X-0.391 Y-1.291
N18460G01 X-0.516 Y-1.247
N18470G01 X-0.636 Y-1.19
N18480G01 X-0.75 Y-1.122
N18490G01 X-0.856 Y-1.043
N18500G01 X-0.954 Y-0.954
N18510G01 X-1.043 Y-0.856
N18520G01 X-1.122 Y-0.749
N18530G01 X-1.19 Y-0.636
N18540G01 X-1.247 Y-0.516
N18550G01 X-1.291 Y-0.391
N18560G01 X-1.324 Y-0.263
N18570G01 X-1.343 Y-0.132
N18580G01 X-1.35 Y0
N18590G01 X-1.346 Y490.09
N18600G01 X-1.118 Y493.483
N18610G01 X-1.117 Y493.482
N18620G01 X-1.115 Y493.524
N18630G01 X-1.094 Y493.662
N18640G01 X-0.429 Y496.916
N18650G01 X-0.398 Y497.037
N18660G01 X-0.38 Y497.088
N18670G01 X-0.382 Y497.089
N18680G01 X0.689 Y500.174
N18690G01 X0.69 Y500.173
N18700G01 X0.717 Y500.247
N18710G01 X0.759 Y500.336
N18720G01 X0.758 Y500.336
N18730G01 X2.206 Y503.223
N18740G01 X2.207 Y503.222
N18750G01 X2.222 Y503.254
N18760G01 X2.294 Y503.373
N18770G01 X4.09 Y506.032
N18780G01 X4.165 Y506.133
N18790G01 X6.308 Y508.569
N18800G01 X6.31 Y508.568
N18810G01 X6.367 Y508.632
N18820G01 X6.431 Y508.689
N18830G01 X6.43 Y508.69
N18840G01 X8.831 Y510.804
N18850G01 X8.832 Y510.803
N18860G01 X8.866 Y510.834
N18870G01 X8.973 Y510.913
N18880G01 X11.631 Y512.709
N18890G01 X11.745 Y512.777
N18900G01 X11.777 Y512.792
N18910G01 X11.776 Y512.793
N18920G01 X14.663 Y514.241
N18930G01 X14.663 Y514.24
N18940G01 X14.752 Y514.282
N18950G01 X14.826 Y514.309
N18960G01 X14.825 Y514.31
N18970G01 X17.91 Y515.382
N18980G01 X17.911 Y515.38
N18990G01 X17.962 Y515.398
N19000G01 X18.083 Y515.429
N19010G01 X21.337 Y516.094
N19020G01 X21.475 Y516.115
N19030G01 X21.516 Y516.117
N19040G01 X21.516 Y516.118
N19050G01 X24.909 Y516.346
N19060G01 X24.909 Y516.345
N19070G01 X24.999 Y516.349
N19080G01 X25.045 Y516.347
N19090G01 X25.045 Y516.349
N19100G01 X26.695 Y516.293
N19110G01 X26.695 Y516.291
N19120G01 X26.782 Y516.287
N19130G01 X28.418 Y516.124
N19140G01 X28.506 Y516.111
N19150G01 X28.506 Y516.112
N19160G01 X30.162 Y515.836
N19170G01 X31.795 Y515.455
N19180G01 X31.794 Y515.453
N19190G01 X31.879 Y515.432
N19200G01 X33.437 Y514.958
N19210G01 X33.52 Y514.929
N19220G01 X33.52 Y514.93
N19230G01 X35.084 Y514.341
N19240G01 X36.605 Y513.653
N19250G01 X36.605 Y513.652
N19260G01 X36.684 Y513.615
N19270G01 X38.122 Y512.848
N19280G01 X38.196 Y512.803
N19290G01 X38.197 Y512.805
N19300G01 X39.621 Y511.92
N19310G01 X40.987 Y510.945
N19320G01 X40.986 Y510.944
N19330G01 X41.058 Y510.891
N19340G01 X42.329 Y509.849
N19350G01 X42.394 Y509.79
N19360G01 X42.395 Y509.791
N19370G01 X43.6 Y508.662
N19380G01 X43.599 Y508.661
N19390G01 X43.632 Y508.631
N19400G01 X193.632 Y358.632
N19410G01 X194.789 Y357.394
N19420G01 X194.788 Y357.393
N19430G01 X194.846 Y357.329
N19440G01 X195.886 Y356.056
N19450G01 X195.939 Y355.985
N19460G01 X195.94 Y355.986
N19470G01 X196.89 Y354.654
N19480G01 X196.889 Y354.654
N19490G01 X196.914 Y354.62
N19500G01 X196.937 Y354.581
N19510G01 X196.939 Y354.581
N19520G01 X197.798 Y353.194
N19530G01 X197.797 Y353.194
N19540G01 X197.841 Y353.12
N19550G01 X198.608 Y351.681
N19560G01 X198.645 Y351.602
N19570G01 X198.646 Y351.603
N19580G01 X199.335 Y350.08
N19590G01 X199.925 Y348.516
N19600G01 X199.924 Y348.516
N19610G01 X199.954 Y348.432
N19620G01 X200.428 Y346.874
N19630G01 X200.449 Y346.79
N19640G01 X200.451 Y346.791
N19650G01 X200.824 Y345.202
N19660G01 X200.823 Y345.202
N19670G01 X200.834 Y345.157
N19680G01 X200.84 Y345.116
N19690G01 X200.841 Y345.116
N19700G01 X201.111 Y343.503
N19710G01 X201.11 Y343.503
N19720G01 X201.123 Y343.415
N19730G01 X201.287 Y341.782
N19740G01 X201.291 Y341.693
N19750G01 X201.293 Y341.693
N19760G01 X201.35 Y340
N19770G01 X201.348 Y0
N19780G01 X201.342 Y-0.132
N19790G01 X201.322 Y-0.263
N19800G01 X201.29 Y-0.391
N19810G01 X201.245 Y-0.516
N19820G01 X201.189 Y-0.636
N19830G01 X201.121 Y-0.749
N19840G01 X201.042 Y-0.856
N19850G01 X200.953 Y-0.954
N19860G01 X200.854 Y-1.043
N19870G01 X200.748 Y-1.122
N19880G01 X200.634 Y-1.19
N19890G01 X200.515 Y-1.247
N19900G01 X200.39 Y-1.291
N19910G01 X200.261 Y-1.324
N19920G01 X200.13 Y-1.343
N19930G01 X199.998 Y-1.349
N19940G01 X0
N19950G01 Z-14 F500
N19960G01 X-0.132 Y-1.343 F1000
N19970G01 X-0.263 Y-1.324
N19980G01 X-0.391 Y-1.291
N19990G01 X-0.516 Y-1.247
N20000G01 X-0.636 Y-1.19
N20010G01 X-0.75 Y-1.122
N20020G01 X-0.856 Y-1.043
N20030G01 X-0.954 Y-0.954
N20040G01 X-1.043 Y-0.856
N20050G01 X-1.122 Y-0.749
N20060G01 X-1.19 Y-0.636
N20070G01 X-1.247 Y-0.516
N20080G01 X-1.291 Y-0.391
N20090G01 X-1.324 Y-0.263
N20100G01 X-1.343 Y-0.132
N20110G01 X-1.35 Y0
N20120G01 X-1.346 Y490.09
N20130G01 X-1.118 Y493.483
N20140G01 X-1.117 Y493.482
N20150G01 X-1.115 Y493.524
N20160G01 X-1.094 Y493.662
N20170G01 X-0.429 Y496.916
N20180G01 X-0.398 Y497.037
N20190G01 X-0.38 Y497.088
N20200G01 X-0.382 Y497.089
N20210G01 X0.689 Y500.174
N20220G01 X0.69 Y500.173
N20230G01 X0.717 Y500.247
N20240G01 X0.759 Y500.336
N20250G01 X0.758 Y500.336
N20260G01 X2.206 Y503.223
N20270G01 X2.207 Y503.222
N20280G01 X2.222 Y503.254
N20290G01 X2.294 Y503.373
N20300G01 X4.09 Y506.032
N20310G01 X4.165 Y506.133
N20320G01 X6.308 Y508.569
N20330G01 X6.31 Y508.568
N20340G01 X6.367 Y508.632
N20350G01 X6.431 Y508.689
N20360G01 X6.43 Y508.69
N20370G01 X8.831 Y510.804
N20380G01 X8.832 Y510.803
N20390G01 X8.866 Y510.834
N20400G01 X8.973 Y510.913
N20410G01 X11.631 Y512.709
N20420G01 X11.745 Y512.777
N20430G01 X11.777 Y512.792
N20440G01 X11.776 Y512.793
N20450G01 X14.663 Y514.241
N20460G01 X14.663 Y514.24
N20470G01 X14.752 Y514.282
N20480G01 X14.826 Y514.309
N20490G01 X14.825 Y514.31
N20500G01 X17.91 Y515.382
N20510G01 X17.911 Y515.38
N20520G01 X17.962 Y515.398
N20530G01 X18.083 Y515.429
N20540G01 X21.337 Y516.094
N20550G01 X21.475 Y516.115
N20560G01 X21.516 Y516.117
N20570G01 X21.516 Y516.118
N20580G01 X24.909 Y516.346
N20590G01 X24.909 Y516.345
N20600G01 X24.999 Y516.349
N20610G01 X25.045 Y516.347
N20620G01 X25.045 Y516.349
N20630G01 X26.695 Y516.293
N20640G01 X26.695 Y516.291
N20650G01 X26.782 Y516.287
N20660G01 X28.418 Y516.124
N20670G01 X28.506 Y516.111
N20680G01 X28.506 Y516.112
N20690G01 X30.162 Y515.836
N20700G01 X31.795 Y515.455
N20710G01 X31.794 Y515.453
N20720G01 X31.879 Y515.432
N20730G01 X33.437 Y514.958
N20740G01 X33.52 Y514.929
N20750G01 X33.52 Y514.93
N20760G01 X35.084 Y514.341
N20770G01 X36.605 Y513.653
N20780G01 X36.605 Y513.652
N20790G01 X36.684 Y513.615
N20800G01 X38.122 Y512.848
N20810G01 X38.196 Y512.803
N20820G01 X38.197 Y512.805
N20830G01 X39.621 Y511.92
N20840G01 X40.987 Y510.945
N20850G01 X40.986 Y510.944
N20860G01 X41.058 Y510.891
N20870G01 X42.329 Y509.849
N20880G01 X42.394 Y509.79
N20890G01 X42.395 Y509.791
N20900G01 X43.6 Y508.662
N20910G01 X43.599 Y508.661
N20920G01 X43.632 Y508.631
N20930G01 X193.632 Y358.632
N20940G01 X194.789 Y357.394
N20950G01 X194.788 Y357.393
N20960G01 X194.846 Y357.329
N20970G01 X195.886 Y356.056
N20980G01 X195.939 Y355.985
N20990G01 X195.94 Y355.986
N21000G01 X196.89 Y354.654
N21010G01 X196.889 Y354.654
N21020G01 X196.914 Y354.62
N21030G01 X196.937 Y354.581
N21040G01 X196.939 Y354.581
N21050G01 X197.798 Y353.194
N21060G01 X197.797 Y353.194
N21070G01 X197.841 Y353.12
N21080G01 X198.608 Y351.681
N21090G01 X198.645 Y351.602
N21100G01 X198.646 Y351.603
N21110G01 X199.335 Y350.08
N21120G01 X199.925 Y348.516
N21130G01 X199.924 Y348.516
N21140G01 X199.954 Y348.432
N21150G01 X200.428 Y346.874
N21160G01 X200.449 Y346.79
N21170G01 X200.451 Y346.791
N21180G01 X200.824 Y345.202
N21190G01 X200.823 Y345.202
N21200G01 X200.834 Y345.157
N21210G01 X200.84 Y345.116
N21220G01 X200.841 Y345.116
N21230G01 X201.111 Y343.503
N21240G01 X201.11 Y343.503
N21250G01 X201.123 Y343.415
N21260G01 X201.287 Y341.782
N21270G01 X201.291 Y341.693
N21280G01 X201.293 Y341.693
N21290G01 X201.35 Y340
N21300G01 X201.348 Y0
N21310G01 X201.342 Y-0.132
N21320G01 X201.322 Y-0.263
N21330G01 X201.29 Y-0.391
N21340G01 X201.245 Y-0.516
N21350G01 X201.189 Y-0.636
N21360G01 X201.121 Y-0.749
N21370G01 X201.042 Y-0.856
N21380G01 X200.953 Y-0.954
N21390G01 X200.854 Y-1.043
N21400G01 X200.748 Y-1.122
N21410G01 X200.634 Y-1.19
N21420G01 X200.515 Y-1.247
N21430G01 X200.39 Y-1.291
N21440G01 X200.261 Y-1.324
N21450G01 X200.13 Y-1.343
N21460G01 X199.998 Y-1.349
N21470G01 X0
N21480G01 Z-15 F500
N21490G01 X-0.132 Y-1.343 F1000
N21500G01 X-0.263 Y-1.324
N21510G01 X-0.391 Y-1.291
N21520G01 X-0.516 Y-1.247
N21530G01 X-0.636 Y-1.19
N21540G01 X-0.75 Y-1.122
N21550G01 X-0.856 Y-1.043
N21560G01 X-0.954 Y-0.954
N21570G01 X-1.043 Y-0.856
N21580G01 X-1.122 Y-0.749
N21590G01 X-1.19 Y-0.636
N21600G01 X-1.247 Y-0.516
N21610G01 X-1.291 Y-0.391
N21620G01 X-1.324 Y-0.263
N21630G01 X-1.343 Y-0.132
N21640G01 X-1.35 Y0
N21650G01 X-1.346 Y490.09
N21660G01 X-1.118 Y493.483
N21670G01 X-1.117 Y493.482
N21680G01 X-1.115 Y493.524
N21690G01 X-1.094 Y493.662
N21700G01 X-0.429 Y496.916
N21710G01 X-0.398 Y497.037
N21720G01 X-0.38 Y497.088
N21730G01 X-0.382 Y497.089
N21740G01 X0.689 Y500.174
N21750G01 X0.69 Y500.173
N21760G01 X0.717 Y500.247
N21770G01 X0.759 Y500.336
N21780G01 X0.758 Y500.336
N21790G01 X2.206 Y503.223
N21800G01 X2.207 Y503.222
N21810G01 X2.222 Y503.254
N21820G01 X2.294 Y503.373
N21830G01 X4.09 Y506.032
N21840G01 X4.165 Y506.133
N21850G01 X6.308 Y508.569
N21860G01 X6.31 Y508.568
N21870G01 X6.367 Y508.632
N21880G01 X6.431 Y508.689
N21890G01 X6.43 Y508.69
N21900G01 X8.831 Y510.804
N21910G01 X8.832 Y510.803
N21920G01 X8.866 Y510.834
N21930G01 X8.973 Y510.913
N21940G01 X11.631 Y512.709
N21950G01 X11.745 Y512.777
N21960G01 X11.777 Y512.792
N21970G01 X11.776 Y512.793
N21980G01 X14.663 Y514.241
N21990G01 X14.663 Y514.24
N22000G01 X14.752 Y514.282
N22010G01 X14.826 Y514.309
N22020G01 X14.825 Y514.31
N22030G01 X17.91 Y515.382
N22040G01 X17.911 Y515.38
N22050G01 X17.962 Y515.398
N22060G01 X18.083 Y515.429
N22070G01 X21.337 Y516.094
N22080G01 X21.475 Y516.115
N22090G01 X21.516 Y516.117
N22100G01 X21.516 Y516.118
N22110G01 X24.909 Y516.346
N22120G01 X24.909 Y516.345
N22130G01 X24.999 Y516.349
N22140G01 X25.045 Y516.347
N22150G01 X25.045 Y516.349
N22160G01 X26.695 Y516.293
N22170G01 X26.695 Y516.291
N22180G01 X26.782 Y516.287
N22190G01 X28.418 Y516.124
N22200G01 X28.506 Y516.111
N22210G01 X28.506 Y516.112
N22220G01 X30.162 Y515.836
N22230G01 X31.795 Y515.455
N22240G01 X31.794 Y515.453
N22250G01 X31.879 Y515.432
N22260G01 X33.437 Y514.958
N22270G01 X33.52 Y514.929
N22280G01 X33.52 Y514.93
N22290G01 X35.084 Y514.341
N22300G01 X36.605 Y513.653
N22310G01 X36.605 Y513.652
N22320G01 X36.684 Y513.615
N22330G01 X38.122 Y512.848
N22340G01 X38.196 Y512.803
N22350G01 X38.197 Y512.805
N22360G01 X39.621 Y511.92
N22370G01 X40.987 Y510.945
N22380G01 X40.986 Y510.944
N22390G01 X41.058 Y510.891
N22400G01 X42.329 Y509.849
N22410G01 X42.394 Y509.79
N22420G01 X42.395 Y509.791
N22430G01 X43.6 Y508.662
N22440G01 X43.599 Y508.661
N22450G01 X43.632 Y508.631
N22460G01 X193.632 Y358.632
N22470G01 X194.789 Y357.394
N22480G01 X194.788 Y357.393
N22490G01 X194.846 Y357.329
N22500G01 X195.886 Y356.056
N22510G01 X195.939 Y355.985
N22520G01 X195.94 Y355.986
N22530G01 X196.89 Y354.654
N22540G01 X196.889 Y354.654
N22550G01 X196.914 Y354.62
N22560G01 X196.937 Y354.581
N22570G01 X196.939 Y354.581
N22580G01 X197.798 Y353.194
N22590G01 X197.797 Y353.194
N22600G01 X197.841 Y353.12
N22610G01 X198.608 Y351.681
N22620G01 X198.645 Y351.602
N22630G01 X198.646 Y351.603
N22640G01 X199.335 Y350.08
N22650G01 X199.925 Y348.516
N22660G01 X199.924 Y348.516
N22670G01 X199.954 Y348.432
N22680G01 X200.428 Y346.874
N22690G01 X200.449 Y346.79
N22700G01 X200.451 Y346.791
N22710G01 X200.824 Y345.202
N22720G01 X200.823 Y345.202
N22730G01 X200.834 Y345.157
N22740G01 X200.84 Y345.116
N22750G01 X200.841 Y345.116
N22760G01 X201.111 Y343.503
N22770G01 X201.11 Y343.503
N22780G01 X201.123 Y343.415
N22790G01 X201.287 Y341.782
N22800G01 X201.291 Y341.693
N22810G01 X201.293 Y341.693
N22820G01 X201.35 Y340
N22830G01 X201.348 Y0
N22840G01 X201.342 Y-0.132
N22850G01 X201.322 Y-0.263
N22860G01 X201.29 Y-0.391
N22870G01 X201.245 Y-0.516
N22880G01 X201.189 Y-0.636
N22890G01 X201.121 Y-0.749
N22900G01 X201.042 Y-0.856
N22910G01 X200.953 Y-0.954
N22920G01 X200.854 Y-1.043
N22930G01 X200.748 Y-1.122
N22940G01 X200.634 Y-1.19
N22950G01 X200.515 Y-1.247
N22960G01 X200.39 Y-1.291
N22970G01 X200.261 Y-1.324
N22980G01 X200.13 Y-1.343
N22990G01 X199.998 Y-1.349
N23000G01 X0
N23010G01 Z-16 F500
N23020G01 X-0.132 Y-1.343 F1000
N23030G01 X-0.263 Y-1.324
N23040G01 X-0.391 Y-1.291
N23050G01 X-0.516 Y-1.247
N23060G01 X-0.636 Y-1.19
N23070G01 X-0.75 Y-1.122
N23080G01 X-0.856 Y-1.043
N23090G01 X-0.954 Y-0.954
N23100G01 X-1.043 Y-0.856
N23110G01 X-1.122 Y-0.749
N23120G01 X-1.19 Y-0.636
N23130G01 X-1.247 Y-0.516
N23140G01 X-1.291 Y-0.391
N23150G01 X-1.324 Y-0.263
N23160G01 X-1.343 Y-0.132
N23170G01 X-1.35 Y0
N23180G01 X-1.349 Y80.963
N23190G01 Z-15.599
N23200G01 X-1.349 Y86.663
N23210G01 Z-16 F500
N23220G01 X-1.348 Y247.108 F1000
N23230G01 Z-15.599
N23240G01 X-1.348 Y252.808
N23250G01 Z-16 F500
N23260G01 X-1.347 Y413.254 F1000
N23270G01 Z-15.599
N23280G01 X-1.347 Y418.954
N23290G01 Z-16 F500
N23300G01 X-1.346 Y490.09 F1000
N23310G01 X-1.118 Y493.483
N23320G01 X-1.117 Y493.482
N23330G01 X-1.115 Y493.524
N23340G01 X-1.094 Y493.662
N23350G01 X-0.429 Y496.916
N23360G01 X-0.398 Y497.037
N23370G01 X-0.38 Y497.088
N23380G01 X-0.382 Y497.089
N23390G01 X0.689 Y500.174
N23400G01 X0.69 Y500.173
N23410G01 X0.717 Y500.247
N23420G01 X0.759 Y500.336
N23430G01 X0.758 Y500.336
N23440G01 X2.206 Y503.223
N23450G01 X2.207 Y503.222
N23460G01 X2.222 Y503.254
N23470G01 X2.294 Y503.373
N23480G01 X4.09 Y506.032
N23490G01 X4.165 Y506.133
N23500G01 X6.308 Y508.569
N23510G01 X6.31 Y508.568
N23520G01 X6.367 Y508.632
N23530G01 X6.431 Y508.689
N23540G01 X6.43 Y508.69
N23550G01 X8.831 Y510.804
N23560G01 X8.832 Y510.803
N23570G01 X8.866 Y510.834
N23580G01 X8.973 Y510.913
N23590G01 X11.631 Y512.709
N23600G01 X11.745 Y512.777
N23610G01 X11.777 Y512.792
N23620G01 X11.776 Y512.793
N23630G01 X14.663 Y514.241
N23640G01 X14.663 Y514.24
N23650G01 X14.752 Y514.282
N23660G01 X14.826 Y514.309
N23670G01 X14.825 Y514.31
N23680G01 X17.91 Y515.382
N23690G01 X17.911 Y515.38
N23700G01 X17.962 Y515.398
N23710G01 X18.083 Y515.429
N23720G01 X21.337 Y516.094
N23730G01 X21.475 Y516.115
N23740G01 X21.516 Y516.117
N23750G01 X21.516 Y516.118
N23760G01 X24.909 Y516.346
N23770G01 X24.909 Y516.345
N23780G01 X24.999 Y516.349
N23790G01 X25.045 Y516.347
N23800G01 X25.045 Y516.349
N23810G01 X26.695 Y516.293
N23820G01 X26.695 Y516.291
N23830G01 X26.782 Y516.287
N23840G01 X28.418 Y516.124
N23850G01 X28.506 Y516.111
N23860G01 X28.506 Y516.112
N23870G01 X30.162 Y515.836
N23880G01 X31.795 Y515.455
N23890G01 X31.794 Y515.453
N23900G01 X31.879 Y515.432
N23910G01 X33.437 Y514.958
N23920G01 X33.52 Y514.929
N23930G01 X33.52 Y514.93
N23940G01 X35.084 Y514.341
N23950G01 X36.605 Y513.653
N23960G01 X36.605 Y513.652
N23970G01 X36.684 Y513.615
N23980G01 X38.122 Y512.848
N23990G01 X38.196 Y512.803
N24000G01 X38.197 Y512.805
N24010G01 X39.621 Y511.92
N24020G01 X40.987 Y510.945
N24030G01 X40.986 Y510.944
N24040G01 X41.058 Y510.891
N24050G01 X42.329 Y509.849
N24060G01 X42.394 Y509.79
N24070G01 X42.395 Y509.791
N24080G01 X43.6 Y508.662
N24090G01 X43.599 Y508.661
N24100G01 X43.632 Y508.631
N24110G01 X62.942 Y489.322
N24120G01 Z-15.599
N24130G01 X66.973 Y485.291
N24140G01 Z-16 F500
N24150G01 X180.425 Y371.839 F1000
N24160G01 Z-15.599
N24170G01 X184.455 Y367.808
N24180G01 Z-16 F500
N24190G01 X193.632 Y358.632 F1000
N24200G01 X194.789 Y357.394
N24210G01 X194.788 Y357.393
N24220G01 X194.846 Y357.329
N24230G01 X195.886 Y356.056
N24240G01 X195.939 Y355.985
N24250G01 X195.94 Y355.986
N24260G01 X196.89 Y354.654
N24270G01 X196.889 Y354.654
N24280G01 X196.914 Y354.62
N24290G01 X196.937 Y354.581
N24300G01 X196.939 Y354.581
N24310G01 X197.798 Y353.194
N24320G01 X197.797 Y353.194
N24330G01 X197.841 Y353.12
N24340G01 X198.608 Y351.681
N24350G01 X198.645 Y351.602
N24360G01 X198.646 Y351.603
N24370G01 X199.335 Y350.08
N24380G01 X199.925 Y348.516
N24390G01 X199.924 Y348.516
N24400G01 X199.954 Y348.432
N24410G01 X200.428 Y346.874
N24420G01 X200.449 Y346.79
N24430G01 X200.451 Y346.791
N24440G01 X200.824 Y345.202
N24450G01 X200.823 Y345.202
N24460G01 X200.834 Y345.157
N24470G01 X200.84 Y345.116
N24480G01 X200.841 Y345.116
N24490G01 X201.111 Y343.503
N24500G01 X201.11 Y343.503
N24510G01 X201.123 Y343.415
N24520G01 X201.287 Y341.782
N24530G01 X201.291 Y341.693
N24540G01 X201.293 Y341.693
N24550G01 X201.35 Y340
N24560G01 X201.349 Y213.236
N24570G01 Z-15.599
N24580G01 X201.349 Y207.536
N24590G01 Z-16 F500
N24600G01 X201.348 Y47.09 F1000
N24610G01 Z-15.599
N24620G01 X201.348 Y41.39
N24630G01 Z-16 F500
N24640G01 X201.348 Y0 F1000
N24650G01 X201.342 Y-0.132
N24660G01 X201.322 Y-0.263
N24670G01 X201.29 Y-0.391
N24680G01 X201.245 Y-0.516
N24690G01 X201.189 Y-0.636
N24700G01 X201.121 Y-0.749
N24710G01 X201.042 Y-0.856
N24720G01 X200.953 Y-0.954
N24730G01 X200.854 Y-1.043
N24740G01 X200.748 Y-1.122
N24750G01 X200.634 Y-1.19
N24760G01 X200.515 Y-1.247
N24770G01 X200.39 Y-1.291
N24780G01 X200.261 Y-1.324
N24790G01 X200.13 Y-1.343
N24800G01 X199.998 Y-1.349
N24810G01 X83.062
N24820G01 Z-15.599
N24830G01 X77.362
N24840G01 Z-16 F500
N24850G01 X0 F1000
N24860G01 Z-16.599 F500
N24870G01 X-0.132 Y-1.343 F1000
N24880G01 X-0.263 Y-1.324
N24890G01 X-0.391 Y-1.291
N24900G01 X-0.516 Y-1.247
N24910G01 X-0.636 Y-1.19
N24920G01 X-0.75 Y-1.122
N24930G01 X-0.856 Y-1.043
N24940G01 X-0.954 Y-0.954
N24950G01 X-1.043 Y-0.856
N24960G01 X-1.122 Y-0.749
N24970G01 X-1.19 Y-0.636
N24980G01 X-1.247 Y-0.516
N24990G01 X-1.291 Y-0.391
N25000G01 X-1.324 Y-0.263
N25010G01 X-1.343 Y-0.132
N25020G01 X-1.35 Y0
N25030G01 X-1.349 Y80.963
N25040G01 Z-15.599
N25050G01 X-1.349 Y86.663
N25060G01 Z-16.599 F500
N25070G01 X-1.348 Y247.108 F1000
N25080G01 Z-15.599
N25090G01 X-1.348 Y252.808
N25100G01 Z-16.599 F500
N25110G01 X-1.347 Y413.254 F1000
N25120G01 Z-15.599
N25130G01 X-1.347 Y418.954
N25140G01 Z-16.599 F500
N25150G01 X-1.346 Y490.09 F1000
N25160G01 X-1.118 Y493.483
N25170G01 X-1.117 Y493.482
N25180G01 X-1.115 Y493.524
N25190G01 X-1.094 Y493.662
N25200G01 X-0.429 Y496.916
N25210G01 X-0.398 Y497.037
N25220G01 X-0.38 Y497.088
N25230G01 X-0.382 Y497.089
N25240G01 X0.689 Y500.174
N25250G01 X0.69 Y500.173
N25260G01 X0.717 Y500.247
N25270G01 X0.759 Y500.336
N25280G01 X0.758 Y500.336
N25290G01 X2.206 Y503.223
N25300G01 X2.207 Y503.222
N25310G01 X2.222 Y503.254
N25320G01 X2.294 Y503.373
N25330G01 X4.09 Y506.032
N25340G01 X4.165 Y506.133
N25350G01 X6.308 Y508.569
N25360G01 X6.31 Y508.568
N25370G01 X6.367 Y508.632
N25380G01 X6.431 Y508.689
N25390G01 X6.43 Y508.69
N25400G01 X8.831 Y510.804
N25410G01 X8.832 Y510.803
N25420G01 X8.866 Y510.834
N25430G01 X8.973 Y510.913
N25440G01 X11.631 Y512.709
N25450G01 X11.745 Y512.777
N25460G01 X11.777 Y512.792
N25470G01 X11.776 Y512.793
N25480G01 X14.663 Y514.241
N25490G01 X14.663 Y514.24
N25500G01 X14.752 Y514.282
N25510G01 X14.826 Y514.309
N25520G01 X14.825 Y514.31
N25530G01 X17.91 Y515.382
N25540G01 X17.911 Y515.38
N25550G01 X17.962 Y515.398
N25560G01 X18.083 Y515.429
N25570G01 X21.337 Y516.094
N25580G01 X21.475 Y516.115
N25590G01 X21.516 Y516.117
N25600G01 X21.516 Y516.118
N25610G01 X24.909 Y516.346
N25620G01 X24.909 Y516.345
N25630G01 X24.999 Y516.349
N25640G01 X25.045 Y516.347
N25650G01 X25.045 Y516.349
N25660G01 X26.695 Y516.293
N25670G01 X26.695 Y516.291
N25680G01 X26.782 Y516.287
N25690G01 X28.418 Y516.124
N25700G01 X28.506 Y516.111
N25710G01 X28.506 Y516.112
N25720G01 X30.162 Y515.836
N25730G01 X31.795 Y515.455
N25740G01 X31.794 Y515.453
N25750G01 X31.879 Y515.432
N25760G01 X33.437 Y514.958
N25770G01 X33.52 Y514.929
N25780G01 X33.52 Y514.93
N25790G01 X35.084 Y514.341
N25800G01 X36.605 Y513.653
N25810G01 X36.605 Y513.652
N25820G01 X36.684 Y513.615
N25830G01 X38.122 Y512.848
N25840G01 X38.196 Y512.803
N25850G01 X38.197 Y512.805
N25860G01 X39.621 Y511.92
N25870G01 X40.987 Y510.945
N25880G01 X40.986 Y510.944
N25890G01 X41.058 Y510.891
N25900G01 X42.329 Y509.849
N25910G01 X42.394 Y509.79
N25920G01 X42.395 Y509.791
N25930G01 X43.6 Y508.662
N25940G01 X43.599 Y508.661
N25950G01 X43.632 Y508.631
N25960G01 X62.942 Y489.322
N25970G01 Z-15.599
N25980G01 X66.973 Y485.291
N25990G01 Z-16.599 F500
N26000G01 X180.425 Y371.839 F1000
N26010G01 Z-15.599
N26020G01 X184.455 Y367.808
N26030G01 Z-16.599 F500
N26040G01 X193.632 Y358.632 F1000
N26050G01 X194.789 Y357.394
N26060G01 X194.788 Y357.393
N26070G01 X194.846 Y357.329
N26080G01 X195.886 Y356.056
N26090G01 X195.939 Y355.985
N26100G01 X195.94 Y355.986
N26110G01 X196.89 Y354.654
N26120G01 X196.889 Y354.654
N26130G01 X196.914 Y354.62
N26140G01 X196.937 Y354.581
N26150G01 X196.939 Y354.581
N26160G01 X197.798 Y353.194
N26170G01 X197.797 Y353.194
N26180G01 X197.841 Y353.12
N26190G01 X198.608 Y351.681
N26200G01 X198.645 Y351.602
N26210G01 X198.646 Y351.603
N26220G01 X199.335 Y350.08
N26230G01 X199.925 Y348.516
N26240G01 X199.924 Y348.516
N26250G01 X199.954 Y348.432
N26260G01 X200.428 Y346.874
N26270G01 X200.449 Y346.79
N26280G01 X200.451 Y346.791
N26290G01 X200.824 Y345.202
N26300G01 X200.823 Y345.202
N26310G01 X200.834 Y345.157
N26320G01 X200.84 Y345.116
N26330G01 X200.841 Y345.116
N26340G01 X201.111 Y343.503
N26350G01 X201.11 Y343.503
N26360G01 X201.123 Y343.415
N26370G01 X201.287 Y341.782
N26380G01 X201.291 Y341.693
N26390G01 X201.293 Y341.693
N26400G01 X201.35 Y340
N26410G01 X201.349 Y213.236
N26420G01 Z-15.599
N26430G01 X201.349 Y207.536
N26440G01 Z-16.599 F500
N26450G01 X201.348 Y47.09 F1000
N26460G01 Z-15.599
N26470G01 X201.348 Y41.39
N26480G01 Z-16.599 F500
N26490G01 X201.348 Y0 F1000
N26500G01 X201.342 Y-0.132
N26510G01 X201.322 Y-0.263
N26520G01 X201.29 Y-0.391
N26530G01 X201.245 Y-0.516
N26540G01 X201.189 Y-0.636
N26550G01 X201.121 Y-0.749
N26560G01 X201.042 Y-0.856
N26570G01 X200.953 Y-0.954
N26580G01 X200.854 Y-1.043
N26590G01 X200.748 Y-1.122
N26600G01 X200.634 Y-1.19
N26610G01 X200.515 Y-1.247
N26620G01 X200.39 Y-1.291
N26630G01 X200.261 Y-1.324
N26640G01 X200.13 Y-1.343
N26650G01 X199.998 Y-1.349
N26660G01 X83.062
N26670G01 Z-15.599
N26680G01 X77.362
N26690G01 Z-16.599 F500
N26700G01 X0 F1000
N26710 G00 Z9.999
N26720 M02
