(GCode created using the HeeksCNC Mach3 post processor)
(/home/user/Documents/socket-file.tap)
(G-code generated with BlenderCAM and NC library)
N10 G17 G21 G90
(Tool change)
N20G43H1
N30T1 M06
N40 G00 X0 Y0 Z9.999 S12000 M03
N50 G00 X34.587 Y31.249
N60G01 Z-1 F500
N70G01 X34.745 Y31.11 F1000
N80G01 X34.92 Y30.992
N90G01 X35.109 Y30.898
N100G01 X35.312 Y30.828
N110G01 X35.526 Y30.784
N120G01 X35.799 Y30.766
N130G01 X56.709
N140G01 X56.982 Y30.784
N150G01 X57.197 Y30.828
N160G01 X57.399 Y30.898
N170G01 X57.588 Y30.992
N180G01 X57.763 Y31.11
N190G01 X57.921 Y31.249
N200G01 X58.06 Y31.407
N210G01 X58.178 Y31.582
N220G01 X58.272 Y31.771
N230G01 X58.342 Y31.973
N240G01 X58.386 Y32.188
N250G01 X58.404 Y32.461
N260G01 Y45.371
N270G01 X58.386 Y45.644
N280G01 X58.342 Y45.858
N290G01 X58.272 Y46.061
N300G01 X58.178 Y46.25
N310G01 X58.06 Y46.425
N320G01 X57.921 Y46.583
N330G01 X57.763 Y46.721
N340G01 X57.588 Y46.839
N350G01 X57.399 Y46.934
N360G01 X57.197 Y47.004
N370G01 X56.982 Y47.048
N380G01 X56.709 Y47.066
N390G01 X35.799
N400G01 X35.526 Y47.048
N410G01 X35.312 Y47.004
N420G01 X35.109 Y46.934
N430G01 X34.92 Y46.839
N440G01 X34.745 Y46.722
N450G01 X34.587 Y46.583
N460G01 X34.449 Y46.425
N470G01 X34.331 Y46.25
N480G01 X34.236 Y46.061
N490G01 X34.166 Y45.858
N500G01 X34.122 Y45.644
N510G01 X34.104 Y45.371
N520G01 Y32.461
N530G01 X34.122 Y32.188
N540G01 X34.166 Y31.973
N550G01 X34.236 Y31.771
N560G01 X34.331 Y31.582
N570G01 X34.449 Y31.407
N580G01 X34.587 Y31.249
N590G01 Z-2 F500
N600G01 X34.745 Y31.11 F1000
N610G01 X34.92 Y30.992
N620G01 X35.109 Y30.898
N630G01 X35.312 Y30.828
N640G01 X35.526 Y30.784
N650G01 X35.799 Y30.766
N660G01 X56.709
N670G01 X56.982 Y30.784
N680G01 X57.197 Y30.828
N690G01 X57.399 Y30.898
N700G01 X57.588 Y30.992
N710G01 X57.763 Y31.11
N720G01 X57.921 Y31.249
N730G01 X58.06 Y31.407
N740G01 X58.178 Y31.582
N750G01 X58.272 Y31.771
N760G01 X58.342 Y31.973
N770G01 X58.386 Y32.188
N780G01 X58.404 Y32.461
N790G01 Y45.371
N800G01 X58.386 Y45.644
N810G01 X58.342 Y45.858
N820G01 X58.272 Y46.061
N830G01 X58.178 Y46.25
N840G01 X58.06 Y46.425
N850G01 X57.921 Y46.583
N860G01 X57.763 Y46.721
N870G01 X57.588 Y46.839
N880G01 X57.399 Y46.934
N890G01 X57.197 Y47.004
N900G01 X56.982 Y47.048
N910G01 X56.709 Y47.066
N920G01 X35.799
N930G01 X35.526 Y47.048
N940G01 X35.312 Y47.004
N950G01 X35.109 Y46.934
N960G01 X34.92 Y46.839
N970G01 X34.745 Y46.722
N980G01 X34.587 Y46.583
N990G01 X34.449 Y46.425
N1000G01 X34.331 Y46.25
N1010G01 X34.236 Y46.061
N1020G01 X34.166 Y45.858
N1030G01 X34.122 Y45.644
N1040G01 X34.104 Y45.371
N1050G01 Y32.461
N1060G01 X34.122 Y32.188
N1070G01 X34.166 Y31.973
N1080G01 X34.236 Y31.771
N1090G01 X34.331 Y31.582
N1100G01 X34.449 Y31.407
N1110G01 X34.587 Y31.249
N1120G01 Z-3 F500
N1130G01 X34.745 Y31.11 F1000
N1140G01 X34.92 Y30.992
N1150G01 X35.109 Y30.898
N1160G01 X35.312 Y30.828
N1170G01 X35.526 Y30.784
N1180G01 X35.799 Y30.766
N1190G01 X56.709
N1200G01 X56.982 Y30.784
N1210G01 X57.197 Y30.828
N1220G01 X57.399 Y30.898
N1230G01 X57.588 Y30.992
N1240G01 X57.763 Y31.11
N1250G01 X57.921 Y31.249
N1260G01 X58.06 Y31.407
N1270G01 X58.178 Y31.582
N1280G01 X58.272 Y31.771
N1290G01 X58.342 Y31.973
N1300G01 X58.386 Y32.188
N1310G01 X58.404 Y32.461
N1320G01 Y45.371
N1330G01 X58.386 Y45.644
N1340G01 X58.342 Y45.858
N1350G01 X58.272 Y46.061
N1360G01 X58.178 Y46.25
N1370G01 X58.06 Y46.425
N1380G01 X57.921 Y46.583
N1390G01 X57.763 Y46.721
N1400G01 X57.588 Y46.839
N1410G01 X57.399 Y46.934
N1420G01 X57.197 Y47.004
N1430G01 X56.982 Y47.048
N1440G01 X56.709 Y47.066
N1450G01 X35.799
N1460G01 X35.526 Y47.048
N1470G01 X35.312 Y47.004
N1480G01 X35.109 Y46.934
N1490G01 X34.92 Y46.839
N1500G01 X34.745 Y46.722
N1510G01 X34.587 Y46.583
N1520G01 X34.449 Y46.425
N1530G01 X34.331 Y46.25
N1540G01 X34.236 Y46.061
N1550G01 X34.166 Y45.858
N1560G01 X34.122 Y45.644
N1570G01 X34.104 Y45.371
N1580G01 Y32.461
N1590G01 X34.122 Y32.188
N1600G01 X34.166 Y31.973
N1610G01 X34.236 Y31.771
N1620G01 X34.331 Y31.582
N1630G01 X34.449 Y31.407
N1640G01 X34.587 Y31.249
N1650G01 Z-4 F500
N1660G01 X34.745 Y31.11 F1000
N1670G01 X34.92 Y30.992
N1680G01 X35.109 Y30.898
N1690G01 X35.312 Y30.828
N1700G01 X35.526 Y30.784
N1710G01 X35.799 Y30.766
N1720G01 X56.709
N1730G01 X56.982 Y30.784
N1740G01 X57.197 Y30.828
N1750G01 X57.399 Y30.898
N1760G01 X57.588 Y30.992
N1770G01 X57.763 Y31.11
N1780G01 X57.921 Y31.249
N1790G01 X58.06 Y31.407
N1800G01 X58.178 Y31.582
N1810G01 X58.272 Y31.771
N1820G01 X58.342 Y31.973
N1830G01 X58.386 Y32.188
N1840G01 X58.404 Y32.461
N1850G01 Y45.371
N1860G01 X58.386 Y45.644
N1870G01 X58.342 Y45.858
N1880G01 X58.272 Y46.061
N1890G01 X58.178 Y46.25
N1900G01 X58.06 Y46.425
N1910G01 X57.921 Y46.583
N1920G01 X57.763 Y46.721
N1930G01 X57.588 Y46.839
N1940G01 X57.399 Y46.934
N1950G01 X57.197 Y47.004
N1960G01 X56.982 Y47.048
N1970G01 X56.709 Y47.066
N1980G01 X35.799
N1990G01 X35.526 Y47.048
N2000G01 X35.312 Y47.004
N2010G01 X35.109 Y46.934
N2020G01 X34.92 Y46.839
N2030G01 X34.745 Y46.722
N2040G01 X34.587 Y46.583
N2050G01 X34.449 Y46.425
N2060G01 X34.331 Y46.25
N2070G01 X34.236 Y46.061
N2080G01 X34.166 Y45.858
N2090G01 X34.122 Y45.644
N2100G01 X34.104 Y45.371
N2110G01 Y32.461
N2120G01 X34.122 Y32.188
N2130G01 X34.166 Y31.973
N2140G01 X34.236 Y31.771
N2150G01 X34.331 Y31.582
N2160G01 X34.449 Y31.407
N2170G01 X34.587 Y31.249
N2180G01 Z-5 F500
N2190G01 X34.745 Y31.11 F1000
N2200G01 X34.92 Y30.992
N2210G01 X35.109 Y30.898
N2220G01 X35.312 Y30.828
N2230G01 X35.526 Y30.784
N2240G01 X35.799 Y30.766
N2250G01 X56.709
N2260G01 X56.982 Y30.784
N2270G01 X57.197 Y30.828
N2280G01 X57.399 Y30.898
N2290G01 X57.588 Y30.992
N2300G01 X57.763 Y31.11
N2310G01 X57.921 Y31.249
N2320G01 X58.06 Y31.407
N2330G01 X58.178 Y31.582
N2340G01 X58.272 Y31.771
N2350G01 X58.342 Y31.973
N2360G01 X58.386 Y32.188
N2370G01 X58.404 Y32.461
N2380G01 Y45.371
N2390G01 X58.386 Y45.644
N2400G01 X58.342 Y45.858
N2410G01 X58.272 Y46.061
N2420G01 X58.178 Y46.25
N2430G01 X58.06 Y46.425
N2440G01 X57.921 Y46.583
N2450G01 X57.763 Y46.721
N2460G01 X57.588 Y46.839
N2470G01 X57.399 Y46.934
N2480G01 X57.197 Y47.004
N2490G01 X56.982 Y47.048
N2500G01 X56.709 Y47.066
N2510G01 X35.799
N2520G01 X35.526 Y47.048
N2530G01 X35.312 Y47.004
N2540G01 X35.109 Y46.934
N2550G01 X34.92 Y46.839
N2560G01 X34.745 Y46.722
N2570G01 X34.587 Y46.583
N2580G01 X34.449 Y46.425
N2590G01 X34.331 Y46.25
N2600G01 X34.236 Y46.061
N2610G01 X34.166 Y45.858
N2620G01 X34.122 Y45.644
N2630G01 X34.104 Y45.371
N2640G01 Y32.461
N2650G01 X34.122 Y32.188
N2660G01 X34.166 Y31.973
N2670G01 X34.236 Y31.771
N2680G01 X34.331 Y31.582
N2690G01 X34.449 Y31.407
N2700G01 X34.587 Y31.249
N2710G01 Z-6 F500
N2720G01 X34.745 Y31.11 F1000
N2730G01 X34.92 Y30.992
N2740G01 X35.109 Y30.898
N2750G01 X35.312 Y30.828
N2760G01 X35.526 Y30.784
N2770G01 X35.799 Y30.766
N2780G01 X56.709
N2790G01 X56.982 Y30.784
N2800G01 X57.197 Y30.828
N2810G01 X57.399 Y30.898
N2820G01 X57.588 Y30.992
N2830G01 X57.763 Y31.11
N2840G01 X57.921 Y31.249
N2850G01 X58.06 Y31.407
N2860G01 X58.178 Y31.582
N2870G01 X58.272 Y31.771
N2880G01 X58.342 Y31.973
N2890G01 X58.386 Y32.188
N2900G01 X58.404 Y32.461
N2910G01 Y45.371
N2920G01 X58.386 Y45.644
N2930G01 X58.342 Y45.858
N2940G01 X58.272 Y46.061
N2950G01 X58.178 Y46.25
N2960G01 X58.06 Y46.425
N2970G01 X57.921 Y46.583
N2980G01 X57.763 Y46.721
N2990G01 X57.588 Y46.839
N3000G01 X57.399 Y46.934
N3010G01 X57.197 Y47.004
N3020G01 X56.982 Y47.048
N3030G01 X56.709 Y47.066
N3040G01 X35.799
N3050G01 X35.526 Y47.048
N3060G01 X35.312 Y47.004
N3070G01 X35.109 Y46.934
N3080G01 X34.92 Y46.839
N3090G01 X34.745 Y46.722
N3100G01 X34.587 Y46.583
N3110G01 X34.449 Y46.425
N3120G01 X34.331 Y46.25
N3130G01 X34.236 Y46.061
N3140G01 X34.166 Y45.858
N3150G01 X34.122 Y45.644
N3160G01 X34.104 Y45.371
N3170G01 Y32.461
N3180G01 X34.122 Y32.188
N3190G01 X34.166 Y31.973
N3200G01 X34.236 Y31.771
N3210G01 X34.331 Y31.582
N3220G01 X34.449 Y31.407
N3230G01 X34.587 Y31.249
N3240G01 Z-7 F500
N3250G01 X34.745 Y31.11 F1000
N3260G01 X34.92 Y30.992
N3270G01 X35.109 Y30.898
N3280G01 X35.312 Y30.828
N3290G01 X35.526 Y30.784
N3300G01 X35.799 Y30.766
N3310G01 X56.709
N3320G01 X56.982 Y30.784
N3330G01 X57.197 Y30.828
N3340G01 X57.399 Y30.898
N3350G01 X57.588 Y30.992
N3360G01 X57.763 Y31.11
N3370G01 X57.921 Y31.249
N3380G01 X58.06 Y31.407
N3390G01 X58.178 Y31.582
N3400G01 X58.272 Y31.771
N3410G01 X58.342 Y31.973
N3420G01 X58.386 Y32.188
N3430G01 X58.404 Y32.461
N3440G01 Y45.371
N3450G01 X58.386 Y45.644
N3460G01 X58.342 Y45.858
N3470G01 X58.272 Y46.061
N3480G01 X58.178 Y46.25
N3490G01 X58.06 Y46.425
N3500G01 X57.921 Y46.583
N3510G01 X57.763 Y46.721
N3520G01 X57.588 Y46.839
N3530G01 X57.399 Y46.934
N3540G01 X57.197 Y47.004
N3550G01 X56.982 Y47.048
N3560G01 X56.709 Y47.066
N3570G01 X35.799
N3580G01 X35.526 Y47.048
N3590G01 X35.312 Y47.004
N3600G01 X35.109 Y46.934
N3610G01 X34.92 Y46.839
N3620G01 X34.745 Y46.722
N3630G01 X34.587 Y46.583
N3640G01 X34.449 Y46.425
N3650G01 X34.331 Y46.25
N3660G01 X34.236 Y46.061
N3670G01 X34.166 Y45.858
N3680G01 X34.122 Y45.644
N3690G01 X34.104 Y45.371
N3700G01 Y32.461
N3710G01 X34.122 Y32.188
N3720G01 X34.166 Y31.973
N3730G01 X34.236 Y31.771
N3740G01 X34.331 Y31.582
N3750G01 X34.449 Y31.407
N3760G01 X34.587 Y31.249
N3770G01 Z-8 F500
N3780G01 X34.745 Y31.11 F1000
N3790G01 X34.92 Y30.992
N3800G01 X35.109 Y30.898
N3810G01 X35.312 Y30.828
N3820G01 X35.526 Y30.784
N3830G01 X35.799 Y30.766
N3840G01 X56.709
N3850G01 X56.982 Y30.784
N3860G01 X57.197 Y30.828
N3870G01 X57.399 Y30.898
N3880G01 X57.588 Y30.992
N3890G01 X57.763 Y31.11
N3900G01 X57.921 Y31.249
N3910G01 X58.06 Y31.407
N3920G01 X58.178 Y31.582
N3930G01 X58.272 Y31.771
N3940G01 X58.342 Y31.973
N3950G01 X58.386 Y32.188
N3960G01 X58.404 Y32.461
N3970G01 Y45.371
N3980G01 X58.386 Y45.644
N3990G01 X58.342 Y45.858
N4000G01 X58.272 Y46.061
N4010G01 X58.178 Y46.25
N4020G01 X58.06 Y46.425
N4030G01 X57.921 Y46.583
N4040G01 X57.763 Y46.721
N4050G01 X57.588 Y46.839
N4060G01 X57.399 Y46.934
N4070G01 X57.197 Y47.004
N4080G01 X56.982 Y47.048
N4090G01 X56.709 Y47.066
N4100G01 X35.799
N4110G01 X35.526 Y47.048
N4120G01 X35.312 Y47.004
N4130G01 X35.109 Y46.934
N4140G01 X34.92 Y46.839
N4150G01 X34.745 Y46.722
N4160G01 X34.587 Y46.583
N4170G01 X34.449 Y46.425
N4180G01 X34.331 Y46.25
N4190G01 X34.236 Y46.061
N4200G01 X34.166 Y45.858
N4210G01 X34.122 Y45.644
N4220G01 X34.104 Y45.371
N4230G01 Y32.461
N4240G01 X34.122 Y32.188
N4250G01 X34.166 Y31.973
N4260G01 X34.236 Y31.771
N4270G01 X34.331 Y31.582
N4280G01 X34.449 Y31.407
N4290G01 X34.587 Y31.249
N4300G01 Z-9 F500
N4310G01 X34.745 Y31.11 F1000
N4320G01 X34.92 Y30.992
N4330G01 X35.109 Y30.898
N4340G01 X35.312 Y30.828
N4350G01 X35.526 Y30.784
N4360G01 X35.799 Y30.766
N4370G01 X56.709
N4380G01 X56.982 Y30.784
N4390G01 X57.197 Y30.828
N4400G01 X57.399 Y30.898
N4410G01 X57.588 Y30.992
N4420G01 X57.763 Y31.11
N4430G01 X57.921 Y31.249
N4440G01 X58.06 Y31.407
N4450G01 X58.178 Y31.582
N4460G01 X58.272 Y31.771
N4470G01 X58.342 Y31.973
N4480G01 X58.386 Y32.188
N4490G01 X58.404 Y32.461
N4500G01 Y45.371
N4510G01 X58.386 Y45.644
N4520G01 X58.342 Y45.858
N4530G01 X58.272 Y46.061
N4540G01 X58.178 Y46.25
N4550G01 X58.06 Y46.425
N4560G01 X57.921 Y46.583
N4570G01 X57.763 Y46.721
N4580G01 X57.588 Y46.839
N4590G01 X57.399 Y46.934
N4600G01 X57.197 Y47.004
N4610G01 X56.982 Y47.048
N4620G01 X56.709 Y47.066
N4630G01 X35.799
N4640G01 X35.526 Y47.048
N4650G01 X35.312 Y47.004
N4660G01 X35.109 Y46.934
N4670G01 X34.92 Y46.839
N4680G01 X34.745 Y46.722
N4690G01 X34.587 Y46.583
N4700G01 X34.449 Y46.425
N4710G01 X34.331 Y46.25
N4720G01 X34.236 Y46.061
N4730G01 X34.166 Y45.858
N4740G01 X34.122 Y45.644
N4750G01 X34.104 Y45.371
N4760G01 Y32.461
N4770G01 X34.122 Y32.188
N4780G01 X34.166 Y31.973
N4790G01 X34.236 Y31.771
N4800G01 X34.331 Y31.582
N4810G01 X34.449 Y31.407
N4820G01 X34.587 Y31.249
N4830G01 Z-10 F500
N4840G01 X34.745 Y31.11 F1000
N4850G01 X34.92 Y30.992
N4860G01 X35.109 Y30.898
N4870G01 X35.312 Y30.828
N4880G01 X35.526 Y30.784
N4890G01 X35.799 Y30.766
N4900G01 X56.709
N4910G01 X56.982 Y30.784
N4920G01 X57.197 Y30.828
N4930G01 X57.399 Y30.898
N4940G01 X57.588 Y30.992
N4950G01 X57.763 Y31.11
N4960G01 X57.921 Y31.249
N4970G01 X58.06 Y31.407
N4980G01 X58.178 Y31.582
N4990G01 X58.272 Y31.771
N5000G01 X58.342 Y31.973
N5010G01 X58.386 Y32.188
N5020G01 X58.404 Y32.461
N5030G01 Y45.371
N5040G01 X58.386 Y45.644
N5050G01 X58.342 Y45.858
N5060G01 X58.272 Y46.061
N5070G01 X58.178 Y46.25
N5080G01 X58.06 Y46.425
N5090G01 X57.921 Y46.583
N5100G01 X57.763 Y46.721
N5110G01 X57.588 Y46.839
N5120G01 X57.399 Y46.934
N5130G01 X57.197 Y47.004
N5140G01 X56.982 Y47.048
N5150G01 X56.709 Y47.066
N5160G01 X35.799
N5170G01 X35.526 Y47.048
N5180G01 X35.312 Y47.004
N5190G01 X35.109 Y46.934
N5200G01 X34.92 Y46.839
N5210G01 X34.745 Y46.722
N5220G01 X34.587 Y46.583
N5230G01 X34.449 Y46.425
N5240G01 X34.331 Y46.25
N5250G01 X34.236 Y46.061
N5260G01 X34.166 Y45.858
N5270G01 X34.122 Y45.644
N5280G01 X34.104 Y45.371
N5290G01 Y32.461
N5300G01 X34.122 Y32.188
N5310G01 X34.166 Y31.973
N5320G01 X34.236 Y31.771
N5330G01 X34.331 Y31.582
N5340G01 X34.449 Y31.407
N5350G01 X34.587 Y31.249
N5360G01 Z-11 F500
N5370G01 X34.745 Y31.11 F1000
N5380G01 X34.92 Y30.992
N5390G01 X35.109 Y30.898
N5400G01 X35.312 Y30.828
N5410G01 X35.526 Y30.784
N5420G01 X35.799 Y30.766
N5430G01 X56.709
N5440G01 X56.982 Y30.784
N5450G01 X57.197 Y30.828
N5460G01 X57.399 Y30.898
N5470G01 X57.588 Y30.992
N5480G01 X57.763 Y31.11
N5490G01 X57.921 Y31.249
N5500G01 X58.06 Y31.407
N5510G01 X58.178 Y31.582
N5520G01 X58.272 Y31.771
N5530G01 X58.342 Y31.973
N5540G01 X58.386 Y32.188
N5550G01 X58.404 Y32.461
N5560G01 Y45.371
N5570G01 X58.386 Y45.644
N5580G01 X58.342 Y45.858
N5590G01 X58.272 Y46.061
N5600G01 X58.178 Y46.25
N5610G01 X58.06 Y46.425
N5620G01 X57.921 Y46.583
N5630G01 X57.763 Y46.721
N5640G01 X57.588 Y46.839
N5650G01 X57.399 Y46.934
N5660G01 X57.197 Y47.004
N5670G01 X56.982 Y47.048
N5680G01 X56.709 Y47.066
N5690G01 X35.799
N5700G01 X35.526 Y47.048
N5710G01 X35.312 Y47.004
N5720G01 X35.109 Y46.934
N5730G01 X34.92 Y46.839
N5740G01 X34.745 Y46.722
N5750G01 X34.587 Y46.583
N5760G01 X34.449 Y46.425
N5770G01 X34.331 Y46.25
N5780G01 X34.236 Y46.061
N5790G01 X34.166 Y45.858
N5800G01 X34.122 Y45.644
N5810G01 X34.104 Y45.371
N5820G01 Y32.461
N5830G01 X34.122 Y32.188
N5840G01 X34.166 Y31.973
N5850G01 X34.236 Y31.771
N5860G01 X34.331 Y31.582
N5870G01 X34.449 Y31.407
N5880G01 X34.587 Y31.249
N5890G01 Z-12 F500
N5900G01 X34.745 Y31.11 F1000
N5910G01 X34.92 Y30.992
N5920G01 X35.109 Y30.898
N5930G01 X35.312 Y30.828
N5940G01 X35.526 Y30.784
N5950G01 X35.799 Y30.766
N5960G01 X56.709
N5970G01 X56.982 Y30.784
N5980G01 X57.197 Y30.828
N5990G01 X57.399 Y30.898
N6000G01 X57.588 Y30.992
N6010G01 X57.763 Y31.11
N6020G01 X57.921 Y31.249
N6030G01 X58.06 Y31.407
N6040G01 X58.178 Y31.582
N6050G01 X58.272 Y31.771
N6060G01 X58.342 Y31.973
N6070G01 X58.386 Y32.188
N6080G01 X58.404 Y32.461
N6090G01 Y45.371
N6100G01 X58.386 Y45.644
N6110G01 X58.342 Y45.858
N6120G01 X58.272 Y46.061
N6130G01 X58.178 Y46.25
N6140G01 X58.06 Y46.425
N6150G01 X57.921 Y46.583
N6160G01 X57.763 Y46.721
N6170G01 X57.588 Y46.839
N6180G01 X57.399 Y46.934
N6190G01 X57.197 Y47.004
N6200G01 X56.982 Y47.048
N6210G01 X56.709 Y47.066
N6220G01 X35.799
N6230G01 X35.526 Y47.048
N6240G01 X35.312 Y47.004
N6250G01 X35.109 Y46.934
N6260G01 X34.92 Y46.839
N6270G01 X34.745 Y46.722
N6280G01 X34.587 Y46.583
N6290G01 X34.449 Y46.425
N6300G01 X34.331 Y46.25
N6310G01 X34.236 Y46.061
N6320G01 X34.166 Y45.858
N6330G01 X34.122 Y45.644
N6340G01 X34.104 Y45.371
N6350G01 Y32.461
N6360G01 X34.122 Y32.188
N6370G01 X34.166 Y31.973
N6380G01 X34.236 Y31.771
N6390G01 X34.331 Y31.582
N6400G01 X34.449 Y31.407
N6410G01 X34.587 Y31.249
N6420G01 Z-13 F500
N6430G01 X34.745 Y31.11 F1000
N6440G01 X34.92 Y30.992
N6450G01 X35.109 Y30.898
N6460G01 X35.312 Y30.828
N6470G01 X35.526 Y30.784
N6480G01 X35.799 Y30.766
N6490G01 X56.709
N6500G01 X56.982 Y30.784
N6510G01 X57.197 Y30.828
N6520G01 X57.399 Y30.898
N6530G01 X57.588 Y30.992
N6540G01 X57.763 Y31.11
N6550G01 X57.921 Y31.249
N6560G01 X58.06 Y31.407
N6570G01 X58.178 Y31.582
N6580G01 X58.272 Y31.771
N6590G01 X58.342 Y31.973
N6600G01 X58.386 Y32.188
N6610G01 X58.404 Y32.461
N6620G01 Y45.371
N6630G01 X58.386 Y45.644
N6640G01 X58.342 Y45.858
N6650G01 X58.272 Y46.061
N6660G01 X58.178 Y46.25
N6670G01 X58.06 Y46.425
N6680G01 X57.921 Y46.583
N6690G01 X57.763 Y46.721
N6700G01 X57.588 Y46.839
N6710G01 X57.399 Y46.934
N6720G01 X57.197 Y47.004
N6730G01 X56.982 Y47.048
N6740G01 X56.709 Y47.066
N6750G01 X35.799
N6760G01 X35.526 Y47.048
N6770G01 X35.312 Y47.004
N6780G01 X35.109 Y46.934
N6790G01 X34.92 Y46.839
N6800G01 X34.745 Y46.722
N6810G01 X34.587 Y46.583
N6820G01 X34.449 Y46.425
N6830G01 X34.331 Y46.25
N6840G01 X34.236 Y46.061
N6850G01 X34.166 Y45.858
N6860G01 X34.122 Y45.644
N6870G01 X34.104 Y45.371
N6880G01 Y32.461
N6890G01 X34.122 Y32.188
N6900G01 X34.166 Y31.973
N6910G01 X34.236 Y31.771
N6920G01 X34.331 Y31.582
N6930G01 X34.449 Y31.407
N6940G01 X34.587 Y31.249
N6950G01 Z-14 F500
N6960G01 X34.745 Y31.11 F1000
N6970G01 X34.92 Y30.992
N6980G01 X35.109 Y30.898
N6990G01 X35.312 Y30.828
N7000G01 X35.526 Y30.784
N7010G01 X35.799 Y30.766
N7020G01 X56.709
N7030G01 X56.982 Y30.784
N7040G01 X57.197 Y30.828
N7050G01 X57.399 Y30.898
N7060G01 X57.588 Y30.992
N7070G01 X57.763 Y31.11
N7080G01 X57.921 Y31.249
N7090G01 X58.06 Y31.407
N7100G01 X58.178 Y31.582
N7110G01 X58.272 Y31.771
N7120G01 X58.342 Y31.973
N7130G01 X58.386 Y32.188
N7140G01 X58.404 Y32.461
N7150G01 Y45.371
N7160G01 X58.386 Y45.644
N7170G01 X58.342 Y45.858
N7180G01 X58.272 Y46.061
N7190G01 X58.178 Y46.25
N7200G01 X58.06 Y46.425
N7210G01 X57.921 Y46.583
N7220G01 X57.763 Y46.721
N7230G01 X57.588 Y46.839
N7240G01 X57.399 Y46.934
N7250G01 X57.197 Y47.004
N7260G01 X56.982 Y47.048
N7270G01 X56.709 Y47.066
N7280G01 X35.799
N7290G01 X35.526 Y47.048
N7300G01 X35.312 Y47.004
N7310G01 X35.109 Y46.934
N7320G01 X34.92 Y46.839
N7330G01 X34.745 Y46.722
N7340G01 X34.587 Y46.583
N7350G01 X34.449 Y46.425
N7360G01 X34.331 Y46.25
N7370G01 X34.236 Y46.061
N7380G01 X34.166 Y45.858
N7390G01 X34.122 Y45.644
N7400G01 X34.104 Y45.371
N7410G01 Y32.461
N7420G01 X34.122 Y32.188
N7430G01 X34.166 Y31.973
N7440G01 X34.236 Y31.771
N7450G01 X34.331 Y31.582
N7460G01 X34.449 Y31.407
N7470G01 X34.587 Y31.249
N7480G01 Z-15 F500
N7490G01 X34.745 Y31.11 F1000
N7500G01 X34.92 Y30.992
N7510G01 X35.109 Y30.898
N7520G01 X35.312 Y30.828
N7530G01 X35.526 Y30.784
N7540G01 X35.799 Y30.766
N7550G01 X56.709
N7560G01 X56.982 Y30.784
N7570G01 X57.197 Y30.828
N7580G01 X57.399 Y30.898
N7590G01 X57.588 Y30.992
N7600G01 X57.763 Y31.11
N7610G01 X57.921 Y31.249
N7620G01 X58.06 Y31.407
N7630G01 X58.178 Y31.582
N7640G01 X58.272 Y31.771
N7650G01 X58.342 Y31.973
N7660G01 X58.386 Y32.188
N7670G01 X58.404 Y32.461
N7680G01 Y45.371
N7690G01 X58.386 Y45.644
N7700G01 X58.342 Y45.858
N7710G01 X58.272 Y46.061
N7720G01 X58.178 Y46.25
N7730G01 X58.06 Y46.425
N7740G01 X57.921 Y46.583
N7750G01 X57.763 Y46.721
N7760G01 X57.588 Y46.839
N7770G01 X57.399 Y46.934
N7780G01 X57.197 Y47.004
N7790G01 X56.982 Y47.048
N7800G01 X56.709 Y47.066
N7810G01 X35.799
N7820G01 X35.526 Y47.048
N7830G01 X35.312 Y47.004
N7840G01 X35.109 Y46.934
N7850G01 X34.92 Y46.839
N7860G01 X34.745 Y46.722
N7870G01 X34.587 Y46.583
N7880G01 X34.449 Y46.425
N7890G01 X34.331 Y46.25
N7900G01 X34.236 Y46.061
N7910G01 X34.166 Y45.858
N7920G01 X34.122 Y45.644
N7930G01 X34.104 Y45.371
N7940G01 Y32.461
N7950G01 X34.122 Y32.188
N7960G01 X34.166 Y31.973
N7970G01 X34.236 Y31.771
N7980G01 X34.331 Y31.582
N7990G01 X34.449 Y31.407
N8000G01 X34.587 Y31.249
N8010G01 Z-16 F500
N8020G01 X34.745 Y31.11 F1000
N8030G01 X34.92 Y30.992
N8040G01 X35.109 Y30.898
N8050G01 X35.312 Y30.828
N8060G01 X35.526 Y30.784
N8070G01 X35.799 Y30.766
N8080G01 X44.264
N8090G01 Z-15.599
N8100G01 X48.964
N8110G01 Z-16 F500
N8120G01 X56.709 F1000
N8130G01 X56.982 Y30.784
N8140G01 X57.197 Y30.828
N8150G01 X57.399 Y30.898
N8160G01 X57.588 Y30.992
N8170G01 X57.763 Y31.11
N8180G01 X57.921 Y31.249
N8190G01 X58.06 Y31.407
N8200G01 X58.178 Y31.582
N8210G01 X58.272 Y31.771
N8220G01 X58.342 Y31.973
N8230G01 X58.386 Y32.188
N8240G01 X58.404 Y32.461
N8250G01 Y36.926
N8260G01 Z-15.599
N8270G01 Y41.626
N8280G01 Z-16 F500
N8290G01 Y45.371 F1000
N8300G01 X58.386 Y45.644
N8310G01 X58.342 Y45.858
N8320G01 X58.272 Y46.061
N8330G01 X58.178 Y46.25
N8340G01 X58.06 Y46.425
N8350G01 X57.921 Y46.583
N8360G01 X57.763 Y46.721
N8370G01 X57.588 Y46.839
N8380G01 X57.399 Y46.934
N8390G01 X57.197 Y47.004
N8400G01 X56.982 Y47.048
N8410G01 X56.709 Y47.066
N8420G01 X48.244
N8430G01 Z-15.599
N8440G01 X43.544
N8450G01 Z-16 F500
N8460G01 X35.799 F1000
N8470G01 X35.526 Y47.048
N8480G01 X35.312 Y47.004
N8490G01 X35.109 Y46.934
N8500G01 X34.92 Y46.839
N8510G01 X34.745 Y46.722
N8520G01 X34.587 Y46.583
N8530G01 X34.449 Y46.425
N8540G01 X34.331 Y46.25
N8550G01 X34.236 Y46.061
N8560G01 X34.166 Y45.858
N8570G01 X34.122 Y45.644
N8580G01 X34.104 Y45.371
N8590G01 Y40.906
N8600G01 Z-15.599
N8610G01 Y36.206
N8620G01 Z-16 F500
N8630G01 Y32.461 F1000
N8640G01 X34.122 Y32.188
N8650G01 X34.166 Y31.973
N8660G01 X34.236 Y31.771
N8670G01 X34.331 Y31.582
N8680G01 X34.449 Y31.407
N8690G01 X34.587 Y31.249
N8700G01 Z-16.599 F500
N8710G01 X34.745 Y31.11 F1000
N8720G01 X34.92 Y30.992
N8730G01 X35.109 Y30.898
N8740G01 X35.312 Y30.828
N8750G01 X35.526 Y30.784
N8760G01 X35.799 Y30.766
N8770G01 X44.264
N8780G01 Z-15.599
N8790G01 X48.964
N8800G01 Z-16.599 F500
N8810G01 X56.709 F1000
N8820G01 X56.982 Y30.784
N8830G01 X57.197 Y30.828
N8840G01 X57.399 Y30.898
N8850G01 X57.588 Y30.992
N8860G01 X57.763 Y31.11
N8870G01 X57.921 Y31.249
N8880G01 X58.06 Y31.407
N8890G01 X58.178 Y31.582
N8900G01 X58.272 Y31.771
N8910G01 X58.342 Y31.973
N8920G01 X58.386 Y32.188
N8930G01 X58.404 Y32.461
N8940G01 Y36.926
N8950G01 Z-15.599
N8960G01 Y41.626
N8970G01 Z-16.599 F500
N8980G01 Y45.371 F1000
N8990G01 X58.386 Y45.644
N9000G01 X58.342 Y45.858
N9010G01 X58.272 Y46.061
N9020G01 X58.178 Y46.25
N9030G01 X58.06 Y46.425
N9040G01 X57.921 Y46.583
N9050G01 X57.763 Y46.721
N9060G01 X57.588 Y46.839
N9070G01 X57.399 Y46.934
N9080G01 X57.197 Y47.004
N9090G01 X56.982 Y47.048
N9100G01 X56.709 Y47.066
N9110G01 X48.244
N9120G01 Z-15.599
N9130G01 X43.544
N9140G01 Z-16.599 F500
N9150G01 X35.799 F1000
N9160G01 X35.526 Y47.048
N9170G01 X35.312 Y47.004
N9180G01 X35.109 Y46.934
N9190G01 X34.92 Y46.839
N9200G01 X34.745 Y46.722
N9210G01 X34.587 Y46.583
N9220G01 X34.449 Y46.425
N9230G01 X34.331 Y46.25
N9240G01 X34.236 Y46.061
N9250G01 X34.166 Y45.858
N9260G01 X34.122 Y45.644
N9270G01 X34.104 Y45.371
N9280G01 Y40.906
N9290G01 Z-15.599
N9300G01 Y36.206
N9310G01 Z-16.599 F500
N9320G01 Y32.461 F1000
N9330G01 X34.122 Y32.188
N9340G01 X34.166 Y31.973
N9350G01 X34.236 Y31.771
N9360G01 X34.331 Y31.582
N9370G01 X34.449 Y31.407
N9380G01 X34.587 Y31.249
N9390 G00 Z9.999
N9400 M02
