(GCode created using the HeeksCNC Mach3 post processor)
(/home/user/git-repos/dkoukoul/donation-box/designs/3D/blender/back panel/60x60x16-block-file.tap)
(G-code generated with BlenderCAM and NC library)
N10 G17 G21 G90
(Tool change)
N20G43H1
N30T1 M06
N40 G00 X0 Y0 Z9.999 S12000 M03
N50 G00 X-1.374 Y-0.025
N60G01 Z-1 F500
N70G01 Y60.074 F1000
N80G01 X-1.368 Y60.207
N90G01 X-1.349 Y60.338
N100G01 X-1.316 Y60.466
N110G01 X-1.272 Y60.591
N120G01 X-1.215 Y60.711
N130G01 X-1.147 Y60.825
N140G01 X-1.068 Y60.931
N150G01 X-0.979 Y61.029
N160G01 X-0.881 Y61.118
N170G01 X-0.775 Y61.197
N180G01 X-0.661 Y61.265
N190G01 X-0.541 Y61.322
N200G01 X-0.416 Y61.366
N210G01 X-0.288 Y61.399
N220G01 X-0.157 Y61.418
N230G01 X-0.024 Y61.425
N240G01 X60.074
N250G01 X60.207 Y61.418
N260G01 X60.338 Y61.399
N270G01 X60.466 Y61.366
N280G01 X60.591 Y61.322
N290G01 X60.711 Y61.265
N300G01 X60.825 Y61.197
N310G01 X60.931 Y61.118
N320G01 X61.029 Y61.029
N330G01 X61.118 Y60.931
N340G01 X61.197 Y60.825
N350G01 X61.265 Y60.711
N360G01 X61.322 Y60.591
N370G01 X61.366 Y60.466
N380G01 X61.399 Y60.338
N390G01 X61.418 Y60.207
N400G01 X61.425 Y60.074
N410G01 Y-0.025
N420G01 X61.418 Y-0.157
N430G01 X61.399 Y-0.288
N440G01 X61.366 Y-0.416
N450G01 X61.322 Y-0.541
N460G01 X61.265 Y-0.661
N470G01 X61.197 Y-0.775
N480G01 X61.118 Y-0.881
N490G01 X61.029 Y-0.979
N500G01 X60.931 Y-1.068
N510G01 X60.825 Y-1.147
N520G01 X60.711 Y-1.215
N530G01 X60.591 Y-1.272
N540G01 X60.466 Y-1.316
N550G01 X60.338 Y-1.349
N560G01 X60.207 Y-1.368
N570G01 X60.074 Y-1.374
N580G01 X-0.025
N590G01 X-0.157 Y-1.368
N600G01 X-0.288 Y-1.349
N610G01 X-0.416 Y-1.316
N620G01 X-0.541 Y-1.272
N630G01 X-0.661 Y-1.215
N640G01 X-0.775 Y-1.147
N650G01 X-0.881 Y-1.068
N660G01 X-0.979 Y-0.979
N670G01 X-1.068 Y-0.881
N680G01 X-1.147 Y-0.775
N690G01 X-1.215 Y-0.661
N700G01 X-1.272 Y-0.541
N710G01 X-1.316 Y-0.416
N720G01 X-1.349 Y-0.288
N730G01 X-1.368 Y-0.157
N740G01 X-1.374 Y-0.025
N750G01 Z-2 F500
N760G01 Y60.074 F1000
N770G01 X-1.368 Y60.207
N780G01 X-1.349 Y60.338
N790G01 X-1.316 Y60.466
N800G01 X-1.272 Y60.591
N810G01 X-1.215 Y60.711
N820G01 X-1.147 Y60.825
N830G01 X-1.068 Y60.931
N840G01 X-0.979 Y61.029
N850G01 X-0.881 Y61.118
N860G01 X-0.775 Y61.197
N870G01 X-0.661 Y61.265
N880G01 X-0.541 Y61.322
N890G01 X-0.416 Y61.366
N900G01 X-0.288 Y61.399
N910G01 X-0.157 Y61.418
N920G01 X-0.024 Y61.425
N930G01 X60.074
N940G01 X60.207 Y61.418
N950G01 X60.338 Y61.399
N960G01 X60.466 Y61.366
N970G01 X60.591 Y61.322
N980G01 X60.711 Y61.265
N990G01 X60.825 Y61.197
N1000G01 X60.931 Y61.118
N1010G01 X61.029 Y61.029
N1020G01 X61.118 Y60.931
N1030G01 X61.197 Y60.825
N1040G01 X61.265 Y60.711
N1050G01 X61.322 Y60.591
N1060G01 X61.366 Y60.466
N1070G01 X61.399 Y60.338
N1080G01 X61.418 Y60.207
N1090G01 X61.425 Y60.074
N1100G01 Y-0.025
N1110G01 X61.418 Y-0.157
N1120G01 X61.399 Y-0.288
N1130G01 X61.366 Y-0.416
N1140G01 X61.322 Y-0.541
N1150G01 X61.265 Y-0.661
N1160G01 X61.197 Y-0.775
N1170G01 X61.118 Y-0.881
N1180G01 X61.029 Y-0.979
N1190G01 X60.931 Y-1.068
N1200G01 X60.825 Y-1.147
N1210G01 X60.711 Y-1.215
N1220G01 X60.591 Y-1.272
N1230G01 X60.466 Y-1.316
N1240G01 X60.338 Y-1.349
N1250G01 X60.207 Y-1.368
N1260G01 X60.074 Y-1.374
N1270G01 X-0.025
N1280G01 X-0.157 Y-1.368
N1290G01 X-0.288 Y-1.349
N1300G01 X-0.416 Y-1.316
N1310G01 X-0.541 Y-1.272
N1320G01 X-0.661 Y-1.215
N1330G01 X-0.775 Y-1.147
N1340G01 X-0.881 Y-1.068
N1350G01 X-0.979 Y-0.979
N1360G01 X-1.068 Y-0.881
N1370G01 X-1.147 Y-0.775
N1380G01 X-1.215 Y-0.661
N1390G01 X-1.272 Y-0.541
N1400G01 X-1.316 Y-0.416
N1410G01 X-1.349 Y-0.288
N1420G01 X-1.368 Y-0.157
N1430G01 X-1.374 Y-0.025
N1440G01 Z-3 F500
N1450G01 Y60.074 F1000
N1460G01 X-1.368 Y60.207
N1470G01 X-1.349 Y60.338
N1480G01 X-1.316 Y60.466
N1490G01 X-1.272 Y60.591
N1500G01 X-1.215 Y60.711
N1510G01 X-1.147 Y60.825
N1520G01 X-1.068 Y60.931
N1530G01 X-0.979 Y61.029
N1540G01 X-0.881 Y61.118
N1550G01 X-0.775 Y61.197
N1560G01 X-0.661 Y61.265
N1570G01 X-0.541 Y61.322
N1580G01 X-0.416 Y61.366
N1590G01 X-0.288 Y61.399
N1600G01 X-0.157 Y61.418
N1610G01 X-0.024 Y61.425
N1620G01 X60.074
N1630G01 X60.207 Y61.418
N1640G01 X60.338 Y61.399
N1650G01 X60.466 Y61.366
N1660G01 X60.591 Y61.322
N1670G01 X60.711 Y61.265
N1680G01 X60.825 Y61.197
N1690G01 X60.931 Y61.118
N1700G01 X61.029 Y61.029
N1710G01 X61.118 Y60.931
N1720G01 X61.197 Y60.825
N1730G01 X61.265 Y60.711
N1740G01 X61.322 Y60.591
N1750G01 X61.366 Y60.466
N1760G01 X61.399 Y60.338
N1770G01 X61.418 Y60.207
N1780G01 X61.425 Y60.074
N1790G01 Y-0.025
N1800G01 X61.418 Y-0.157
N1810G01 X61.399 Y-0.288
N1820G01 X61.366 Y-0.416
N1830G01 X61.322 Y-0.541
N1840G01 X61.265 Y-0.661
N1850G01 X61.197 Y-0.775
N1860G01 X61.118 Y-0.881
N1870G01 X61.029 Y-0.979
N1880G01 X60.931 Y-1.068
N1890G01 X60.825 Y-1.147
N1900G01 X60.711 Y-1.215
N1910G01 X60.591 Y-1.272
N1920G01 X60.466 Y-1.316
N1930G01 X60.338 Y-1.349
N1940G01 X60.207 Y-1.368
N1950G01 X60.074 Y-1.374
N1960G01 X-0.025
N1970G01 X-0.157 Y-1.368
N1980G01 X-0.288 Y-1.349
N1990G01 X-0.416 Y-1.316
N2000G01 X-0.541 Y-1.272
N2010G01 X-0.661 Y-1.215
N2020G01 X-0.775 Y-1.147
N2030G01 X-0.881 Y-1.068
N2040G01 X-0.979 Y-0.979
N2050G01 X-1.068 Y-0.881
N2060G01 X-1.147 Y-0.775
N2070G01 X-1.215 Y-0.661
N2080G01 X-1.272 Y-0.541
N2090G01 X-1.316 Y-0.416
N2100G01 X-1.349 Y-0.288
N2110G01 X-1.368 Y-0.157
N2120G01 X-1.374 Y-0.025
N2130G01 Z-4 F500
N2140G01 Y60.074 F1000
N2150G01 X-1.368 Y60.207
N2160G01 X-1.349 Y60.338
N2170G01 X-1.316 Y60.466
N2180G01 X-1.272 Y60.591
N2190G01 X-1.215 Y60.711
N2200G01 X-1.147 Y60.825
N2210G01 X-1.068 Y60.931
N2220G01 X-0.979 Y61.029
N2230G01 X-0.881 Y61.118
N2240G01 X-0.775 Y61.197
N2250G01 X-0.661 Y61.265
N2260G01 X-0.541 Y61.322
N2270G01 X-0.416 Y61.366
N2280G01 X-0.288 Y61.399
N2290G01 X-0.157 Y61.418
N2300G01 X-0.024 Y61.425
N2310G01 X60.074
N2320G01 X60.207 Y61.418
N2330G01 X60.338 Y61.399
N2340G01 X60.466 Y61.366
N2350G01 X60.591 Y61.322
N2360G01 X60.711 Y61.265
N2370G01 X60.825 Y61.197
N2380G01 X60.931 Y61.118
N2390G01 X61.029 Y61.029
N2400G01 X61.118 Y60.931
N2410G01 X61.197 Y60.825
N2420G01 X61.265 Y60.711
N2430G01 X61.322 Y60.591
N2440G01 X61.366 Y60.466
N2450G01 X61.399 Y60.338
N2460G01 X61.418 Y60.207
N2470G01 X61.425 Y60.074
N2480G01 Y-0.025
N2490G01 X61.418 Y-0.157
N2500G01 X61.399 Y-0.288
N2510G01 X61.366 Y-0.416
N2520G01 X61.322 Y-0.541
N2530G01 X61.265 Y-0.661
N2540G01 X61.197 Y-0.775
N2550G01 X61.118 Y-0.881
N2560G01 X61.029 Y-0.979
N2570G01 X60.931 Y-1.068
N2580G01 X60.825 Y-1.147
N2590G01 X60.711 Y-1.215
N2600G01 X60.591 Y-1.272
N2610G01 X60.466 Y-1.316
N2620G01 X60.338 Y-1.349
N2630G01 X60.207 Y-1.368
N2640G01 X60.074 Y-1.374
N2650G01 X-0.025
N2660G01 X-0.157 Y-1.368
N2670G01 X-0.288 Y-1.349
N2680G01 X-0.416 Y-1.316
N2690G01 X-0.541 Y-1.272
N2700G01 X-0.661 Y-1.215
N2710G01 X-0.775 Y-1.147
N2720G01 X-0.881 Y-1.068
N2730G01 X-0.979 Y-0.979
N2740G01 X-1.068 Y-0.881
N2750G01 X-1.147 Y-0.775
N2760G01 X-1.215 Y-0.661
N2770G01 X-1.272 Y-0.541
N2780G01 X-1.316 Y-0.416
N2790G01 X-1.349 Y-0.288
N2800G01 X-1.368 Y-0.157
N2810G01 X-1.374 Y-0.025
N2820G01 Z-5 F500
N2830G01 Y60.074 F1000
N2840G01 X-1.368 Y60.207
N2850G01 X-1.349 Y60.338
N2860G01 X-1.316 Y60.466
N2870G01 X-1.272 Y60.591
N2880G01 X-1.215 Y60.711
N2890G01 X-1.147 Y60.825
N2900G01 X-1.068 Y60.931
N2910G01 X-0.979 Y61.029
N2920G01 X-0.881 Y61.118
N2930G01 X-0.775 Y61.197
N2940G01 X-0.661 Y61.265
N2950G01 X-0.541 Y61.322
N2960G01 X-0.416 Y61.366
N2970G01 X-0.288 Y61.399
N2980G01 X-0.157 Y61.418
N2990G01 X-0.024 Y61.425
N3000G01 X60.074
N3010G01 X60.207 Y61.418
N3020G01 X60.338 Y61.399
N3030G01 X60.466 Y61.366
N3040G01 X60.591 Y61.322
N3050G01 X60.711 Y61.265
N3060G01 X60.825 Y61.197
N3070G01 X60.931 Y61.118
N3080G01 X61.029 Y61.029
N3090G01 X61.118 Y60.931
N3100G01 X61.197 Y60.825
N3110G01 X61.265 Y60.711
N3120G01 X61.322 Y60.591
N3130G01 X61.366 Y60.466
N3140G01 X61.399 Y60.338
N3150G01 X61.418 Y60.207
N3160G01 X61.425 Y60.074
N3170G01 Y-0.025
N3180G01 X61.418 Y-0.157
N3190G01 X61.399 Y-0.288
N3200G01 X61.366 Y-0.416
N3210G01 X61.322 Y-0.541
N3220G01 X61.265 Y-0.661
N3230G01 X61.197 Y-0.775
N3240G01 X61.118 Y-0.881
N3250G01 X61.029 Y-0.979
N3260G01 X60.931 Y-1.068
N3270G01 X60.825 Y-1.147
N3280G01 X60.711 Y-1.215
N3290G01 X60.591 Y-1.272
N3300G01 X60.466 Y-1.316
N3310G01 X60.338 Y-1.349
N3320G01 X60.207 Y-1.368
N3330G01 X60.074 Y-1.374
N3340G01 X-0.025
N3350G01 X-0.157 Y-1.368
N3360G01 X-0.288 Y-1.349
N3370G01 X-0.416 Y-1.316
N3380G01 X-0.541 Y-1.272
N3390G01 X-0.661 Y-1.215
N3400G01 X-0.775 Y-1.147
N3410G01 X-0.881 Y-1.068
N3420G01 X-0.979 Y-0.979
N3430G01 X-1.068 Y-0.881
N3440G01 X-1.147 Y-0.775
N3450G01 X-1.215 Y-0.661
N3460G01 X-1.272 Y-0.541
N3470G01 X-1.316 Y-0.416
N3480G01 X-1.349 Y-0.288
N3490G01 X-1.368 Y-0.157
N3500G01 X-1.374 Y-0.025
N3510G01 Z-6 F500
N3520G01 Y60.074 F1000
N3530G01 X-1.368 Y60.207
N3540G01 X-1.349 Y60.338
N3550G01 X-1.316 Y60.466
N3560G01 X-1.272 Y60.591
N3570G01 X-1.215 Y60.711
N3580G01 X-1.147 Y60.825
N3590G01 X-1.068 Y60.931
N3600G01 X-0.979 Y61.029
N3610G01 X-0.881 Y61.118
N3620G01 X-0.775 Y61.197
N3630G01 X-0.661 Y61.265
N3640G01 X-0.541 Y61.322
N3650G01 X-0.416 Y61.366
N3660G01 X-0.288 Y61.399
N3670G01 X-0.157 Y61.418
N3680G01 X-0.024 Y61.425
N3690G01 X60.074
N3700G01 X60.207 Y61.418
N3710G01 X60.338 Y61.399
N3720G01 X60.466 Y61.366
N3730G01 X60.591 Y61.322
N3740G01 X60.711 Y61.265
N3750G01 X60.825 Y61.197
N3760G01 X60.931 Y61.118
N3770G01 X61.029 Y61.029
N3780G01 X61.118 Y60.931
N3790G01 X61.197 Y60.825
N3800G01 X61.265 Y60.711
N3810G01 X61.322 Y60.591
N3820G01 X61.366 Y60.466
N3830G01 X61.399 Y60.338
N3840G01 X61.418 Y60.207
N3850G01 X61.425 Y60.074
N3860G01 Y-0.025
N3870G01 X61.418 Y-0.157
N3880G01 X61.399 Y-0.288
N3890G01 X61.366 Y-0.416
N3900G01 X61.322 Y-0.541
N3910G01 X61.265 Y-0.661
N3920G01 X61.197 Y-0.775
N3930G01 X61.118 Y-0.881
N3940G01 X61.029 Y-0.979
N3950G01 X60.931 Y-1.068
N3960G01 X60.825 Y-1.147
N3970G01 X60.711 Y-1.215
N3980G01 X60.591 Y-1.272
N3990G01 X60.466 Y-1.316
N4000G01 X60.338 Y-1.349
N4010G01 X60.207 Y-1.368
N4020G01 X60.074 Y-1.374
N4030G01 X-0.025
N4040G01 X-0.157 Y-1.368
N4050G01 X-0.288 Y-1.349
N4060G01 X-0.416 Y-1.316
N4070G01 X-0.541 Y-1.272
N4080G01 X-0.661 Y-1.215
N4090G01 X-0.775 Y-1.147
N4100G01 X-0.881 Y-1.068
N4110G01 X-0.979 Y-0.979
N4120G01 X-1.068 Y-0.881
N4130G01 X-1.147 Y-0.775
N4140G01 X-1.215 Y-0.661
N4150G01 X-1.272 Y-0.541
N4160G01 X-1.316 Y-0.416
N4170G01 X-1.349 Y-0.288
N4180G01 X-1.368 Y-0.157
N4190G01 X-1.374 Y-0.025
N4200G01 Z-7 F500
N4210G01 Y60.074 F1000
N4220G01 X-1.368 Y60.207
N4230G01 X-1.349 Y60.338
N4240G01 X-1.316 Y60.466
N4250G01 X-1.272 Y60.591
N4260G01 X-1.215 Y60.711
N4270G01 X-1.147 Y60.825
N4280G01 X-1.068 Y60.931
N4290G01 X-0.979 Y61.029
N4300G01 X-0.881 Y61.118
N4310G01 X-0.775 Y61.197
N4320G01 X-0.661 Y61.265
N4330G01 X-0.541 Y61.322
N4340G01 X-0.416 Y61.366
N4350G01 X-0.288 Y61.399
N4360G01 X-0.157 Y61.418
N4370G01 X-0.024 Y61.425
N4380G01 X60.074
N4390G01 X60.207 Y61.418
N4400G01 X60.338 Y61.399
N4410G01 X60.466 Y61.366
N4420G01 X60.591 Y61.322
N4430G01 X60.711 Y61.265
N4440G01 X60.825 Y61.197
N4450G01 X60.931 Y61.118
N4460G01 X61.029 Y61.029
N4470G01 X61.118 Y60.931
N4480G01 X61.197 Y60.825
N4490G01 X61.265 Y60.711
N4500G01 X61.322 Y60.591
N4510G01 X61.366 Y60.466
N4520G01 X61.399 Y60.338
N4530G01 X61.418 Y60.207
N4540G01 X61.425 Y60.074
N4550G01 Y-0.025
N4560G01 X61.418 Y-0.157
N4570G01 X61.399 Y-0.288
N4580G01 X61.366 Y-0.416
N4590G01 X61.322 Y-0.541
N4600G01 X61.265 Y-0.661
N4610G01 X61.197 Y-0.775
N4620G01 X61.118 Y-0.881
N4630G01 X61.029 Y-0.979
N4640G01 X60.931 Y-1.068
N4650G01 X60.825 Y-1.147
N4660G01 X60.711 Y-1.215
N4670G01 X60.591 Y-1.272
N4680G01 X60.466 Y-1.316
N4690G01 X60.338 Y-1.349
N4700G01 X60.207 Y-1.368
N4710G01 X60.074 Y-1.374
N4720G01 X-0.025
N4730G01 X-0.157 Y-1.368
N4740G01 X-0.288 Y-1.349
N4750G01 X-0.416 Y-1.316
N4760G01 X-0.541 Y-1.272
N4770G01 X-0.661 Y-1.215
N4780G01 X-0.775 Y-1.147
N4790G01 X-0.881 Y-1.068
N4800G01 X-0.979 Y-0.979
N4810G01 X-1.068 Y-0.881
N4820G01 X-1.147 Y-0.775
N4830G01 X-1.215 Y-0.661
N4840G01 X-1.272 Y-0.541
N4850G01 X-1.316 Y-0.416
N4860G01 X-1.349 Y-0.288
N4870G01 X-1.368 Y-0.157
N4880G01 X-1.374 Y-0.025
N4890G01 Z-8 F500
N4900G01 Y60.074 F1000
N4910G01 X-1.368 Y60.207
N4920G01 X-1.349 Y60.338
N4930G01 X-1.316 Y60.466
N4940G01 X-1.272 Y60.591
N4950G01 X-1.215 Y60.711
N4960G01 X-1.147 Y60.825
N4970G01 X-1.068 Y60.931
N4980G01 X-0.979 Y61.029
N4990G01 X-0.881 Y61.118
N5000G01 X-0.775 Y61.197
N5010G01 X-0.661 Y61.265
N5020G01 X-0.541 Y61.322
N5030G01 X-0.416 Y61.366
N5040G01 X-0.288 Y61.399
N5050G01 X-0.157 Y61.418
N5060G01 X-0.024 Y61.425
N5070G01 X60.074
N5080G01 X60.207 Y61.418
N5090G01 X60.338 Y61.399
N5100G01 X60.466 Y61.366
N5110G01 X60.591 Y61.322
N5120G01 X60.711 Y61.265
N5130G01 X60.825 Y61.197
N5140G01 X60.931 Y61.118
N5150G01 X61.029 Y61.029
N5160G01 X61.118 Y60.931
N5170G01 X61.197 Y60.825
N5180G01 X61.265 Y60.711
N5190G01 X61.322 Y60.591
N5200G01 X61.366 Y60.466
N5210G01 X61.399 Y60.338
N5220G01 X61.418 Y60.207
N5230G01 X61.425 Y60.074
N5240G01 Y-0.025
N5250G01 X61.418 Y-0.157
N5260G01 X61.399 Y-0.288
N5270G01 X61.366 Y-0.416
N5280G01 X61.322 Y-0.541
N5290G01 X61.265 Y-0.661
N5300G01 X61.197 Y-0.775
N5310G01 X61.118 Y-0.881
N5320G01 X61.029 Y-0.979
N5330G01 X60.931 Y-1.068
N5340G01 X60.825 Y-1.147
N5350G01 X60.711 Y-1.215
N5360G01 X60.591 Y-1.272
N5370G01 X60.466 Y-1.316
N5380G01 X60.338 Y-1.349
N5390G01 X60.207 Y-1.368
N5400G01 X60.074 Y-1.374
N5410G01 X-0.025
N5420G01 X-0.157 Y-1.368
N5430G01 X-0.288 Y-1.349
N5440G01 X-0.416 Y-1.316
N5450G01 X-0.541 Y-1.272
N5460G01 X-0.661 Y-1.215
N5470G01 X-0.775 Y-1.147
N5480G01 X-0.881 Y-1.068
N5490G01 X-0.979 Y-0.979
N5500G01 X-1.068 Y-0.881
N5510G01 X-1.147 Y-0.775
N5520G01 X-1.215 Y-0.661
N5530G01 X-1.272 Y-0.541
N5540G01 X-1.316 Y-0.416
N5550G01 X-1.349 Y-0.288
N5560G01 X-1.368 Y-0.157
N5570G01 X-1.374 Y-0.025
N5580G01 Z-9 F500
N5590G01 Y60.074 F1000
N5600G01 X-1.368 Y60.207
N5610G01 X-1.349 Y60.338
N5620G01 X-1.316 Y60.466
N5630G01 X-1.272 Y60.591
N5640G01 X-1.215 Y60.711
N5650G01 X-1.147 Y60.825
N5660G01 X-1.068 Y60.931
N5670G01 X-0.979 Y61.029
N5680G01 X-0.881 Y61.118
N5690G01 X-0.775 Y61.197
N5700G01 X-0.661 Y61.265
N5710G01 X-0.541 Y61.322
N5720G01 X-0.416 Y61.366
N5730G01 X-0.288 Y61.399
N5740G01 X-0.157 Y61.418
N5750G01 X-0.024 Y61.425
N5760G01 X60.074
N5770G01 X60.207 Y61.418
N5780G01 X60.338 Y61.399
N5790G01 X60.466 Y61.366
N5800G01 X60.591 Y61.322
N5810G01 X60.711 Y61.265
N5820G01 X60.825 Y61.197
N5830G01 X60.931 Y61.118
N5840G01 X61.029 Y61.029
N5850G01 X61.118 Y60.931
N5860G01 X61.197 Y60.825
N5870G01 X61.265 Y60.711
N5880G01 X61.322 Y60.591
N5890G01 X61.366 Y60.466
N5900G01 X61.399 Y60.338
N5910G01 X61.418 Y60.207
N5920G01 X61.425 Y60.074
N5930G01 Y-0.025
N5940G01 X61.418 Y-0.157
N5950G01 X61.399 Y-0.288
N5960G01 X61.366 Y-0.416
N5970G01 X61.322 Y-0.541
N5980G01 X61.265 Y-0.661
N5990G01 X61.197 Y-0.775
N6000G01 X61.118 Y-0.881
N6010G01 X61.029 Y-0.979
N6020G01 X60.931 Y-1.068
N6030G01 X60.825 Y-1.147
N6040G01 X60.711 Y-1.215
N6050G01 X60.591 Y-1.272
N6060G01 X60.466 Y-1.316
N6070G01 X60.338 Y-1.349
N6080G01 X60.207 Y-1.368
N6090G01 X60.074 Y-1.374
N6100G01 X-0.025
N6110G01 X-0.157 Y-1.368
N6120G01 X-0.288 Y-1.349
N6130G01 X-0.416 Y-1.316
N6140G01 X-0.541 Y-1.272
N6150G01 X-0.661 Y-1.215
N6160G01 X-0.775 Y-1.147
N6170G01 X-0.881 Y-1.068
N6180G01 X-0.979 Y-0.979
N6190G01 X-1.068 Y-0.881
N6200G01 X-1.147 Y-0.775
N6210G01 X-1.215 Y-0.661
N6220G01 X-1.272 Y-0.541
N6230G01 X-1.316 Y-0.416
N6240G01 X-1.349 Y-0.288
N6250G01 X-1.368 Y-0.157
N6260G01 X-1.374 Y-0.025
N6270G01 Z-10 F500
N6280G01 Y60.074 F1000
N6290G01 X-1.368 Y60.207
N6300G01 X-1.349 Y60.338
N6310G01 X-1.316 Y60.466
N6320G01 X-1.272 Y60.591
N6330G01 X-1.215 Y60.711
N6340G01 X-1.147 Y60.825
N6350G01 X-1.068 Y60.931
N6360G01 X-0.979 Y61.029
N6370G01 X-0.881 Y61.118
N6380G01 X-0.775 Y61.197
N6390G01 X-0.661 Y61.265
N6400G01 X-0.541 Y61.322
N6410G01 X-0.416 Y61.366
N6420G01 X-0.288 Y61.399
N6430G01 X-0.157 Y61.418
N6440G01 X-0.024 Y61.425
N6450G01 X60.074
N6460G01 X60.207 Y61.418
N6470G01 X60.338 Y61.399
N6480G01 X60.466 Y61.366
N6490G01 X60.591 Y61.322
N6500G01 X60.711 Y61.265
N6510G01 X60.825 Y61.197
N6520G01 X60.931 Y61.118
N6530G01 X61.029 Y61.029
N6540G01 X61.118 Y60.931
N6550G01 X61.197 Y60.825
N6560G01 X61.265 Y60.711
N6570G01 X61.322 Y60.591
N6580G01 X61.366 Y60.466
N6590G01 X61.399 Y60.338
N6600G01 X61.418 Y60.207
N6610G01 X61.425 Y60.074
N6620G01 Y-0.025
N6630G01 X61.418 Y-0.157
N6640G01 X61.399 Y-0.288
N6650G01 X61.366 Y-0.416
N6660G01 X61.322 Y-0.541
N6670G01 X61.265 Y-0.661
N6680G01 X61.197 Y-0.775
N6690G01 X61.118 Y-0.881
N6700G01 X61.029 Y-0.979
N6710G01 X60.931 Y-1.068
N6720G01 X60.825 Y-1.147
N6730G01 X60.711 Y-1.215
N6740G01 X60.591 Y-1.272
N6750G01 X60.466 Y-1.316
N6760G01 X60.338 Y-1.349
N6770G01 X60.207 Y-1.368
N6780G01 X60.074 Y-1.374
N6790G01 X-0.025
N6800G01 X-0.157 Y-1.368
N6810G01 X-0.288 Y-1.349
N6820G01 X-0.416 Y-1.316
N6830G01 X-0.541 Y-1.272
N6840G01 X-0.661 Y-1.215
N6850G01 X-0.775 Y-1.147
N6860G01 X-0.881 Y-1.068
N6870G01 X-0.979 Y-0.979
N6880G01 X-1.068 Y-0.881
N6890G01 X-1.147 Y-0.775
N6900G01 X-1.215 Y-0.661
N6910G01 X-1.272 Y-0.541
N6920G01 X-1.316 Y-0.416
N6930G01 X-1.349 Y-0.288
N6940G01 X-1.368 Y-0.157
N6950G01 X-1.374 Y-0.025
N6960G01 Z-11 F500
N6970G01 Y60.074 F1000
N6980G01 X-1.368 Y60.207
N6990G01 X-1.349 Y60.338
N7000G01 X-1.316 Y60.466
N7010G01 X-1.272 Y60.591
N7020G01 X-1.215 Y60.711
N7030G01 X-1.147 Y60.825
N7040G01 X-1.068 Y60.931
N7050G01 X-0.979 Y61.029
N7060G01 X-0.881 Y61.118
N7070G01 X-0.775 Y61.197
N7080G01 X-0.661 Y61.265
N7090G01 X-0.541 Y61.322
N7100G01 X-0.416 Y61.366
N7110G01 X-0.288 Y61.399
N7120G01 X-0.157 Y61.418
N7130G01 X-0.024 Y61.425
N7140G01 X60.074
N7150G01 X60.207 Y61.418
N7160G01 X60.338 Y61.399
N7170G01 X60.466 Y61.366
N7180G01 X60.591 Y61.322
N7190G01 X60.711 Y61.265
N7200G01 X60.825 Y61.197
N7210G01 X60.931 Y61.118
N7220G01 X61.029 Y61.029
N7230G01 X61.118 Y60.931
N7240G01 X61.197 Y60.825
N7250G01 X61.265 Y60.711
N7260G01 X61.322 Y60.591
N7270G01 X61.366 Y60.466
N7280G01 X61.399 Y60.338
N7290G01 X61.418 Y60.207
N7300G01 X61.425 Y60.074
N7310G01 Y-0.025
N7320G01 X61.418 Y-0.157
N7330G01 X61.399 Y-0.288
N7340G01 X61.366 Y-0.416
N7350G01 X61.322 Y-0.541
N7360G01 X61.265 Y-0.661
N7370G01 X61.197 Y-0.775
N7380G01 X61.118 Y-0.881
N7390G01 X61.029 Y-0.979
N7400G01 X60.931 Y-1.068
N7410G01 X60.825 Y-1.147
N7420G01 X60.711 Y-1.215
N7430G01 X60.591 Y-1.272
N7440G01 X60.466 Y-1.316
N7450G01 X60.338 Y-1.349
N7460G01 X60.207 Y-1.368
N7470G01 X60.074 Y-1.374
N7480G01 X-0.025
N7490G01 X-0.157 Y-1.368
N7500G01 X-0.288 Y-1.349
N7510G01 X-0.416 Y-1.316
N7520G01 X-0.541 Y-1.272
N7530G01 X-0.661 Y-1.215
N7540G01 X-0.775 Y-1.147
N7550G01 X-0.881 Y-1.068
N7560G01 X-0.979 Y-0.979
N7570G01 X-1.068 Y-0.881
N7580G01 X-1.147 Y-0.775
N7590G01 X-1.215 Y-0.661
N7600G01 X-1.272 Y-0.541
N7610G01 X-1.316 Y-0.416
N7620G01 X-1.349 Y-0.288
N7630G01 X-1.368 Y-0.157
N7640G01 X-1.374 Y-0.025
N7650G01 Z-12 F500
N7660G01 Y60.074 F1000
N7670G01 X-1.368 Y60.207
N7680G01 X-1.349 Y60.338
N7690G01 X-1.316 Y60.466
N7700G01 X-1.272 Y60.591
N7710G01 X-1.215 Y60.711
N7720G01 X-1.147 Y60.825
N7730G01 X-1.068 Y60.931
N7740G01 X-0.979 Y61.029
N7750G01 X-0.881 Y61.118
N7760G01 X-0.775 Y61.197
N7770G01 X-0.661 Y61.265
N7780G01 X-0.541 Y61.322
N7790G01 X-0.416 Y61.366
N7800G01 X-0.288 Y61.399
N7810G01 X-0.157 Y61.418
N7820G01 X-0.024 Y61.425
N7830G01 X60.074
N7840G01 X60.207 Y61.418
N7850G01 X60.338 Y61.399
N7860G01 X60.466 Y61.366
N7870G01 X60.591 Y61.322
N7880G01 X60.711 Y61.265
N7890G01 X60.825 Y61.197
N7900G01 X60.931 Y61.118
N7910G01 X61.029 Y61.029
N7920G01 X61.118 Y60.931
N7930G01 X61.197 Y60.825
N7940G01 X61.265 Y60.711
N7950G01 X61.322 Y60.591
N7960G01 X61.366 Y60.466
N7970G01 X61.399 Y60.338
N7980G01 X61.418 Y60.207
N7990G01 X61.425 Y60.074
N8000G01 Y-0.025
N8010G01 X61.418 Y-0.157
N8020G01 X61.399 Y-0.288
N8030G01 X61.366 Y-0.416
N8040G01 X61.322 Y-0.541
N8050G01 X61.265 Y-0.661
N8060G01 X61.197 Y-0.775
N8070G01 X61.118 Y-0.881
N8080G01 X61.029 Y-0.979
N8090G01 X60.931 Y-1.068
N8100G01 X60.825 Y-1.147
N8110G01 X60.711 Y-1.215
N8120G01 X60.591 Y-1.272
N8130G01 X60.466 Y-1.316
N8140G01 X60.338 Y-1.349
N8150G01 X60.207 Y-1.368
N8160G01 X60.074 Y-1.374
N8170G01 X-0.025
N8180G01 X-0.157 Y-1.368
N8190G01 X-0.288 Y-1.349
N8200G01 X-0.416 Y-1.316
N8210G01 X-0.541 Y-1.272
N8220G01 X-0.661 Y-1.215
N8230G01 X-0.775 Y-1.147
N8240G01 X-0.881 Y-1.068
N8250G01 X-0.979 Y-0.979
N8260G01 X-1.068 Y-0.881
N8270G01 X-1.147 Y-0.775
N8280G01 X-1.215 Y-0.661
N8290G01 X-1.272 Y-0.541
N8300G01 X-1.316 Y-0.416
N8310G01 X-1.349 Y-0.288
N8320G01 X-1.368 Y-0.157
N8330G01 X-1.374 Y-0.025
N8340G01 Z-13 F500
N8350G01 Y60.074 F1000
N8360G01 X-1.368 Y60.207
N8370G01 X-1.349 Y60.338
N8380G01 X-1.316 Y60.466
N8390G01 X-1.272 Y60.591
N8400G01 X-1.215 Y60.711
N8410G01 X-1.147 Y60.825
N8420G01 X-1.068 Y60.931
N8430G01 X-0.979 Y61.029
N8440G01 X-0.881 Y61.118
N8450G01 X-0.775 Y61.197
N8460G01 X-0.661 Y61.265
N8470G01 X-0.541 Y61.322
N8480G01 X-0.416 Y61.366
N8490G01 X-0.288 Y61.399
N8500G01 X-0.157 Y61.418
N8510G01 X-0.024 Y61.425
N8520G01 X60.074
N8530G01 X60.207 Y61.418
N8540G01 X60.338 Y61.399
N8550G01 X60.466 Y61.366
N8560G01 X60.591 Y61.322
N8570G01 X60.711 Y61.265
N8580G01 X60.825 Y61.197
N8590G01 X60.931 Y61.118
N8600G01 X61.029 Y61.029
N8610G01 X61.118 Y60.931
N8620G01 X61.197 Y60.825
N8630G01 X61.265 Y60.711
N8640G01 X61.322 Y60.591
N8650G01 X61.366 Y60.466
N8660G01 X61.399 Y60.338
N8670G01 X61.418 Y60.207
N8680G01 X61.425 Y60.074
N8690G01 Y-0.025
N8700G01 X61.418 Y-0.157
N8710G01 X61.399 Y-0.288
N8720G01 X61.366 Y-0.416
N8730G01 X61.322 Y-0.541
N8740G01 X61.265 Y-0.661
N8750G01 X61.197 Y-0.775
N8760G01 X61.118 Y-0.881
N8770G01 X61.029 Y-0.979
N8780G01 X60.931 Y-1.068
N8790G01 X60.825 Y-1.147
N8800G01 X60.711 Y-1.215
N8810G01 X60.591 Y-1.272
N8820G01 X60.466 Y-1.316
N8830G01 X60.338 Y-1.349
N8840G01 X60.207 Y-1.368
N8850G01 X60.074 Y-1.374
N8860G01 X-0.025
N8870G01 X-0.157 Y-1.368
N8880G01 X-0.288 Y-1.349
N8890G01 X-0.416 Y-1.316
N8900G01 X-0.541 Y-1.272
N8910G01 X-0.661 Y-1.215
N8920G01 X-0.775 Y-1.147
N8930G01 X-0.881 Y-1.068
N8940G01 X-0.979 Y-0.979
N8950G01 X-1.068 Y-0.881
N8960G01 X-1.147 Y-0.775
N8970G01 X-1.215 Y-0.661
N8980G01 X-1.272 Y-0.541
N8990G01 X-1.316 Y-0.416
N9000G01 X-1.349 Y-0.288
N9010G01 X-1.368 Y-0.157
N9020G01 X-1.374 Y-0.025
N9030G01 Z-14 F500
N9040G01 Y60.074 F1000
N9050G01 X-1.368 Y60.207
N9060G01 X-1.349 Y60.338
N9070G01 X-1.316 Y60.466
N9080G01 X-1.272 Y60.591
N9090G01 X-1.215 Y60.711
N9100G01 X-1.147 Y60.825
N9110G01 X-1.068 Y60.931
N9120G01 X-0.979 Y61.029
N9130G01 X-0.881 Y61.118
N9140G01 X-0.775 Y61.197
N9150G01 X-0.661 Y61.265
N9160G01 X-0.541 Y61.322
N9170G01 X-0.416 Y61.366
N9180G01 X-0.288 Y61.399
N9190G01 X-0.157 Y61.418
N9200G01 X-0.024 Y61.425
N9210G01 X60.074
N9220G01 X60.207 Y61.418
N9230G01 X60.338 Y61.399
N9240G01 X60.466 Y61.366
N9250G01 X60.591 Y61.322
N9260G01 X60.711 Y61.265
N9270G01 X60.825 Y61.197
N9280G01 X60.931 Y61.118
N9290G01 X61.029 Y61.029
N9300G01 X61.118 Y60.931
N9310G01 X61.197 Y60.825
N9320G01 X61.265 Y60.711
N9330G01 X61.322 Y60.591
N9340G01 X61.366 Y60.466
N9350G01 X61.399 Y60.338
N9360G01 X61.418 Y60.207
N9370G01 X61.425 Y60.074
N9380G01 Y-0.025
N9390G01 X61.418 Y-0.157
N9400G01 X61.399 Y-0.288
N9410G01 X61.366 Y-0.416
N9420G01 X61.322 Y-0.541
N9430G01 X61.265 Y-0.661
N9440G01 X61.197 Y-0.775
N9450G01 X61.118 Y-0.881
N9460G01 X61.029 Y-0.979
N9470G01 X60.931 Y-1.068
N9480G01 X60.825 Y-1.147
N9490G01 X60.711 Y-1.215
N9500G01 X60.591 Y-1.272
N9510G01 X60.466 Y-1.316
N9520G01 X60.338 Y-1.349
N9530G01 X60.207 Y-1.368
N9540G01 X60.074 Y-1.374
N9550G01 X-0.025
N9560G01 X-0.157 Y-1.368
N9570G01 X-0.288 Y-1.349
N9580G01 X-0.416 Y-1.316
N9590G01 X-0.541 Y-1.272
N9600G01 X-0.661 Y-1.215
N9610G01 X-0.775 Y-1.147
N9620G01 X-0.881 Y-1.068
N9630G01 X-0.979 Y-0.979
N9640G01 X-1.068 Y-0.881
N9650G01 X-1.147 Y-0.775
N9660G01 X-1.215 Y-0.661
N9670G01 X-1.272 Y-0.541
N9680G01 X-1.316 Y-0.416
N9690G01 X-1.349 Y-0.288
N9700G01 X-1.368 Y-0.157
N9710G01 X-1.374 Y-0.025
N9720G01 Z-15 F500
N9730G01 Y60.074 F1000
N9740G01 X-1.368 Y60.207
N9750G01 X-1.349 Y60.338
N9760G01 X-1.316 Y60.466
N9770G01 X-1.272 Y60.591
N9780G01 X-1.215 Y60.711
N9790G01 X-1.147 Y60.825
N9800G01 X-1.068 Y60.931
N9810G01 X-0.979 Y61.029
N9820G01 X-0.881 Y61.118
N9830G01 X-0.775 Y61.197
N9840G01 X-0.661 Y61.265
N9850G01 X-0.541 Y61.322
N9860G01 X-0.416 Y61.366
N9870G01 X-0.288 Y61.399
N9880G01 X-0.157 Y61.418
N9890G01 X-0.024 Y61.425
N9900G01 X60.074
N9910G01 X60.207 Y61.418
N9920G01 X60.338 Y61.399
N9930G01 X60.466 Y61.366
N9940G01 X60.591 Y61.322
N9950G01 X60.711 Y61.265
N9960G01 X60.825 Y61.197
N9970G01 X60.931 Y61.118
N9980G01 X61.029 Y61.029
N9990G01 X61.118 Y60.931
N10000G01 X61.197 Y60.825
N10010G01 X61.265 Y60.711
N10020G01 X61.322 Y60.591
N10030G01 X61.366 Y60.466
N10040G01 X61.399 Y60.338
N10050G01 X61.418 Y60.207
N10060G01 X61.425 Y60.074
N10070G01 Y-0.025
N10080G01 X61.418 Y-0.157
N10090G01 X61.399 Y-0.288
N10100G01 X61.366 Y-0.416
N10110G01 X61.322 Y-0.541
N10120G01 X61.265 Y-0.661
N10130G01 X61.197 Y-0.775
N10140G01 X61.118 Y-0.881
N10150G01 X61.029 Y-0.979
N10160G01 X60.931 Y-1.068
N10170G01 X60.825 Y-1.147
N10180G01 X60.711 Y-1.215
N10190G01 X60.591 Y-1.272
N10200G01 X60.466 Y-1.316
N10210G01 X60.338 Y-1.349
N10220G01 X60.207 Y-1.368
N10230G01 X60.074 Y-1.374
N10240G01 X-0.025
N10250G01 X-0.157 Y-1.368
N10260G01 X-0.288 Y-1.349
N10270G01 X-0.416 Y-1.316
N10280G01 X-0.541 Y-1.272
N10290G01 X-0.661 Y-1.215
N10300G01 X-0.775 Y-1.147
N10310G01 X-0.881 Y-1.068
N10320G01 X-0.979 Y-0.979
N10330G01 X-1.068 Y-0.881
N10340G01 X-1.147 Y-0.775
N10350G01 X-1.215 Y-0.661
N10360G01 X-1.272 Y-0.541
N10370G01 X-1.316 Y-0.416
N10380G01 X-1.349 Y-0.288
N10390G01 X-1.368 Y-0.157
N10400G01 X-1.374 Y-0.025
N10410G01 Z-16 F500
N10420G01 Y31.094 F1000
N10430G01 Z-15.9
N10440G01 Y35.794
N10450G01 Z-16 F500
N10460G01 Y60.074 F1000
N10470G01 X-1.368 Y60.207
N10480G01 X-1.349 Y60.338
N10490G01 X-1.316 Y60.466
N10500G01 X-1.272 Y60.591
N10510G01 X-1.215 Y60.711
N10520G01 X-1.147 Y60.825
N10530G01 X-1.068 Y60.931
N10540G01 X-0.979 Y61.029
N10550G01 X-0.881 Y61.118
N10560G01 X-0.775 Y61.197
N10570G01 X-0.661 Y61.265
N10580G01 X-0.541 Y61.322
N10590G01 X-0.416 Y61.366
N10600G01 X-0.288 Y61.399
N10610G01 X-0.157 Y61.418
N10620G01 X-0.024 Y61.425
N10630G01 X31.094 Y61.425
N10640G01 Z-15.9
N10650G01 X35.794
N10660G01 Z-16 F500
N10670G01 X60.074 Y61.425 F1000
N10680G01 X60.207 Y61.418
N10690G01 X60.338 Y61.399
N10700G01 X60.466 Y61.366
N10710G01 X60.591 Y61.322
N10720G01 X60.711 Y61.265
N10730G01 X60.825 Y61.197
N10740G01 X60.931 Y61.118
N10750G01 X61.029 Y61.029
N10760G01 X61.118 Y60.931
N10770G01 X61.197 Y60.825
N10780G01 X61.265 Y60.711
N10790G01 X61.322 Y60.591
N10800G01 X61.366 Y60.466
N10810G01 X61.399 Y60.338
N10820G01 X61.418 Y60.207
N10830G01 X61.425 Y60.074
N10840G01 Y28.955
N10850G01 Z-15.9
N10860G01 Y24.255
N10870G01 Z-16 F500
N10880G01 Y-0.025 F1000
N10890G01 X61.418 Y-0.157
N10900G01 X61.399 Y-0.288
N10910G01 X61.366 Y-0.416
N10920G01 X61.322 Y-0.541
N10930G01 X61.265 Y-0.661
N10940G01 X61.197 Y-0.775
N10950G01 X61.118 Y-0.881
N10960G01 X61.029 Y-0.979
N10970G01 X60.931 Y-1.068
N10980G01 X60.825 Y-1.147
N10990G01 X60.711 Y-1.215
N11000G01 X60.591 Y-1.272
N11010G01 X60.466 Y-1.316
N11020G01 X60.338 Y-1.349
N11030G01 X60.207 Y-1.368
N11040G01 X60.074 Y-1.374
N11050G01 X28.955
N11060G01 Z-15.9
N11070G01 X24.255
N11080G01 Z-16 F500
N11090G01 X-0.025 F1000
N11100G01 X-0.157 Y-1.368
N11110G01 X-0.288 Y-1.349
N11120G01 X-0.416 Y-1.316
N11130G01 X-0.541 Y-1.272
N11140G01 X-0.661 Y-1.215
N11150G01 X-0.775 Y-1.147
N11160G01 X-0.881 Y-1.068
N11170G01 X-0.979 Y-0.979
N11180G01 X-1.068 Y-0.881
N11190G01 X-1.147 Y-0.775
N11200G01 X-1.215 Y-0.661
N11210G01 X-1.272 Y-0.541
N11220G01 X-1.316 Y-0.416
N11230G01 X-1.349 Y-0.288
N11240G01 X-1.368 Y-0.157
N11250G01 X-1.374 Y-0.025
N11260G01 Z-16.4 F500
N11270G01 Y31.094 F1000
N11280G01 Z-15.9
N11290G01 Y35.794
N11300G01 Z-16.4 F500
N11310G01 Y60.074 F1000
N11320G01 X-1.368 Y60.207
N11330G01 X-1.349 Y60.338
N11340G01 X-1.316 Y60.466
N11350G01 X-1.272 Y60.591
N11360G01 X-1.215 Y60.711
N11370G01 X-1.147 Y60.825
N11380G01 X-1.068 Y60.931
N11390G01 X-0.979 Y61.029
N11400G01 X-0.881 Y61.118
N11410G01 X-0.775 Y61.197
N11420G01 X-0.661 Y61.265
N11430G01 X-0.541 Y61.322
N11440G01 X-0.416 Y61.366
N11450G01 X-0.288 Y61.399
N11460G01 X-0.157 Y61.418
N11470G01 X-0.024 Y61.425
N11480G01 X31.094 Y61.425
N11490G01 Z-15.9
N11500G01 X35.794
N11510G01 Z-16.4 F500
N11520G01 X60.074 Y61.425 F1000
N11530G01 X60.207 Y61.418
N11540G01 X60.338 Y61.399
N11550G01 X60.466 Y61.366
N11560G01 X60.591 Y61.322
N11570G01 X60.711 Y61.265
N11580G01 X60.825 Y61.197
N11590G01 X60.931 Y61.118
N11600G01 X61.029 Y61.029
N11610G01 X61.118 Y60.931
N11620G01 X61.197 Y60.825
N11630G01 X61.265 Y60.711
N11640G01 X61.322 Y60.591
N11650G01 X61.366 Y60.466
N11660G01 X61.399 Y60.338
N11670G01 X61.418 Y60.207
N11680G01 X61.425 Y60.074
N11690G01 Y28.955
N11700G01 Z-15.9
N11710G01 Y24.255
N11720G01 Z-16.4 F500
N11730G01 Y-0.025 F1000
N11740G01 X61.418 Y-0.157
N11750G01 X61.399 Y-0.288
N11760G01 X61.366 Y-0.416
N11770G01 X61.322 Y-0.541
N11780G01 X61.265 Y-0.661
N11790G01 X61.197 Y-0.775
N11800G01 X61.118 Y-0.881
N11810G01 X61.029 Y-0.979
N11820G01 X60.931 Y-1.068
N11830G01 X60.825 Y-1.147
N11840G01 X60.711 Y-1.215
N11850G01 X60.591 Y-1.272
N11860G01 X60.466 Y-1.316
N11870G01 X60.338 Y-1.349
N11880G01 X60.207 Y-1.368
N11890G01 X60.074 Y-1.374
N11900G01 X28.955
N11910G01 Z-15.9
N11920G01 X24.255
N11930G01 Z-16.4 F500
N11940G01 X-0.025 F1000
N11950G01 X-0.157 Y-1.368
N11960G01 X-0.288 Y-1.349
N11970G01 X-0.416 Y-1.316
N11980G01 X-0.541 Y-1.272
N11990G01 X-0.661 Y-1.215
N12000G01 X-0.775 Y-1.147
N12010G01 X-0.881 Y-1.068
N12020G01 X-0.979 Y-0.979
N12030G01 X-1.068 Y-0.881
N12040G01 X-1.147 Y-0.775
N12050G01 X-1.215 Y-0.661
N12060G01 X-1.272 Y-0.541
N12070G01 X-1.316 Y-0.416
N12080G01 X-1.349 Y-0.288
N12090G01 X-1.368 Y-0.157
N12100G01 X-1.374 Y-0.025
N12110 G00 Z9.999
N12120 M02
