(GCode created using the HeeksCNC Mach3 post processor)
(/home/user/git-repos/donation-box/designs/3D/blender/back panel/back-cutout-file.tap)
(G-code generated with BlenderCAM and NC library)
N10 G17 G21 G90
(Tool change)
N20G43H1
N30T1 M06
N40 G00 X0 Y0 Z9.999 S12000 M03
N50 G00 X-1.387 Y-0.037
N60G01 Z-1 F500
N70G01 X-1.38 Y506.494 F1000
N80G01 X-1.361 Y506.625
N90G01 X-1.329 Y506.754
N100G01 X-1.284 Y506.879
N110G01 X-1.228 Y506.998
N120G01 X-1.159 Y507.112
N130G01 X-1.081 Y507.218
N140G01 X-0.992 Y507.317
N150G01 X-0.893 Y507.406
N160G01 X-0.787 Y507.484
N170G01 X-0.673 Y507.553
N180G01 X-0.554 Y507.609
N190G01 X-0.429 Y507.654
N200G01 X-0.3 Y507.686
N210G01 X-0.169 Y507.705
N220G01 X-0.037 Y507.712
N230G01 X350.062
N240G01 X350.194 Y507.705
N250G01 X350.325 Y507.686
N260G01 X350.454 Y507.654
N270G01 X350.579 Y507.609
N280G01 X350.698 Y507.553
N290G01 X350.812 Y507.484
N300G01 X350.918 Y507.406
N310G01 X351.017 Y507.317
N320G01 X351.106 Y507.218
N330G01 X351.184 Y507.112
N340G01 X351.253 Y506.998
N350G01 X351.309 Y506.879
N360G01 X351.354 Y506.754
N370G01 X351.386 Y506.625
N380G01 X351.406 Y506.494
N390G01 X351.412 Y506.362
N400G01 X351.406 Y-0.169
N410G01 X351.386 Y-0.3
N420G01 X351.354 Y-0.429
N430G01 X351.309 Y-0.554
N440G01 X351.253 Y-0.673
N450G01 X351.184 Y-0.787
N460G01 X351.106 Y-0.893
N470G01 X351.017 Y-0.992
N480G01 X350.918 Y-1.081
N490G01 X350.812 Y-1.16
N500G01 X350.698 Y-1.228
N510G01 X350.579 Y-1.284
N520G01 X350.454 Y-1.329
N530G01 X350.325 Y-1.361
N540G01 X350.194 Y-1.381
N550G01 X350.062 Y-1.387
N560G01 X-0.037
N570G01 X-0.169 Y-1.381
N580G01 X-0.3 Y-1.361
N590G01 X-0.429 Y-1.329
N600G01 X-0.554 Y-1.284
N610G01 X-0.673 Y-1.228
N620G01 X-0.787 Y-1.16
N630G01 X-0.893 Y-1.081
N640G01 X-0.992 Y-0.992
N650G01 X-1.081 Y-0.893
N660G01 X-1.159 Y-0.787
N670G01 X-1.228 Y-0.673
N680G01 X-1.284 Y-0.554
N690G01 X-1.329 Y-0.429
N700G01 X-1.361 Y-0.3
N710G01 X-1.38 Y-0.169
N720G01 X-1.387 Y-0.037
N730G01 Z-2 F500
N740G01 X-1.38 Y506.494 F1000
N750G01 X-1.361 Y506.625
N760G01 X-1.329 Y506.754
N770G01 X-1.284 Y506.879
N780G01 X-1.228 Y506.998
N790G01 X-1.159 Y507.112
N800G01 X-1.081 Y507.218
N810G01 X-0.992 Y507.317
N820G01 X-0.893 Y507.406
N830G01 X-0.787 Y507.484
N840G01 X-0.673 Y507.553
N850G01 X-0.554 Y507.609
N860G01 X-0.429 Y507.654
N870G01 X-0.3 Y507.686
N880G01 X-0.169 Y507.705
N890G01 X-0.037 Y507.712
N900G01 X350.062
N910G01 X350.194 Y507.705
N920G01 X350.325 Y507.686
N930G01 X350.454 Y507.654
N940G01 X350.579 Y507.609
N950G01 X350.698 Y507.553
N960G01 X350.812 Y507.484
N970G01 X350.918 Y507.406
N980G01 X351.017 Y507.317
N990G01 X351.106 Y507.218
N1000G01 X351.184 Y507.112
N1010G01 X351.253 Y506.998
N1020G01 X351.309 Y506.879
N1030G01 X351.354 Y506.754
N1040G01 X351.386 Y506.625
N1050G01 X351.406 Y506.494
N1060G01 X351.412 Y506.362
N1070G01 X351.406 Y-0.169
N1080G01 X351.386 Y-0.3
N1090G01 X351.354 Y-0.429
N1100G01 X351.309 Y-0.554
N1110G01 X351.253 Y-0.673
N1120G01 X351.184 Y-0.787
N1130G01 X351.106 Y-0.893
N1140G01 X351.017 Y-0.992
N1150G01 X350.918 Y-1.081
N1160G01 X350.812 Y-1.16
N1170G01 X350.698 Y-1.228
N1180G01 X350.579 Y-1.284
N1190G01 X350.454 Y-1.329
N1200G01 X350.325 Y-1.361
N1210G01 X350.194 Y-1.381
N1220G01 X350.062 Y-1.387
N1230G01 X-0.037
N1240G01 X-0.169 Y-1.381
N1250G01 X-0.3 Y-1.361
N1260G01 X-0.429 Y-1.329
N1270G01 X-0.554 Y-1.284
N1280G01 X-0.673 Y-1.228
N1290G01 X-0.787 Y-1.16
N1300G01 X-0.893 Y-1.081
N1310G01 X-0.992 Y-0.992
N1320G01 X-1.081 Y-0.893
N1330G01 X-1.159 Y-0.787
N1340G01 X-1.228 Y-0.673
N1350G01 X-1.284 Y-0.554
N1360G01 X-1.329 Y-0.429
N1370G01 X-1.361 Y-0.3
N1380G01 X-1.38 Y-0.169
N1390G01 X-1.387 Y-0.037
N1400G01 Z-3 F500
N1410G01 X-1.38 Y506.494 F1000
N1420G01 X-1.361 Y506.625
N1430G01 X-1.329 Y506.754
N1440G01 X-1.284 Y506.879
N1450G01 X-1.228 Y506.998
N1460G01 X-1.159 Y507.112
N1470G01 X-1.081 Y507.218
N1480G01 X-0.992 Y507.317
N1490G01 X-0.893 Y507.406
N1500G01 X-0.787 Y507.484
N1510G01 X-0.673 Y507.553
N1520G01 X-0.554 Y507.609
N1530G01 X-0.429 Y507.654
N1540G01 X-0.3 Y507.686
N1550G01 X-0.169 Y507.705
N1560G01 X-0.037 Y507.712
N1570G01 X350.062
N1580G01 X350.194 Y507.705
N1590G01 X350.325 Y507.686
N1600G01 X350.454 Y507.654
N1610G01 X350.579 Y507.609
N1620G01 X350.698 Y507.553
N1630G01 X350.812 Y507.484
N1640G01 X350.918 Y507.406
N1650G01 X351.017 Y507.317
N1660G01 X351.106 Y507.218
N1670G01 X351.184 Y507.112
N1680G01 X351.253 Y506.998
N1690G01 X351.309 Y506.879
N1700G01 X351.354 Y506.754
N1710G01 X351.386 Y506.625
N1720G01 X351.406 Y506.494
N1730G01 X351.412 Y506.362
N1740G01 X351.406 Y-0.169
N1750G01 X351.386 Y-0.3
N1760G01 X351.354 Y-0.429
N1770G01 X351.309 Y-0.554
N1780G01 X351.253 Y-0.673
N1790G01 X351.184 Y-0.787
N1800G01 X351.106 Y-0.893
N1810G01 X351.017 Y-0.992
N1820G01 X350.918 Y-1.081
N1830G01 X350.812 Y-1.16
N1840G01 X350.698 Y-1.228
N1850G01 X350.579 Y-1.284
N1860G01 X350.454 Y-1.329
N1870G01 X350.325 Y-1.361
N1880G01 X350.194 Y-1.381
N1890G01 X350.062 Y-1.387
N1900G01 X-0.037
N1910G01 X-0.169 Y-1.381
N1920G01 X-0.3 Y-1.361
N1930G01 X-0.429 Y-1.329
N1940G01 X-0.554 Y-1.284
N1950G01 X-0.673 Y-1.228
N1960G01 X-0.787 Y-1.16
N1970G01 X-0.893 Y-1.081
N1980G01 X-0.992 Y-0.992
N1990G01 X-1.081 Y-0.893
N2000G01 X-1.159 Y-0.787
N2010G01 X-1.228 Y-0.673
N2020G01 X-1.284 Y-0.554
N2030G01 X-1.329 Y-0.429
N2040G01 X-1.361 Y-0.3
N2050G01 X-1.38 Y-0.169
N2060G01 X-1.387 Y-0.037
N2070G01 Z-4 F500
N2080G01 X-1.38 Y506.494 F1000
N2090G01 X-1.361 Y506.625
N2100G01 X-1.329 Y506.754
N2110G01 X-1.284 Y506.879
N2120G01 X-1.228 Y506.998
N2130G01 X-1.159 Y507.112
N2140G01 X-1.081 Y507.218
N2150G01 X-0.992 Y507.317
N2160G01 X-0.893 Y507.406
N2170G01 X-0.787 Y507.484
N2180G01 X-0.673 Y507.553
N2190G01 X-0.554 Y507.609
N2200G01 X-0.429 Y507.654
N2210G01 X-0.3 Y507.686
N2220G01 X-0.169 Y507.705
N2230G01 X-0.037 Y507.712
N2240G01 X350.062
N2250G01 X350.194 Y507.705
N2260G01 X350.325 Y507.686
N2270G01 X350.454 Y507.654
N2280G01 X350.579 Y507.609
N2290G01 X350.698 Y507.553
N2300G01 X350.812 Y507.484
N2310G01 X350.918 Y507.406
N2320G01 X351.017 Y507.317
N2330G01 X351.106 Y507.218
N2340G01 X351.184 Y507.112
N2350G01 X351.253 Y506.998
N2360G01 X351.309 Y506.879
N2370G01 X351.354 Y506.754
N2380G01 X351.386 Y506.625
N2390G01 X351.406 Y506.494
N2400G01 X351.412 Y506.362
N2410G01 X351.406 Y-0.169
N2420G01 X351.386 Y-0.3
N2430G01 X351.354 Y-0.429
N2440G01 X351.309 Y-0.554
N2450G01 X351.253 Y-0.673
N2460G01 X351.184 Y-0.787
N2470G01 X351.106 Y-0.893
N2480G01 X351.017 Y-0.992
N2490G01 X350.918 Y-1.081
N2500G01 X350.812 Y-1.16
N2510G01 X350.698 Y-1.228
N2520G01 X350.579 Y-1.284
N2530G01 X350.454 Y-1.329
N2540G01 X350.325 Y-1.361
N2550G01 X350.194 Y-1.381
N2560G01 X350.062 Y-1.387
N2570G01 X-0.037
N2580G01 X-0.169 Y-1.381
N2590G01 X-0.3 Y-1.361
N2600G01 X-0.429 Y-1.329
N2610G01 X-0.554 Y-1.284
N2620G01 X-0.673 Y-1.228
N2630G01 X-0.787 Y-1.16
N2640G01 X-0.893 Y-1.081
N2650G01 X-0.992 Y-0.992
N2660G01 X-1.081 Y-0.893
N2670G01 X-1.159 Y-0.787
N2680G01 X-1.228 Y-0.673
N2690G01 X-1.284 Y-0.554
N2700G01 X-1.329 Y-0.429
N2710G01 X-1.361 Y-0.3
N2720G01 X-1.38 Y-0.169
N2730G01 X-1.387 Y-0.037
N2740G01 Z-5 F500
N2750G01 X-1.38 Y506.494 F1000
N2760G01 X-1.361 Y506.625
N2770G01 X-1.329 Y506.754
N2780G01 X-1.284 Y506.879
N2790G01 X-1.228 Y506.998
N2800G01 X-1.159 Y507.112
N2810G01 X-1.081 Y507.218
N2820G01 X-0.992 Y507.317
N2830G01 X-0.893 Y507.406
N2840G01 X-0.787 Y507.484
N2850G01 X-0.673 Y507.553
N2860G01 X-0.554 Y507.609
N2870G01 X-0.429 Y507.654
N2880G01 X-0.3 Y507.686
N2890G01 X-0.169 Y507.705
N2900G01 X-0.037 Y507.712
N2910G01 X350.062
N2920G01 X350.194 Y507.705
N2930G01 X350.325 Y507.686
N2940G01 X350.454 Y507.654
N2950G01 X350.579 Y507.609
N2960G01 X350.698 Y507.553
N2970G01 X350.812 Y507.484
N2980G01 X350.918 Y507.406
N2990G01 X351.017 Y507.317
N3000G01 X351.106 Y507.218
N3010G01 X351.184 Y507.112
N3020G01 X351.253 Y506.998
N3030G01 X351.309 Y506.879
N3040G01 X351.354 Y506.754
N3050G01 X351.386 Y506.625
N3060G01 X351.406 Y506.494
N3070G01 X351.412 Y506.362
N3080G01 X351.406 Y-0.169
N3090G01 X351.386 Y-0.3
N3100G01 X351.354 Y-0.429
N3110G01 X351.309 Y-0.554
N3120G01 X351.253 Y-0.673
N3130G01 X351.184 Y-0.787
N3140G01 X351.106 Y-0.893
N3150G01 X351.017 Y-0.992
N3160G01 X350.918 Y-1.081
N3170G01 X350.812 Y-1.16
N3180G01 X350.698 Y-1.228
N3190G01 X350.579 Y-1.284
N3200G01 X350.454 Y-1.329
N3210G01 X350.325 Y-1.361
N3220G01 X350.194 Y-1.381
N3230G01 X350.062 Y-1.387
N3240G01 X-0.037
N3250G01 X-0.169 Y-1.381
N3260G01 X-0.3 Y-1.361
N3270G01 X-0.429 Y-1.329
N3280G01 X-0.554 Y-1.284
N3290G01 X-0.673 Y-1.228
N3300G01 X-0.787 Y-1.16
N3310G01 X-0.893 Y-1.081
N3320G01 X-0.992 Y-0.992
N3330G01 X-1.081 Y-0.893
N3340G01 X-1.159 Y-0.787
N3350G01 X-1.228 Y-0.673
N3360G01 X-1.284 Y-0.554
N3370G01 X-1.329 Y-0.429
N3380G01 X-1.361 Y-0.3
N3390G01 X-1.38 Y-0.169
N3400G01 X-1.387 Y-0.037
N3410G01 Z-6 F500
N3420G01 X-1.38 Y506.494 F1000
N3430G01 X-1.361 Y506.625
N3440G01 X-1.329 Y506.754
N3450G01 X-1.284 Y506.879
N3460G01 X-1.228 Y506.998
N3470G01 X-1.159 Y507.112
N3480G01 X-1.081 Y507.218
N3490G01 X-0.992 Y507.317
N3500G01 X-0.893 Y507.406
N3510G01 X-0.787 Y507.484
N3520G01 X-0.673 Y507.553
N3530G01 X-0.554 Y507.609
N3540G01 X-0.429 Y507.654
N3550G01 X-0.3 Y507.686
N3560G01 X-0.169 Y507.705
N3570G01 X-0.037 Y507.712
N3580G01 X350.062
N3590G01 X350.194 Y507.705
N3600G01 X350.325 Y507.686
N3610G01 X350.454 Y507.654
N3620G01 X350.579 Y507.609
N3630G01 X350.698 Y507.553
N3640G01 X350.812 Y507.484
N3650G01 X350.918 Y507.406
N3660G01 X351.017 Y507.317
N3670G01 X351.106 Y507.218
N3680G01 X351.184 Y507.112
N3690G01 X351.253 Y506.998
N3700G01 X351.309 Y506.879
N3710G01 X351.354 Y506.754
N3720G01 X351.386 Y506.625
N3730G01 X351.406 Y506.494
N3740G01 X351.412 Y506.362
N3750G01 X351.406 Y-0.169
N3760G01 X351.386 Y-0.3
N3770G01 X351.354 Y-0.429
N3780G01 X351.309 Y-0.554
N3790G01 X351.253 Y-0.673
N3800G01 X351.184 Y-0.787
N3810G01 X351.106 Y-0.893
N3820G01 X351.017 Y-0.992
N3830G01 X350.918 Y-1.081
N3840G01 X350.812 Y-1.16
N3850G01 X350.698 Y-1.228
N3860G01 X350.579 Y-1.284
N3870G01 X350.454 Y-1.329
N3880G01 X350.325 Y-1.361
N3890G01 X350.194 Y-1.381
N3900G01 X350.062 Y-1.387
N3910G01 X-0.037
N3920G01 X-0.169 Y-1.381
N3930G01 X-0.3 Y-1.361
N3940G01 X-0.429 Y-1.329
N3950G01 X-0.554 Y-1.284
N3960G01 X-0.673 Y-1.228
N3970G01 X-0.787 Y-1.16
N3980G01 X-0.893 Y-1.081
N3990G01 X-0.992 Y-0.992
N4000G01 X-1.081 Y-0.893
N4010G01 X-1.159 Y-0.787
N4020G01 X-1.228 Y-0.673
N4030G01 X-1.284 Y-0.554
N4040G01 X-1.329 Y-0.429
N4050G01 X-1.361 Y-0.3
N4060G01 X-1.38 Y-0.169
N4070G01 X-1.387 Y-0.037
N4080G01 Z-7 F500
N4090G01 X-1.38 Y506.494 F1000
N4100G01 X-1.361 Y506.625
N4110G01 X-1.329 Y506.754
N4120G01 X-1.284 Y506.879
N4130G01 X-1.228 Y506.998
N4140G01 X-1.159 Y507.112
N4150G01 X-1.081 Y507.218
N4160G01 X-0.992 Y507.317
N4170G01 X-0.893 Y507.406
N4180G01 X-0.787 Y507.484
N4190G01 X-0.673 Y507.553
N4200G01 X-0.554 Y507.609
N4210G01 X-0.429 Y507.654
N4220G01 X-0.3 Y507.686
N4230G01 X-0.169 Y507.705
N4240G01 X-0.037 Y507.712
N4250G01 X350.062
N4260G01 X350.194 Y507.705
N4270G01 X350.325 Y507.686
N4280G01 X350.454 Y507.654
N4290G01 X350.579 Y507.609
N4300G01 X350.698 Y507.553
N4310G01 X350.812 Y507.484
N4320G01 X350.918 Y507.406
N4330G01 X351.017 Y507.317
N4340G01 X351.106 Y507.218
N4350G01 X351.184 Y507.112
N4360G01 X351.253 Y506.998
N4370G01 X351.309 Y506.879
N4380G01 X351.354 Y506.754
N4390G01 X351.386 Y506.625
N4400G01 X351.406 Y506.494
N4410G01 X351.412 Y506.362
N4420G01 X351.406 Y-0.169
N4430G01 X351.386 Y-0.3
N4440G01 X351.354 Y-0.429
N4450G01 X351.309 Y-0.554
N4460G01 X351.253 Y-0.673
N4470G01 X351.184 Y-0.787
N4480G01 X351.106 Y-0.893
N4490G01 X351.017 Y-0.992
N4500G01 X350.918 Y-1.081
N4510G01 X350.812 Y-1.16
N4520G01 X350.698 Y-1.228
N4530G01 X350.579 Y-1.284
N4540G01 X350.454 Y-1.329
N4550G01 X350.325 Y-1.361
N4560G01 X350.194 Y-1.381
N4570G01 X350.062 Y-1.387
N4580G01 X-0.037
N4590G01 X-0.169 Y-1.381
N4600G01 X-0.3 Y-1.361
N4610G01 X-0.429 Y-1.329
N4620G01 X-0.554 Y-1.284
N4630G01 X-0.673 Y-1.228
N4640G01 X-0.787 Y-1.16
N4650G01 X-0.893 Y-1.081
N4660G01 X-0.992 Y-0.992
N4670G01 X-1.081 Y-0.893
N4680G01 X-1.159 Y-0.787
N4690G01 X-1.228 Y-0.673
N4700G01 X-1.284 Y-0.554
N4710G01 X-1.329 Y-0.429
N4720G01 X-1.361 Y-0.3
N4730G01 X-1.38 Y-0.169
N4740G01 X-1.387 Y-0.037
N4750G01 Z-8 F500
N4760G01 X-1.386 Y78.221 F1000
N4770G01 Z-7.5
N4780G01 X-1.386 Y83.921
N4790G01 Z-8 F500
N4800G01 X-1.384 Y234.719 F1000
N4810G01 Z-7.5
N4820G01 X-1.384 Y240.419
N4830G01 Z-8 F500
N4840G01 X-1.382 Y391.217 F1000
N4850G01 Z-7.5
N4860G01 X-1.382 Y396.917
N4870G01 Z-8 F500
N4880G01 X-1.38 Y506.494 F1000
N4890G01 X-1.361 Y506.625
N4900G01 X-1.329 Y506.754
N4910G01 X-1.284 Y506.879
N4920G01 X-1.228 Y506.998
N4930G01 X-1.159 Y507.112
N4940G01 X-1.081 Y507.218
N4950G01 X-0.992 Y507.317
N4960G01 X-0.893 Y507.406
N4970G01 X-0.787 Y507.484
N4980G01 X-0.673 Y507.553
N4990G01 X-0.554 Y507.609
N5000G01 X-0.429 Y507.654
N5010G01 X-0.3 Y507.686
N5020G01 X-0.169 Y507.705
N5030G01 X-0.037 Y507.712
N5040G01 X39.196
N5050G01 Z-7.5
N5060G01 X44.896
N5070G01 Z-8 F500
N5080G01 X195.694 F1000
N5090G01 Z-7.5
N5100G01 X201.394
N5110G01 Z-8 F500
N5120G01 X350.062 F1000
N5130G01 X350.194 Y507.705
N5140G01 X350.325 Y507.686
N5150G01 X350.454 Y507.654
N5160G01 X350.579 Y507.609
N5170G01 X350.698 Y507.553
N5180G01 X350.812 Y507.484
N5190G01 X350.918 Y507.406
N5200G01 X351.017 Y507.317
N5210G01 X351.106 Y507.218
N5220G01 X351.184 Y507.112
N5230G01 X351.253 Y506.998
N5240G01 X351.309 Y506.879
N5250G01 X351.354 Y506.754
N5260G01 X351.386 Y506.625
N5270G01 X351.406 Y506.494
N5280G01 X351.412 Y506.352
N5290G01 Z-7.5
N5300G01 X351.412 Y500.652
N5310G01 Z-8 F500
N5320G01 X351.41 Y349.854 F1000
N5330G01 Z-7.5
N5340G01 X351.41 Y344.154
N5350G01 Z-8 F500
N5360G01 X351.408 Y193.356 F1000
N5370G01 Z-7.5
N5380G01 X351.408 Y187.656
N5390G01 Z-8 F500
N5400G01 X351.406 Y36.858 F1000
N5410G01 Z-7.5
N5420G01 X351.406 Y31.158
N5430G01 Z-8 F500
N5440G01 X351.406 Y-0.169 F1000
N5450G01 X351.386 Y-0.3
N5460G01 X351.354 Y-0.429
N5470G01 X351.309 Y-0.554
N5480G01 X351.253 Y-0.673
N5490G01 X351.184 Y-0.787
N5500G01 X351.106 Y-0.893
N5510G01 X351.017 Y-0.992
N5520G01 X350.918 Y-1.081
N5530G01 X350.812 Y-1.16
N5540G01 X350.698 Y-1.228
N5550G01 X350.579 Y-1.284
N5560G01 X350.454 Y-1.329
N5570G01 X350.325 Y-1.361
N5580G01 X350.194 Y-1.381
N5590G01 X350.062 Y-1.387
N5600G01 X232.579
N5610G01 Z-7.5
N5620G01 X226.879
N5630G01 Z-8 F500
N5640G01 X76.081 F1000
N5650G01 Z-7.5
N5660G01 X70.381
N5670G01 Z-8 F500
N5680G01 X-0.037 F1000
N5690G01 X-0.169 Y-1.381
N5700G01 X-0.3 Y-1.361
N5710G01 X-0.429 Y-1.329
N5720G01 X-0.554 Y-1.284
N5730G01 X-0.673 Y-1.228
N5740G01 X-0.787 Y-1.16
N5750G01 X-0.893 Y-1.081
N5760G01 X-0.992 Y-0.992
N5770G01 X-1.081 Y-0.893
N5780G01 X-1.159 Y-0.787
N5790G01 X-1.228 Y-0.673
N5800G01 X-1.284 Y-0.554
N5810G01 X-1.329 Y-0.429
N5820G01 X-1.361 Y-0.3
N5830G01 X-1.38 Y-0.169
N5840G01 X-1.387 Y-0.037
N5850G01 Z-8.5 F500
N5860G01 X-1.386 Y78.221 F1000
N5870G01 Z-7.5
N5880G01 X-1.386 Y83.921
N5890G01 Z-8.5 F500
N5900G01 X-1.384 Y234.719 F1000
N5910G01 Z-7.5
N5920G01 X-1.384 Y240.419
N5930G01 Z-8.5 F500
N5940G01 X-1.382 Y391.217 F1000
N5950G01 Z-7.5
N5960G01 X-1.382 Y396.917
N5970G01 Z-8.5 F500
N5980G01 X-1.38 Y506.494 F1000
N5990G01 X-1.361 Y506.625
N6000G01 X-1.329 Y506.754
N6010G01 X-1.284 Y506.879
N6020G01 X-1.228 Y506.998
N6030G01 X-1.159 Y507.112
N6040G01 X-1.081 Y507.218
N6050G01 X-0.992 Y507.317
N6060G01 X-0.893 Y507.406
N6070G01 X-0.787 Y507.484
N6080G01 X-0.673 Y507.553
N6090G01 X-0.554 Y507.609
N6100G01 X-0.429 Y507.654
N6110G01 X-0.3 Y507.686
N6120G01 X-0.169 Y507.705
N6130G01 X-0.037 Y507.712
N6140G01 X39.196
N6150G01 Z-7.5
N6160G01 X44.896
N6170G01 Z-8.5 F500
N6180G01 X195.694 F1000
N6190G01 Z-7.5
N6200G01 X201.394
N6210G01 Z-8.5 F500
N6220G01 X350.062 F1000
N6230G01 X350.194 Y507.705
N6240G01 X350.325 Y507.686
N6250G01 X350.454 Y507.654
N6260G01 X350.579 Y507.609
N6270G01 X350.698 Y507.553
N6280G01 X350.812 Y507.484
N6290G01 X350.918 Y507.406
N6300G01 X351.017 Y507.317
N6310G01 X351.106 Y507.218
N6320G01 X351.184 Y507.112
N6330G01 X351.253 Y506.998
N6340G01 X351.309 Y506.879
N6350G01 X351.354 Y506.754
N6360G01 X351.386 Y506.625
N6370G01 X351.406 Y506.494
N6380G01 X351.412 Y506.352
N6390G01 Z-7.5
N6400G01 X351.412 Y500.652
N6410G01 Z-8.5 F500
N6420G01 X351.41 Y349.854 F1000
N6430G01 Z-7.5
N6440G01 X351.41 Y344.154
N6450G01 Z-8.5 F500
N6460G01 X351.408 Y193.356 F1000
N6470G01 Z-7.5
N6480G01 X351.408 Y187.656
N6490G01 Z-8.5 F500
N6500G01 X351.406 Y36.858 F1000
N6510G01 Z-7.5
N6520G01 X351.406 Y31.158
N6530G01 Z-8.5 F500
N6540G01 X351.406 Y-0.169 F1000
N6550G01 X351.386 Y-0.3
N6560G01 X351.354 Y-0.429
N6570G01 X351.309 Y-0.554
N6580G01 X351.253 Y-0.673
N6590G01 X351.184 Y-0.787
N6600G01 X351.106 Y-0.893
N6610G01 X351.017 Y-0.992
N6620G01 X350.918 Y-1.081
N6630G01 X350.812 Y-1.16
N6640G01 X350.698 Y-1.228
N6650G01 X350.579 Y-1.284
N6660G01 X350.454 Y-1.329
N6670G01 X350.325 Y-1.361
N6680G01 X350.194 Y-1.381
N6690G01 X350.062 Y-1.387
N6700G01 X232.579
N6710G01 Z-7.5
N6720G01 X226.879
N6730G01 Z-8.5 F500
N6740G01 X76.081 F1000
N6750G01 Z-7.5
N6760G01 X70.381
N6770G01 Z-8.5 F500
N6780G01 X-0.037 F1000
N6790G01 X-0.169 Y-1.381
N6800G01 X-0.3 Y-1.361
N6810G01 X-0.429 Y-1.329
N6820G01 X-0.554 Y-1.284
N6830G01 X-0.673 Y-1.228
N6840G01 X-0.787 Y-1.16
N6850G01 X-0.893 Y-1.081
N6860G01 X-0.992 Y-0.992
N6870G01 X-1.081 Y-0.893
N6880G01 X-1.159 Y-0.787
N6890G01 X-1.228 Y-0.673
N6900G01 X-1.284 Y-0.554
N6910G01 X-1.329 Y-0.429
N6920G01 X-1.361 Y-0.3
N6930G01 X-1.38 Y-0.169
N6940G01 X-1.387 Y-0.037
N6950 G00 Z9.999
N6960 M02
