(GCode created using the HeeksCNC Mach3 post processor)
(/home/user/git-repos/donation-box/designs/3D/blender/back panel/back-cutout-file.tap)
(G-code generated with BlenderCAM and NC library)
N10 G17 G21 G90
(Tool change)
N20G43H1
N30T1 M06
N40 G00 X0 Y0 Z9.999 S12000 M03
N50 G00 X-1.537 Y-0.037
N60G01 Z-1 F500
N70G01 X-1.508 Y506.655 F1000
N80G01 X-1.472 Y506.797
N90G01 X-1.423 Y506.936
N100G01 X-1.36 Y507.069
N110G01 X-1.284 Y507.195
N120G01 X-1.197 Y507.314
N130G01 X-1.098 Y507.423
N140G01 X-0.989 Y507.521
N150G01 X-0.87 Y507.609
N160G01 X-0.744 Y507.685
N170G01 X-0.611 Y507.748
N180G01 X-0.472 Y507.797
N190G01 X-0.33 Y507.833
N200G01 X-0.184 Y507.855
N210G01 X-0.037 Y507.862
N220G01 X350.062
N230G01 X350.209 Y507.855
N240G01 X350.355 Y507.833
N250G01 X350.497 Y507.797
N260G01 X350.636 Y507.748
N270G01 X350.769 Y507.685
N280G01 X350.895 Y507.609
N290G01 X351.014 Y507.521
N300G01 X351.123 Y507.423
N310G01 X351.222 Y507.314
N320G01 X351.309 Y507.195
N330G01 X351.385 Y507.069
N340G01 X351.448 Y506.936
N350G01 X351.497 Y506.797
N360G01 X351.533 Y506.655
N370G01 X351.555 Y506.509
N380G01 X351.562 Y506.362
N390G01 X351.533 Y-0.33
N400G01 X351.497 Y-0.472
N410G01 X351.448 Y-0.611
N420G01 X351.385 Y-0.744
N430G01 X351.309 Y-0.87
N440G01 X351.222 Y-0.989
N450G01 X351.123 Y-1.098
N460G01 X351.014 Y-1.197
N470G01 X350.895 Y-1.284
N480G01 X350.769 Y-1.36
N490G01 X350.636 Y-1.423
N500G01 X350.497 Y-1.472
N510G01 X350.355 Y-1.508
N520G01 X350.209 Y-1.53
N530G01 X350.062 Y-1.537
N540G01 X-0.184 Y-1.53
N550G01 X-0.33 Y-1.508
N560G01 X-0.472 Y-1.472
N570G01 X-0.611 Y-1.423
N580G01 X-0.744 Y-1.36
N590G01 X-0.87 Y-1.284
N600G01 X-0.989 Y-1.197
N610G01 X-1.098 Y-1.098
N620G01 X-1.197 Y-0.989
N630G01 X-1.284 Y-0.87
N640G01 X-1.36 Y-0.744
N650G01 X-1.423 Y-0.611
N660G01 X-1.472 Y-0.472
N670G01 X-1.508 Y-0.33
N680G01 X-1.53 Y-0.184
N690G01 X-1.537 Y-0.037
N700G01 Z-2 F500
N710G01 X-1.508 Y506.655 F1000
N720G01 X-1.472 Y506.797
N730G01 X-1.423 Y506.936
N740G01 X-1.36 Y507.069
N750G01 X-1.284 Y507.195
N760G01 X-1.197 Y507.314
N770G01 X-1.098 Y507.423
N780G01 X-0.989 Y507.521
N790G01 X-0.87 Y507.609
N800G01 X-0.744 Y507.685
N810G01 X-0.611 Y507.748
N820G01 X-0.472 Y507.797
N830G01 X-0.33 Y507.833
N840G01 X-0.184 Y507.855
N850G01 X-0.037 Y507.862
N860G01 X350.062
N870G01 X350.209 Y507.855
N880G01 X350.355 Y507.833
N890G01 X350.497 Y507.797
N900G01 X350.636 Y507.748
N910G01 X350.769 Y507.685
N920G01 X350.895 Y507.609
N930G01 X351.014 Y507.521
N940G01 X351.123 Y507.423
N950G01 X351.222 Y507.314
N960G01 X351.309 Y507.195
N970G01 X351.385 Y507.069
N980G01 X351.448 Y506.936
N990G01 X351.497 Y506.797
N1000G01 X351.533 Y506.655
N1010G01 X351.555 Y506.509
N1020G01 X351.562 Y506.362
N1030G01 X351.533 Y-0.33
N1040G01 X351.497 Y-0.472
N1050G01 X351.448 Y-0.611
N1060G01 X351.385 Y-0.744
N1070G01 X351.309 Y-0.87
N1080G01 X351.222 Y-0.989
N1090G01 X351.123 Y-1.098
N1100G01 X351.014 Y-1.197
N1110G01 X350.895 Y-1.284
N1120G01 X350.769 Y-1.36
N1130G01 X350.636 Y-1.423
N1140G01 X350.497 Y-1.472
N1150G01 X350.355 Y-1.508
N1160G01 X350.209 Y-1.53
N1170G01 X350.062 Y-1.537
N1180G01 X-0.184 Y-1.53
N1190G01 X-0.33 Y-1.508
N1200G01 X-0.472 Y-1.472
N1210G01 X-0.611 Y-1.423
N1220G01 X-0.744 Y-1.36
N1230G01 X-0.87 Y-1.284
N1240G01 X-0.989 Y-1.197
N1250G01 X-1.098 Y-1.098
N1260G01 X-1.197 Y-0.989
N1270G01 X-1.284 Y-0.87
N1280G01 X-1.36 Y-0.744
N1290G01 X-1.423 Y-0.611
N1300G01 X-1.472 Y-0.472
N1310G01 X-1.508 Y-0.33
N1320G01 X-1.53 Y-0.184
N1330G01 X-1.537 Y-0.037
N1340G01 Z-3 F500
N1350G01 X-1.508 Y506.655 F1000
N1360G01 X-1.472 Y506.797
N1370G01 X-1.423 Y506.936
N1380G01 X-1.36 Y507.069
N1390G01 X-1.284 Y507.195
N1400G01 X-1.197 Y507.314
N1410G01 X-1.098 Y507.423
N1420G01 X-0.989 Y507.521
N1430G01 X-0.87 Y507.609
N1440G01 X-0.744 Y507.685
N1450G01 X-0.611 Y507.748
N1460G01 X-0.472 Y507.797
N1470G01 X-0.33 Y507.833
N1480G01 X-0.184 Y507.855
N1490G01 X-0.037 Y507.862
N1500G01 X350.062
N1510G01 X350.209 Y507.855
N1520G01 X350.355 Y507.833
N1530G01 X350.497 Y507.797
N1540G01 X350.636 Y507.748
N1550G01 X350.769 Y507.685
N1560G01 X350.895 Y507.609
N1570G01 X351.014 Y507.521
N1580G01 X351.123 Y507.423
N1590G01 X351.222 Y507.314
N1600G01 X351.309 Y507.195
N1610G01 X351.385 Y507.069
N1620G01 X351.448 Y506.936
N1630G01 X351.497 Y506.797
N1640G01 X351.533 Y506.655
N1650G01 X351.555 Y506.509
N1660G01 X351.562 Y506.362
N1670G01 X351.533 Y-0.33
N1680G01 X351.497 Y-0.472
N1690G01 X351.448 Y-0.611
N1700G01 X351.385 Y-0.744
N1710G01 X351.309 Y-0.87
N1720G01 X351.222 Y-0.989
N1730G01 X351.123 Y-1.098
N1740G01 X351.014 Y-1.197
N1750G01 X350.895 Y-1.284
N1760G01 X350.769 Y-1.36
N1770G01 X350.636 Y-1.423
N1780G01 X350.497 Y-1.472
N1790G01 X350.355 Y-1.508
N1800G01 X350.209 Y-1.53
N1810G01 X350.062 Y-1.537
N1820G01 X-0.184 Y-1.53
N1830G01 X-0.33 Y-1.508
N1840G01 X-0.472 Y-1.472
N1850G01 X-0.611 Y-1.423
N1860G01 X-0.744 Y-1.36
N1870G01 X-0.87 Y-1.284
N1880G01 X-0.989 Y-1.197
N1890G01 X-1.098 Y-1.098
N1900G01 X-1.197 Y-0.989
N1910G01 X-1.284 Y-0.87
N1920G01 X-1.36 Y-0.744
N1930G01 X-1.423 Y-0.611
N1940G01 X-1.472 Y-0.472
N1950G01 X-1.508 Y-0.33
N1960G01 X-1.53 Y-0.184
N1970G01 X-1.537 Y-0.037
N1980G01 Z-4 F500
N1990G01 X-1.508 Y506.655 F1000
N2000G01 X-1.472 Y506.797
N2010G01 X-1.423 Y506.936
N2020G01 X-1.36 Y507.069
N2030G01 X-1.284 Y507.195
N2040G01 X-1.197 Y507.314
N2050G01 X-1.098 Y507.423
N2060G01 X-0.989 Y507.521
N2070G01 X-0.87 Y507.609
N2080G01 X-0.744 Y507.685
N2090G01 X-0.611 Y507.748
N2100G01 X-0.472 Y507.797
N2110G01 X-0.33 Y507.833
N2120G01 X-0.184 Y507.855
N2130G01 X-0.037 Y507.862
N2140G01 X350.062
N2150G01 X350.209 Y507.855
N2160G01 X350.355 Y507.833
N2170G01 X350.497 Y507.797
N2180G01 X350.636 Y507.748
N2190G01 X350.769 Y507.685
N2200G01 X350.895 Y507.609
N2210G01 X351.014 Y507.521
N2220G01 X351.123 Y507.423
N2230G01 X351.222 Y507.314
N2240G01 X351.309 Y507.195
N2250G01 X351.385 Y507.069
N2260G01 X351.448 Y506.936
N2270G01 X351.497 Y506.797
N2280G01 X351.533 Y506.655
N2290G01 X351.555 Y506.509
N2300G01 X351.562 Y506.362
N2310G01 X351.533 Y-0.33
N2320G01 X351.497 Y-0.472
N2330G01 X351.448 Y-0.611
N2340G01 X351.385 Y-0.744
N2350G01 X351.309 Y-0.87
N2360G01 X351.222 Y-0.989
N2370G01 X351.123 Y-1.098
N2380G01 X351.014 Y-1.197
N2390G01 X350.895 Y-1.284
N2400G01 X350.769 Y-1.36
N2410G01 X350.636 Y-1.423
N2420G01 X350.497 Y-1.472
N2430G01 X350.355 Y-1.508
N2440G01 X350.209 Y-1.53
N2450G01 X350.062 Y-1.537
N2460G01 X-0.184 Y-1.53
N2470G01 X-0.33 Y-1.508
N2480G01 X-0.472 Y-1.472
N2490G01 X-0.611 Y-1.423
N2500G01 X-0.744 Y-1.36
N2510G01 X-0.87 Y-1.284
N2520G01 X-0.989 Y-1.197
N2530G01 X-1.098 Y-1.098
N2540G01 X-1.197 Y-0.989
N2550G01 X-1.284 Y-0.87
N2560G01 X-1.36 Y-0.744
N2570G01 X-1.423 Y-0.611
N2580G01 X-1.472 Y-0.472
N2590G01 X-1.508 Y-0.33
N2600G01 X-1.53 Y-0.184
N2610G01 X-1.537 Y-0.037
N2620G01 Z-5 F500
N2630G01 X-1.508 Y506.655 F1000
N2640G01 X-1.472 Y506.797
N2650G01 X-1.423 Y506.936
N2660G01 X-1.36 Y507.069
N2670G01 X-1.284 Y507.195
N2680G01 X-1.197 Y507.314
N2690G01 X-1.098 Y507.423
N2700G01 X-0.989 Y507.521
N2710G01 X-0.87 Y507.609
N2720G01 X-0.744 Y507.685
N2730G01 X-0.611 Y507.748
N2740G01 X-0.472 Y507.797
N2750G01 X-0.33 Y507.833
N2760G01 X-0.184 Y507.855
N2770G01 X-0.037 Y507.862
N2780G01 X350.062
N2790G01 X350.209 Y507.855
N2800G01 X350.355 Y507.833
N2810G01 X350.497 Y507.797
N2820G01 X350.636 Y507.748
N2830G01 X350.769 Y507.685
N2840G01 X350.895 Y507.609
N2850G01 X351.014 Y507.521
N2860G01 X351.123 Y507.423
N2870G01 X351.222 Y507.314
N2880G01 X351.309 Y507.195
N2890G01 X351.385 Y507.069
N2900G01 X351.448 Y506.936
N2910G01 X351.497 Y506.797
N2920G01 X351.533 Y506.655
N2930G01 X351.555 Y506.509
N2940G01 X351.562 Y506.362
N2950G01 X351.533 Y-0.33
N2960G01 X351.497 Y-0.472
N2970G01 X351.448 Y-0.611
N2980G01 X351.385 Y-0.744
N2990G01 X351.309 Y-0.87
N3000G01 X351.222 Y-0.989
N3010G01 X351.123 Y-1.098
N3020G01 X351.014 Y-1.197
N3030G01 X350.895 Y-1.284
N3040G01 X350.769 Y-1.36
N3050G01 X350.636 Y-1.423
N3060G01 X350.497 Y-1.472
N3070G01 X350.355 Y-1.508
N3080G01 X350.209 Y-1.53
N3090G01 X350.062 Y-1.537
N3100G01 X-0.184 Y-1.53
N3110G01 X-0.33 Y-1.508
N3120G01 X-0.472 Y-1.472
N3130G01 X-0.611 Y-1.423
N3140G01 X-0.744 Y-1.36
N3150G01 X-0.87 Y-1.284
N3160G01 X-0.989 Y-1.197
N3170G01 X-1.098 Y-1.098
N3180G01 X-1.197 Y-0.989
N3190G01 X-1.284 Y-0.87
N3200G01 X-1.36 Y-0.744
N3210G01 X-1.423 Y-0.611
N3220G01 X-1.472 Y-0.472
N3230G01 X-1.508 Y-0.33
N3240G01 X-1.53 Y-0.184
N3250G01 X-1.537 Y-0.037
N3260G01 Z-6 F500
N3270G01 X-1.508 Y506.655 F1000
N3280G01 X-1.472 Y506.797
N3290G01 X-1.423 Y506.936
N3300G01 X-1.36 Y507.069
N3310G01 X-1.284 Y507.195
N3320G01 X-1.197 Y507.314
N3330G01 X-1.098 Y507.423
N3340G01 X-0.989 Y507.521
N3350G01 X-0.87 Y507.609
N3360G01 X-0.744 Y507.685
N3370G01 X-0.611 Y507.748
N3380G01 X-0.472 Y507.797
N3390G01 X-0.33 Y507.833
N3400G01 X-0.184 Y507.855
N3410G01 X-0.037 Y507.862
N3420G01 X350.062
N3430G01 X350.209 Y507.855
N3440G01 X350.355 Y507.833
N3450G01 X350.497 Y507.797
N3460G01 X350.636 Y507.748
N3470G01 X350.769 Y507.685
N3480G01 X350.895 Y507.609
N3490G01 X351.014 Y507.521
N3500G01 X351.123 Y507.423
N3510G01 X351.222 Y507.314
N3520G01 X351.309 Y507.195
N3530G01 X351.385 Y507.069
N3540G01 X351.448 Y506.936
N3550G01 X351.497 Y506.797
N3560G01 X351.533 Y506.655
N3570G01 X351.555 Y506.509
N3580G01 X351.562 Y506.362
N3590G01 X351.533 Y-0.33
N3600G01 X351.497 Y-0.472
N3610G01 X351.448 Y-0.611
N3620G01 X351.385 Y-0.744
N3630G01 X351.309 Y-0.87
N3640G01 X351.222 Y-0.989
N3650G01 X351.123 Y-1.098
N3660G01 X351.014 Y-1.197
N3670G01 X350.895 Y-1.284
N3680G01 X350.769 Y-1.36
N3690G01 X350.636 Y-1.423
N3700G01 X350.497 Y-1.472
N3710G01 X350.355 Y-1.508
N3720G01 X350.209 Y-1.53
N3730G01 X350.062 Y-1.537
N3740G01 X-0.184 Y-1.53
N3750G01 X-0.33 Y-1.508
N3760G01 X-0.472 Y-1.472
N3770G01 X-0.611 Y-1.423
N3780G01 X-0.744 Y-1.36
N3790G01 X-0.87 Y-1.284
N3800G01 X-0.989 Y-1.197
N3810G01 X-1.098 Y-1.098
N3820G01 X-1.197 Y-0.989
N3830G01 X-1.284 Y-0.87
N3840G01 X-1.36 Y-0.744
N3850G01 X-1.423 Y-0.611
N3860G01 X-1.472 Y-0.472
N3870G01 X-1.508 Y-0.33
N3880G01 X-1.53 Y-0.184
N3890G01 X-1.537 Y-0.037
N3900G01 Z-7 F500
N3910G01 X-1.508 Y506.655 F1000
N3920G01 X-1.472 Y506.797
N3930G01 X-1.423 Y506.936
N3940G01 X-1.36 Y507.069
N3950G01 X-1.284 Y507.195
N3960G01 X-1.197 Y507.314
N3970G01 X-1.098 Y507.423
N3980G01 X-0.989 Y507.521
N3990G01 X-0.87 Y507.609
N4000G01 X-0.744 Y507.685
N4010G01 X-0.611 Y507.748
N4020G01 X-0.472 Y507.797
N4030G01 X-0.33 Y507.833
N4040G01 X-0.184 Y507.855
N4050G01 X-0.037 Y507.862
N4060G01 X350.062
N4070G01 X350.209 Y507.855
N4080G01 X350.355 Y507.833
N4090G01 X350.497 Y507.797
N4100G01 X350.636 Y507.748
N4110G01 X350.769 Y507.685
N4120G01 X350.895 Y507.609
N4130G01 X351.014 Y507.521
N4140G01 X351.123 Y507.423
N4150G01 X351.222 Y507.314
N4160G01 X351.309 Y507.195
N4170G01 X351.385 Y507.069
N4180G01 X351.448 Y506.936
N4190G01 X351.497 Y506.797
N4200G01 X351.533 Y506.655
N4210G01 X351.555 Y506.509
N4220G01 X351.562 Y506.362
N4230G01 X351.533 Y-0.33
N4240G01 X351.497 Y-0.472
N4250G01 X351.448 Y-0.611
N4260G01 X351.385 Y-0.744
N4270G01 X351.309 Y-0.87
N4280G01 X351.222 Y-0.989
N4290G01 X351.123 Y-1.098
N4300G01 X351.014 Y-1.197
N4310G01 X350.895 Y-1.284
N4320G01 X350.769 Y-1.36
N4330G01 X350.636 Y-1.423
N4340G01 X350.497 Y-1.472
N4350G01 X350.355 Y-1.508
N4360G01 X350.209 Y-1.53
N4370G01 X350.062 Y-1.537
N4380G01 X-0.184 Y-1.53
N4390G01 X-0.33 Y-1.508
N4400G01 X-0.472 Y-1.472
N4410G01 X-0.611 Y-1.423
N4420G01 X-0.744 Y-1.36
N4430G01 X-0.87 Y-1.284
N4440G01 X-0.989 Y-1.197
N4450G01 X-1.098 Y-1.098
N4460G01 X-1.197 Y-0.989
N4470G01 X-1.284 Y-0.87
N4480G01 X-1.36 Y-0.744
N4490G01 X-1.423 Y-0.611
N4500G01 X-1.472 Y-0.472
N4510G01 X-1.508 Y-0.33
N4520G01 X-1.53 Y-0.184
N4530G01 X-1.537 Y-0.037
N4540G01 Z-8 F500
N4550G01 X-1.508 Y506.655 F1000
N4560G01 X-1.472 Y506.797
N4570G01 X-1.423 Y506.936
N4580G01 X-1.36 Y507.069
N4590G01 X-1.284 Y507.195
N4600G01 X-1.197 Y507.314
N4610G01 X-1.098 Y507.423
N4620G01 X-0.989 Y507.521
N4630G01 X-0.87 Y507.609
N4640G01 X-0.744 Y507.685
N4650G01 X-0.611 Y507.748
N4660G01 X-0.472 Y507.797
N4670G01 X-0.33 Y507.833
N4680G01 X-0.184 Y507.855
N4690G01 X-0.037 Y507.862
N4700G01 X350.062
N4710G01 X350.209 Y507.855
N4720G01 X350.355 Y507.833
N4730G01 X350.497 Y507.797
N4740G01 X350.636 Y507.748
N4750G01 X350.769 Y507.685
N4760G01 X350.895 Y507.609
N4770G01 X351.014 Y507.521
N4780G01 X351.123 Y507.423
N4790G01 X351.222 Y507.314
N4800G01 X351.309 Y507.195
N4810G01 X351.385 Y507.069
N4820G01 X351.448 Y506.936
N4830G01 X351.497 Y506.797
N4840G01 X351.533 Y506.655
N4850G01 X351.555 Y506.509
N4860G01 X351.562 Y506.362
N4870G01 X351.533 Y-0.33
N4880G01 X351.497 Y-0.472
N4890G01 X351.448 Y-0.611
N4900G01 X351.385 Y-0.744
N4910G01 X351.309 Y-0.87
N4920G01 X351.222 Y-0.989
N4930G01 X351.123 Y-1.098
N4940G01 X351.014 Y-1.197
N4950G01 X350.895 Y-1.284
N4960G01 X350.769 Y-1.36
N4970G01 X350.636 Y-1.423
N4980G01 X350.497 Y-1.472
N4990G01 X350.355 Y-1.508
N5000G01 X350.209 Y-1.53
N5010G01 X350.062 Y-1.537
N5020G01 X-0.184 Y-1.53
N5030G01 X-0.33 Y-1.508
N5040G01 X-0.472 Y-1.472
N5050G01 X-0.611 Y-1.423
N5060G01 X-0.744 Y-1.36
N5070G01 X-0.87 Y-1.284
N5080G01 X-0.989 Y-1.197
N5090G01 X-1.098 Y-1.098
N5100G01 X-1.197 Y-0.989
N5110G01 X-1.284 Y-0.87
N5120G01 X-1.36 Y-0.744
N5130G01 X-1.423 Y-0.611
N5140G01 X-1.472 Y-0.472
N5150G01 X-1.508 Y-0.33
N5160G01 X-1.53 Y-0.184
N5170G01 X-1.537 Y-0.037
N5180G01 Z-8.5 F500
N5190G01 X-1.508 Y506.655 F1000
N5200G01 X-1.472 Y506.797
N5210G01 X-1.423 Y506.936
N5220G01 X-1.36 Y507.069
N5230G01 X-1.284 Y507.195
N5240G01 X-1.197 Y507.314
N5250G01 X-1.098 Y507.423
N5260G01 X-0.989 Y507.521
N5270G01 X-0.87 Y507.609
N5280G01 X-0.744 Y507.685
N5290G01 X-0.611 Y507.748
N5300G01 X-0.472 Y507.797
N5310G01 X-0.33 Y507.833
N5320G01 X-0.184 Y507.855
N5330G01 X-0.037 Y507.862
N5340G01 X350.062
N5350G01 X350.209 Y507.855
N5360G01 X350.355 Y507.833
N5370G01 X350.497 Y507.797
N5380G01 X350.636 Y507.748
N5390G01 X350.769 Y507.685
N5400G01 X350.895 Y507.609
N5410G01 X351.014 Y507.521
N5420G01 X351.123 Y507.423
N5430G01 X351.222 Y507.314
N5440G01 X351.309 Y507.195
N5450G01 X351.385 Y507.069
N5460G01 X351.448 Y506.936
N5470G01 X351.497 Y506.797
N5480G01 X351.533 Y506.655
N5490G01 X351.555 Y506.509
N5500G01 X351.562 Y506.362
N5510G01 X351.533 Y-0.33
N5520G01 X351.497 Y-0.472
N5530G01 X351.448 Y-0.611
N5540G01 X351.385 Y-0.744
N5550G01 X351.309 Y-0.87
N5560G01 X351.222 Y-0.989
N5570G01 X351.123 Y-1.098
N5580G01 X351.014 Y-1.197
N5590G01 X350.895 Y-1.284
N5600G01 X350.769 Y-1.36
N5610G01 X350.636 Y-1.423
N5620G01 X350.497 Y-1.472
N5630G01 X350.355 Y-1.508
N5640G01 X350.209 Y-1.53
N5650G01 X350.062 Y-1.537
N5660G01 X-0.184 Y-1.53
N5670G01 X-0.33 Y-1.508
N5680G01 X-0.472 Y-1.472
N5690G01 X-0.611 Y-1.423
N5700G01 X-0.744 Y-1.36
N5710G01 X-0.87 Y-1.284
N5720G01 X-0.989 Y-1.197
N5730G01 X-1.098 Y-1.098
N5740G01 X-1.197 Y-0.989
N5750G01 X-1.284 Y-0.87
N5760G01 X-1.36 Y-0.744
N5770G01 X-1.423 Y-0.611
N5780G01 X-1.472 Y-0.472
N5790G01 X-1.508 Y-0.33
N5800G01 X-1.53 Y-0.184
N5810G01 X-1.537 Y-0.037
N5820 G00 Z9.999
N5830 M02
