(GCode created using the HeeksCNC Mach3 post processor)
(/home/user/git-repos/donation-box/designs/3D/blender/back panel/back-round-file.tap)
(G-code generated with BlenderCAM and NC library)
N10 G17 G21 G90
(Tool change)
N20G43H1
N30T1 M06
N40 G00 X0 Y0 Z9.999 S12000 M03
N50 G00 X348.411 Y2.179
N60G01 Z-1 F500
N70G01 X1.606 Y2.179 F1000
N80 G00 Z9.999
N90 G00 X348.411 Y3.179
N100G01 Z-1 F500
N110G01 X1.606 Y3.179 F1000
N120 G00 Z9.999
N130 G00 X348.411 Y4.18
N140G01 Z-1 F500
N150G01 X1.606 F1000
N160 G00 Z9.999
N170 G00 X348.411 Y5.18
N180G01 Z-1 F500
N190G01 X1.606 F1000
N200 G00 Z9.999
N210 G00 X348.411 Y6.18
N220G01 Z-1 F500
N230G01 X1.606 F1000
N240 G00 Z9.999
N250 G00 X348.411 Y7.18
N260G01 Z-1 F500
N270G01 X1.606 F1000
N280 G00 Z9.999
N290 G00 X348.411 Y8.18
N300G01 Z-1 F500
N310G01 X1.606 F1000
N320 G00 Z9.999
N330 G00 X348.411 Y9.18
N340G01 Z-0.844 F500
N350G01 X260.609 Z-0.844 F1000
N360G01 X260.409 Z-0.863
N370G01 X260.209 Z-0.844
N380G01 X1.606 Z-0.843
N390 G00 Z9.999
N400 G00 X348.411 Y10.18
N410G01 Z-0.565 F500
N420G01 X343.011 Z-0.565 F1000
N430G01 X342.811 Z-0.57
N440G01 X342.611 Z-0.565
N450G01 X329.41 Z-0.565
N460G01 X329.21 Z-0.568
N470G01 X329.01 Z-0.565
N480G01 X325.01 Z-0.565
N490G01 X324.81 Z-0.568
N500G01 X324.61 Z-0.565
N510G01 X321.21 Z-0.565
N520G01 X321.01 Z-0.567
N530G01 X320.81 Z-0.565
N540G01 X319.61 Z-0.565
N550G01 X319.41 Z-0.566
N560G01 X318.81 Z-0.565
N570G01 X318.61 Z-0.566
N580G01 X291.61 Z-0.565
N590G01 X291.41 Z-0.57
N600G01 X291.21 Z-0.565
N610G01 X220.609 Z-0.564
N620G01 X220.409 Z-0.573
N630G01 X220.209 Z-0.565
N640G01 X180.008 Z-0.564
N650G01 X179.808 Z-0.565
N660G01 X97.406 Z-0.564
N670G01 X97.206 Z-0.569
N680G01 X97.006 Z-0.564
N690G01 X1.606 Z-0.564
N700 G00 Z9.999
N710 G00 X348.411 Y11.18
N720G01 Z-0.356 F500
N730G01 X153.007 Z-0.355 F1000
N740G01 X152.807 Z-0.367
N750G01 X152.607 Z-0.355
N760G01 X121.207 Z-0.355
N770G01 X121.007 Z-0.361
N780G01 X120.807 Z-0.355
N790G01 X117.207 Z-0.355
N800G01 X117.007 Z-0.36
N810G01 X116.807 Z-0.355
N820G01 X101.007 Z-0.355
N830G01 X100.807 Z-0.358
N840G01 X100.607 Z-0.355
N850G01 X1.606 Z-0.355
N860 G00 Z9.999
N870 G00 X348.411 Y12.18
N880G01 Z-0.197 F500
N890G01 X347.211 Z-0.197 F1000
N900G01 X347.011 Z-0.21
N910G01 X346.811 Z-0.197
N920G01 X345.411 Z-0.197
N930G01 X345.211 Z-0.209
N940G01 X345.011 Z-0.197
N950G01 X341.611 Z-0.197
N960G01 X341.411 Z-0.21
N970G01 X341.211 Z-0.197
N980G01 X337.411 Z-0.197
N990G01 X337.211 Z-0.211
N1000G01 X337.011 Z-0.197
N1010G01 X335.21 Z-0.197
N1020G01 X335.01 Z-0.208
N1030G01 X334.81 Z-0.197
N1040G01 X321.81 Z-0.197
N1050G01 X321.61 Z-0.209
N1060G01 X321.41 Z-0.197
N1070G01 X315.21 Z-0.197
N1080G01 X315.01 Z-0.207
N1090G01 X314.81 Z-0.197
N1100G01 X303.81 Z-0.197
N1110G01 X303.61 Z-0.207
N1120G01 X303.41 Z-0.197
N1130G01 X302.41 Z-0.197
N1140G01 X302.21 Z-0.205
N1150G01 X302.01 Z-0.197
N1160G01 X299.81 Z-0.197
N1170G01 X299.61 Z-0.204
N1180G01 X299.41 Z-0.197
N1190G01 X293.61 Z-0.197
N1200G01 X293.41 Z-0.203
N1210G01 X293.21 Z-0.197
N1220G01 X293.01 Z-0.205
N1230G01 X292.81 Z-0.197
N1240G01 X291.81 Z-0.197
N1250G01 X291.61 Z-0.202
N1260G01 X291.21 Z-0.203
N1270G01 X291.01 Z-0.197
N1280G01 X287.21 Z-0.197
N1290G01 X287.01 Z-0.204
N1300G01 X286.81 Z-0.197
N1310G01 X286.61 Z-0.197
N1320G01 X286.41 Z-0.202
N1330G01 X286.21 Z-0.197
N1340G01 X285.61 Z-0.197
N1350G01 X285.41 Z-0.205
N1360G01 X285.21 Z-0.197
N1370G01 X280.01 Z-0.197
N1380G01 X279.81 Z-0.204
N1390G01 X279.61 Z-0.197
N1400G01 X278.61 Z-0.197
N1410G01 X278.41 Z-0.202
N1420G01 X278.21 Z-0.197
N1430G01 X270.609 Z-0.197
N1440G01 X270.409 Z-0.202
N1450G01 X270.209 Z-0.197
N1460G01 X250.209 Z-0.197
N1470G01 X250.009 Z-0.199
N1480G01 X249.809 Z-0.197
N1490G01 X248.809 Z-0.197
N1500G01 X248.609 Z-0.2
N1510G01 X248.409 Z-0.197
N1520G01 X247.409 Z-0.197
N1530G01 X247.209 Z-0.199
N1540G01 X247.009 Z-0.197
N1550G01 X241.809 Z-0.197
N1560G01 X241.609 Z-0.199
N1570G01 X241.409 Z-0.197
N1580G01 X237.809 Z-0.197
N1590G01 X237.609 Z-0.198
N1600G01 X216.208 Z-0.197
N1610G01 X216.008 Z-0.203
N1620G01 X215.808 Z-0.197
N1630G01 X213.008 Z-0.197
N1640G01 X212.808 Z-0.198
N1650G01 X212.608 Z-0.197
N1660G01 X212.408 Z-0.2
N1670G01 X212.208 Z-0.197
N1680G01 X191.408 Z-0.197
N1690G01 X191.208 Z-0.201
N1700G01 X191.008 Z-0.197
N1710G01 X165.808 Z-0.197
N1720G01 X165.608 Z-0.199
N1730G01 X165.408 Z-0.197
N1740G01 X161.608 Z-0.197
N1750G01 X161.408 Z-0.199
N1760G01 X161.208 Z-0.197
N1770G01 X150.807 Z-0.197
N1780G01 X150.607 Z-0.199
N1790G01 X150.407 Z-0.197
N1800G01 X1.606 Z-0.196
N1810 G00 Z9.999
N1820 G00 X348.411 Y13.18
N1830G01 Z-0.072 F500
N1840G01 X1.606 Z-0.072 F1000
N1850 G00 Z9.999
N1860 G00 X348.411 Y14.18
N1870G01 Z-0.037 F500
N1880G01 X348.211 Z-0.028 F1000
N1890G01 X348.011 Z-0.028
N1900G01 X347.811 Z-0.037
N1910G01 X347.611 Z-0.036
N1920G01 X347.411 Z-0.028
N1930G01 X346.611 Z-0.028
N1940G01 X346.411 Z-0.035
N1950G01 X346.211 Z-0.028
N1960G01 X346.011 Z-0.035
N1970G01 X345.811 Z-0.028
N1980G01 X345.611 Z-0.028
N1990G01 X345.411 Z-0.037
N2000G01 X345.211 Z-0.028
N2010G01 X344.611 Z-0.028
N2020G01 X344.411 Z-0.036
N2030G01 X344.211 Z-0.028
N2040G01 X344.011 Z-0.038
N2050G01 X343.811 Z-0.028
N2060G01 X343.411 Z-0.028
N2070G01 X343.211 Z-0.037
N2080G01 X343.011 Z-0.027
N2090G01 X342.011 Z-0.028
N2100G01 X341.811 Z-0.034
N2110G01 X341.611 Z-0.036
N2120G01 X341.411 Z-0.035
N2130G01 X341.211 Z-0.028
N2140G01 X341.011 Z-0.038
N2150G01 X340.811 Z-0.028
N2160G01 X340.411 Z-0.027
N2170G01 X340.011 Z-0.033
N2180G01 X339.811 Z-0.027
N2190G01 X339.611 Z-0.027
N2200G01 X339.411 Z-0.033
N2210G01 X339.211 Z-0.028
N2220G01 X339.011 Z-0.027
N2230G01 X338.811 Z-0.035
N2240G01 X338.611 Z-0.033
N2250G01 X338.411 Z-0.027
N2260G01 X338.011 Z-0.028
N2270G01 X337.811 Z-0.039
N2280G01 X337.611 Z-0.028
N2290G01 X337.411 Z-0.028
N2300G01 X337.211 Z-0.03
N2310G01 X337.011 Z-0.027
N2320G01 X336.41 Z-0.028
N2330G01 X336.21 Z-0.034
N2340G01 X336.01 Z-0.027
N2350G01 X335.61 Z-0.027
N2360G01 X335.41 Z-0.036
N2370G01 X335.21 Z-0.028
N2380G01 X334.81 Z-0.027
N2390G01 X334.61 Z-0.031
N2400G01 X334.21 Z-0.035
N2410G01 X334.01 Z-0.028
N2420G01 X333.81 Z-0.028
N2430G01 X333.61 Z-0.034
N2440G01 X333.41 Z-0.027
N2450G01 X331.81 Z-0.028
N2460G01 X331.61 Z-0.032
N2470G01 X331.41 Z-0.028
N2480G01 X330.61 Z-0.028
N2490G01 X330.41 Z-0.033
N2500G01 X330.21 Z-0.027
N2510G01 X328.81 Z-0.027
N2520G01 X328.61 Z-0.035
N2530G01 X328.41 Z-0.028
N2540G01 X328.01 Z-0.028
N2550G01 X327.81 Z-0.034
N2560G01 X327.61 Z-0.027
N2570G01 X327.41 Z-0.027
N2580G01 X327.21 Z-0.032
N2590G01 X327.01 Z-0.028
N2600G01 X326.81 Z-0.027
N2610G01 X326.61 Z-0.036
N2620G01 X326.41 Z-0.028
N2630G01 X326.21 Z-0.031
N2640G01 X326.01 Z-0.027
N2650G01 X324.81 Z-0.028
N2660G01 X324.61 Z-0.031
N2670G01 X324.41 Z-0.027
N2680G01 X320.21 Z-0.027
N2690G01 X320.01 Z-0.036
N2700G01 X319.81 Z-0.028
N2710G01 X319.61 Z-0.027
N2720G01 X319.41 Z-0.036
N2730G01 X319.21 Z-0.027
N2740G01 X319.01 Z-0.027
N2750G01 X318.81 Z-0.032
N2760G01 X318.61 Z-0.028
N2770G01 X318.41 Z-0.028
N2780G01 X318.21 Z-0.035
N2790G01 X318.01 Z-0.028
N2800G01 X315.01 Z-0.027
N2810G01 X314.81 Z-0.037
N2820G01 X314.61 Z-0.036
N2830G01 X314.41 Z-0.028
N2840G01 X313.41 Z-0.028
N2850G01 X313.21 Z-0.034
N2860G01 X313.01 Z-0.027
N2870G01 X312.81 Z-0.028
N2880G01 X312.61 Z-0.033
N2890G01 X312.41 Z-0.027
N2900G01 X310.61 Z-0.027
N2910G01 X310.41 Z-0.035
N2920G01 X310.21 Z-0.027
N2930G01 X310.01 Z-0.031
N2940G01 X309.81 Z-0.027
N2950G01 X309.41 Z-0.027
N2960G01 X309.21 Z-0.035
N2970G01 X309.01 Z-0.027
N2980G01 X308.81 Z-0.032
N2990G01 X308.61 Z-0.027
N3000G01 X308.41 Z-0.032
N3010G01 X308.21 Z-0.027
N3020G01 X308.01 Z-0.027
N3030G01 X307.81 Z-0.033
N3040G01 X307.61 Z-0.034
N3050G01 X307.41 Z-0.027
N3060G01 X307.21 Z-0.029
N3070G01 X307.01 Z-0.027
N3080G01 X306.81 Z-0.033
N3090G01 X306.61 Z-0.027
N3100G01 X306.21 Z-0.027
N3110G01 X306.01 Z-0.036
N3120G01 X305.81 Z-0.027
N3130G01 X302.01 Z-0.027
N3140G01 X301.81 Z-0.057
N3150G01 X301.61 Z-0.027
N3160G01 X300.61 Z-0.027
N3170G01 X300.41 Z-0.033
N3180G01 X300.21 Z-0.027
N3190G01 X299.81 Z-0.027
N3200G01 X299.61 Z-0.034
N3210G01 X299.41 Z-0.027
N3220G01 X297.21 Z-0.027
N3230G01 X297.01 Z-0.033
N3240G01 X296.81 Z-0.027
N3250G01 X296.61 Z-0.033
N3260G01 X296.41 Z-0.027
N3270G01 X296.01 Z-0.027
N3280G01 X295.81 Z-0.035
N3290G01 X295.61 Z-0.027
N3300G01 X295.41 Z-0.032
N3310G01 X295.21 Z-0.034
N3320G01 X295.01 Z-0.027
N3330G01 X293.61 Z-0.027
N3340G01 X293.41 Z-0.032
N3350G01 X293.21 Z-0.027
N3360G01 X291.61 Z-0.027
N3370G01 X291.41 Z-0.032
N3380G01 X291.21 Z-0.027
N3390G01 X291.01 Z-0.027
N3400G01 X290.81 Z-0.031
N3410G01 X290.61 Z-0.027
N3420G01 X290.41 Z-0.029
N3430G01 X290.01 Z-0.035
N3440G01 X289.81 Z-0.027
N3450G01 X289.61 Z-0.027
N3460G01 X289.41 Z-0.034
N3470G01 X289.21 Z-0.029
N3480G01 X287.61 Z-0.027
N3490G01 X287.41 Z-0.032
N3500G01 X287.21 Z-0.027
N3510G01 X285.81 Z-0.027
N3520G01 X285.61 Z-0.033
N3530G01 X285.41 Z-0.027
N3540G01 X285.01 Z-0.027
N3550G01 X284.81 Z-0.029
N3560G01 X284.41 Z-0.027
N3570G01 X284.21 Z-0.031
N3580G01 X284.01 Z-0.027
N3590G01 X283.01 Z-0.027
N3600G01 X282.81 Z-0.031
N3610G01 X282.61 Z-0.027
N3620G01 X282.41 Z-0.053
N3630G01 X282.21 Z-0.03
N3640G01 X282.01 Z-0.027
N3650G01 X281.61 Z-0.027
N3660G01 X281.41 Z-0.032
N3670G01 X281.21 Z-0.027
N3680G01 X280.81 Z-0.029
N3690G01 X280.61 Z-0.027
N3700G01 X280.41 Z-0.031
N3710G01 X280.21 Z-0.031
N3720G01 X280.01 Z-0.027
N3730G01 X278.81 Z-0.027
N3740G01 X278.61 Z-0.033
N3750G01 X278.41 Z-0.027
N3760G01 X276.809 Z-0.027
N3770G01 X276.609 Z-0.032
N3780G01 X276.409 Z-0.027
N3790G01 X275.809 Z-0.027
N3800G01 X275.609 Z-0.033
N3810G01 X275.409 Z-0.027
N3820G01 X274.409 Z-0.027
N3830G01 X274.209 Z-0.031
N3840G01 X274.009 Z-0.027
N3850G01 X272.009 Z-0.027
N3860G01 X271.809 Z-0.03
N3870G01 X271.609 Z-0.027
N3880G01 X271.409 Z-0.033
N3890G01 X271.209 Z-0.027
N3900G01 X270.609 Z-0.027
N3910G01 X270.409 Z-0.033
N3920G01 X270.209 Z-0.027
N3930G01 X270.009 Z-0.027
N3940G01 X269.809 Z-0.033
N3950G01 X269.609 Z-0.027
N3960G01 X269.209 Z-0.033
N3970G01 X269.009 Z-0.027
N3980G01 X268.809 Z-0.027
N3990G01 X268.609 Z-0.031
N4000G01 X268.409 Z-0.027
N4010G01 X268.209 Z-0.027
N4020G01 X267.809 Z-0.033
N4030G01 X267.609 Z-0.032
N4040G01 X267.409 Z-0.027
N4050G01 X265.209 Z-0.027
N4060G01 X265.009 Z-0.032
N4070G01 X264.609 Z-0.03
N4080G01 X264.409 Z-0.027
N4090G01 X264.009 Z-0.027
N4100G01 X263.809 Z-0.03
N4110G01 X263.609 Z-0.027
N4120G01 X262.209 Z-0.027
N4130G01 X262.009 Z-0.032
N4140G01 X261.609 Z-0.027
N4150G01 X261.409 Z-0.027
N4160G01 X261.209 Z-0.032
N4170G01 X261.009 Z-0.027
N4180G01 X260.409 Z-0.027
N4190G01 X260.209 Z-0.033
N4200G01 X260.009 Z-0.027
N4210G01 X259.809 Z-0.029
N4220G01 X258.809 Z-0.027
N4230G01 X258.609 Z-0.029
N4240G01 X258.409 Z-0.049
N4250G01 X258.209 Z-0.027
N4260G01 X257.009 Z-0.027
N4270G01 X256.809 Z-0.033
N4280G01 X256.609 Z-0.029
N4290G01 X256.209 Z-0.027
N4300G01 X256.009 Z-0.03
N4310G01 X255.809 Z-0.027
N4320G01 X255.609 Z-0.031
N4330G01 X255.409 Z-0.027
N4340G01 X254.209 Z-0.027
N4350G01 X254.009 Z-0.029
N4360G01 X251.609 Z-0.027
N4370G01 X251.409 Z-0.031
N4380G01 X251.209 Z-0.031
N4390G01 X251.009 Z-0.027
N4400G01 X250.209 Z-0.027
N4410G01 X250.009 Z-0.029
N4420G01 X249.809 Z-0.027
N4430G01 X248.809 Z-0.027
N4440G01 X248.609 Z-0.03
N4450G01 X248.409 Z-0.027
N4460G01 X247.609 Z-0.027
N4470G01 X247.409 Z-0.031
N4480G01 X247.009 Z-0.027
N4490G01 X246.209 Z-0.027
N4500G01 X245.809 Z-0.03
N4510G01 X245.609 Z-0.027
N4520G01 X245.009 Z-0.027
N4530G01 X244.809 Z-0.032
N4540G01 X244.209 Z-0.027
N4550G01 X243.409 Z-0.027
N4560G01 X243.209 Z-0.03
N4570G01 X243.009 Z-0.027
N4580G01 X242.009 Z-0.027
N4590G01 X241.809 Z-0.031
N4600G01 X241.409 Z-0.027
N4610G01 X240.609 Z-0.027
N4620G01 X240.409 Z-0.03
N4630G01 X240.209 Z-0.031
N4640G01 X240.009 Z-0.027
N4650G01 X239.209 Z-0.027
N4660G01 X239.009 Z-0.029
N4670G01 X238.809 Z-0.045
N4680G01 X238.609 Z-0.027
N4690G01 X237.809 Z-0.027
N4700G01 X237.609 Z-0.029
N4710G01 X237.409 Z-0.027
N4720G01 X236.209 Z-0.027
N4730G01 X236.009 Z-0.03
N4740G01 X235.809 Z-0.027
N4750G01 X235.009 Z-0.027
N4760G01 X234.809 Z-0.03
N4770G01 X234.609 Z-0.027
N4780G01 X232.209 Z-0.027
N4790G01 X232.009 Z-0.029
N4800G01 X230.809 Z-0.027
N4810G01 X230.609 Z-0.029
N4820G01 X229.609 Z-0.027
N4830G01 X229.409 Z-0.029
N4840G01 X229.209 Z-0.027
N4850G01 X228.209 Z-0.027
N4860G01 X228.009 Z-0.03
N4870G01 X227.809 Z-0.031
N4880G01 X227.609 Z-0.027
N4890G01 X226.809 Z-0.027
N4900G01 X226.609 Z-0.029
N4910G01 X225.409 Z-0.027
N4920G01 X225.009 Z-0.029
N4930G01 X224.209 Z-0.027
N4940G01 X224.009 Z-0.03
N4950G01 X223.809 Z-0.027
N4960G01 X222.209 Z-0.029
N4970G01 X222.009 Z-0.031
N4980G01 X221.809 Z-0.027
N4990G01 X221.209 Z-0.027
N5000G01 X221.009 Z-0.03
N5010G01 X220.809 Z-0.027
N5020G01 X220.609 Z-0.031
N5030G01 X220.409 Z-0.027
N5040G01 X219.809 Z-0.027
N5050G01 X219.609 Z-0.03
N5060G01 X219.209 Z-0.031
N5070G01 X219.009 Z-0.027
N5080G01 X218.409 Z-0.027
N5090G01 X218.208 Z-0.03
N5100G01 X218.008 Z-0.027
N5110G01 X215.608 Z-0.027
N5120G01 X215.408 Z-0.029
N5130G01 X214.008 Z-0.027
N5140G01 X213.608 Z-0.03
N5150G01 X213.408 Z-0.027
N5160G01 X213.008 Z-0.027
N5170G01 X212.808 Z-0.03
N5180G01 X211.608 Z-0.027
N5190G01 X211.208 Z-0.03
N5200G01 X211.008 Z-0.027
N5210G01 X209.008 Z-0.027
N5220G01 X208.608 Z-0.03
N5230G01 X206.008 Z-0.027
N5240G01 X205.808 Z-0.03
N5250G01 X205.608 Z-0.027
N5260G01 X205.408 Z-0.027
N5270G01 X205.208 Z-0.031
N5280G01 X205.008 Z-0.027
N5290G01 X204.408 Z-0.029
N5300G01 X204.208 Z-0.038
N5310G01 X204.008 Z-0.027
N5320G01 X203.208 Z-0.027
N5330G01 X203.008 Z-0.029
N5340G01 X202.208 Z-0.027
N5350G01 X202.008 Z-0.029
N5360G01 X199.208 Z-0.027
N5370G01 X199.008 Z-0.029
N5380G01 X197.608 Z-0.027
N5390G01 X197.408 Z-0.037
N5400G01 X197.208 Z-0.036
N5410G01 X197.008 Z-0.027
N5420G01 X195.008 Z-0.027
N5430G01 X194.808 Z-0.029
N5440G01 X193.608 Z-0.027
N5450G01 X193.408 Z-0.029
N5460G01 X192.208 Z-0.027
N5470G01 X191.808 Z-0.028
N5480G01 X191.608 Z-0.027
N5490G01 X191.408 Z-0.028
N5500G01 X190.808 Z-0.027
N5510G01 X190.408 Z-0.028
N5520G01 X189.408 Z-0.027
N5530G01 X189.208 Z-0.029
N5540G01 X187.608 Z-0.027
N5550G01 X187.408 Z-0.028
N5560G01 X186.208 Z-0.027
N5570G01 X186.008 Z-0.034
N5580G01 X185.808 Z-0.027
N5590G01 X184.208 Z-0.027
N5600G01 X184.008 Z-0.029
N5610G01 X182.008 Z-0.027
N5620G01 X181.808 Z-0.033
N5630G01 X181.608 Z-0.027
N5640G01 X180.608 Z-0.027
N5650G01 X180.408 Z-0.033
N5660G01 X180.208 Z-0.027
N5670G01 X176.408 Z-0.027
N5680G01 X176.208 Z-0.029
N5690G01 X175.008 Z-0.027
N5700G01 X174.808 Z-0.028
N5710G01 X173.608 Z-0.027
N5720G01 X173.408 Z-0.032
N5730G01 X173.208 Z-0.027
N5740G01 X172.608 Z-0.027
N5750G01 X172.408 Z-0.032
N5760G01 X172.208 Z-0.027
N5770G01 X172.008 Z-0.031
N5780G01 X171.808 Z-0.027
N5790G01 X170.208 Z-0.027
N5800G01 X170.008 Z-0.029
N5810G01 X160.608 Z-0.027
N5820G01 X160.408 Z-0.029
N5830G01 X145.807 Z-0.026
N5840G01 X145.607 Z-0.034
N5850G01 X145.207 Z-0.035
N5860G01 X145.007 Z-0.026
N5870G01 X144.807 Z-0.026
N5880G01 X144.607 Z-0.038
N5890G01 X144.407 Z-0.026
N5900G01 X142.807 Z-0.027
N5910G01 X142.607 Z-0.051
N5920G01 X142.407 Z-0.027
N5930G01 X142.007 Z-0.027
N5940G01 X141.807 Z-0.052
N5950G01 X141.607 Z-0.027
N5960G01 X140.607 Z-0.027
N5970G01 X140.407 Z-0.052
N5980G01 X140.207 Z-0.027
N5990G01 X139.207 Z-0.027
N6000G01 X139.007 Z-0.052
N6010G01 X138.807 Z-0.027
N6020G01 X137.807 Z-0.027
N6030G01 X137.607 Z-0.052
N6040G01 X137.407 Z-0.027
N6050G01 X135.007 Z-0.027
N6060G01 X134.807 Z-0.052
N6070G01 X134.607 Z-0.027
N6080G01 X133.607 Z-0.027
N6090G01 X133.407 Z-0.052
N6100G01 X132.807 Z-0.052
N6110G01 X132.607 Z-0.027
N6120G01 X132.207 Z-0.027
N6130G01 X132.007 Z-0.052
N6140G01 X131.807 Z-0.052
N6150G01 X131.607 Z-0.027
N6160G01 X129.407 Z-0.027
N6170G01 X129.207 Z-0.052
N6180G01 X129.007 Z-0.027
N6190G01 X125.407 Z-0.027
N6200G01 X125.207 Z-0.048
N6210G01 X125.007 Z-0.027
N6220G01 X123.807 Z-0.027
N6230G01 X123.607 Z-0.052
N6240G01 X123.407 Z-0.027
N6250G01 X104.807 Z-0.027
N6260G01 X104.607 Z-0.044
N6270G01 X104.407 Z-0.027
N6280G01 X100.006 Z-0.027
N6290G01 X99.806 Z-0.052
N6300G01 X99.606 Z-0.027
N6310G01 X99.006 Z-0.027
N6320G01 X98.806 Z-0.052
N6330G01 X98.606 Z-0.027
N6340G01 X83.606 Z-0.027
N6350G01 X83.406 Z-0.052
N6360G01 X83.006 Z-0.052
N6370G01 X82.806 Z-0.027
N6380G01 X79.406 Z-0.027
N6390G01 X79.206 Z-0.052
N6400G01 X79.006 Z-0.027
N6410G01 X78.006 Z-0.027
N6420G01 X77.806 Z-0.052
N6430G01 X77.606 Z-0.027
N6440G01 X68.606 Z-0.027
N6450G01 X68.406 Z-0.052
N6460G01 X68.206 Z-0.027
N6470G01 X1.606 Z-0.027
N6480 G00 Z9.999
N6490 G00 X348.411 Y2.179
N6500G01 Z-2 F500
N6510G01 X1.606 Y2.179 F1000
N6520 G00 Z9.999
N6530 G00 X348.411 Y3.179
N6540G01 Z-2 F500
N6550G01 X1.606 Y3.179 F1000
N6560 G00 Z9.999
N6570 G00 X348.411 Y4.18
N6580G01 Z-2 F500
N6590G01 X1.606 F1000
N6600 G00 Z9.999
N6610 G00 X348.411 Y5.18
N6620G01 Z-2 F500
N6630G01 X1.606 F1000
N6640 G00 Z9.999
N6650 G00 X348.411 Y6.18
N6660G01 Z-2 F500
N6670G01 X1.606 F1000
N6680 G00 Z9.999
N6690 G00 X348.411 Y7.18
N6700G01 Z-1.55 F500
N6710G01 X147.607 Z-1.549 F1000
N6720G01 X147.407 Z-1.551
N6730G01 X93.206 Z-1.549
N6740G01 X93.006 Z-1.556
N6750G01 X92.806 Z-1.549
N6760G01 X1.606 Z-1.549
N6770 G00 Z9.999
N6780 G00 X348.411 Y8.18
N6790G01 Z-1.164 F500
N6800G01 X1.606 Z-1.163 F1000
N6810 G00 Z9.999
N6820 G00 X348.411 Y2.179
N6830G01 Z-3 F500
N6840G01 X1.606 Y2.179 F1000
N6850 G00 Z9.999
N6860 G00 X348.411 Y3.179
N6870G01 Z-3 F500
N6880G01 X1.606 Y3.179 F1000
N6890 G00 Z9.999
N6900 G00 X348.411 Y4.18
N6910G01 Z-3 F500
N6920G01 X1.606 F1000
N6930 G00 Z9.999
N6940 G00 X348.411 Y5.18
N6950G01 Z-2.525 F500
N6960G01 X1.606 Z-2.524 F1000
N6970 G00 Z9.999
N6980 G00 X348.411 Y6.18
N6990G01 Z-2.009 F500
N7000G01 X1.606 Z-2.008 F1000
N7010 G00 Z9.999
N7020 G00 X348.411 Y2.179
N7030G01 Z-4 F500
N7040G01 X1.606 Y2.179 F1000
N7050 G00 Z9.999
N7060 G00 X348.411 Y3.179
N7070G01 Z-3.799 F500
N7080G01 X245.009 Y3.179 Z-3.799 F1000
N7090G01 X244.809 Y3.179 Z-3.803
N7100G01 X244.609 Y3.179 Z-3.799
N7110G01 X231.209 Y3.179 Z-3.799
N7120G01 X231.009 Y3.179 Z-3.804
N7130G01 X230.809 Y3.179 Z-3.799
N7140G01 X192.608 Y3.179 Z-3.799
N7150G01 X192.408 Y3.179 Z-3.803
N7160G01 X192.208 Y3.179 Z-3.799
N7170G01 X121.007 Y3.179 Z-3.799
N7180G01 X120.807 Y3.179 Z-3.802
N7190G01 X120.607 Y3.179 Z-3.799
N7200G01 X1.606 Y3.179 Z-3.799
N7210 G00 Z9.999
N7220 G00 X348.411 Y4.18
N7230G01 Z-3.108 F500
N7240G01 X1.606 Z-3.107 F1000
N7250 G00 Z9.999
N7260 G00 X348.411 Y2.179
N7270G01 Z-4.577 F500
N7280G01 X178.808 Y2.179 Z-4.576 F1000
N7290G01 X178.608 Y2.179 Z-4.583
N7300G01 X178.408 Y2.179 Z-4.576
N7310G01 X126.007 Y2.179 Z-4.576
N7320G01 X125.807 Y2.179 Z-4.577
N7330G01 X1.606 Y2.179 Z-4.576
N7340 G00 Z9.999
N7350 M02
