(GCode created using the HeeksCNC Mach3 post processor)
(/home/user/git-repos/dkoukoul/donation-box/designs/3D/blender/back panel/rounding-file.tap)
(G-code generated with BlenderCAM and NC library)
N10 G17 G21 G90
(Tool change)
N20G43H1
N30T1 M06
N40 G00 X0 Y0 Z9.999 S12000 M03
N50 G00 X-0.916 Y-1.399
N60G01 Z-1 F500
N70G01 Y351.204 F1000
N80 G00 Z9.999
N90 G00 X-0.416 Y-1.399
N100G01 Z-1 F500
N110G01 Y351.204 F1000
N120 G00 Z9.999
N130 G00 X0.083 Y-1.399
N140G01 Z-1 F500
N150G01 Y351.204 F1000
N160 G00 Z9.999
N170 G00 X0.583 Y-1.399
N180G01 Z-1 F500
N190G01 Y351.204 F1000
N200 G00 Z9.999
N210 G00 X1.083 Y-1.399
N220G01 Z-1 F500
N230G01 Y351.204 F1000
N240 G00 Z9.999
N250 G00 X1.583 Y-1.399
N260G01 Z-1 F500
N270G01 Y351.204 F1000
N280 G00 Z9.999
N290 G00 X2.083 Y-1.399
N300G01 Z-1 F500
N310G01 Y351.204 F1000
N320 G00 Z9.999
N330 G00 X2.583 Y-1.399
N340G01 Z-1 F500
N350G01 Y351.204 F1000
N360 G00 Z9.999
N370 G00 X3.083 Y-1.399
N380G01 Z-1 F500
N390G01 Y351.204 F1000
N400 G00 Z9.999
N410 G00 X3.583 Y-1.399
N420G01 Z-1 F500
N430G01 Y351.204 F1000
N440 G00 Z9.999
N450 G00 X4.083 Y-1.399
N460G01 Z-1 F500
N470G01 Y351.204 F1000
N480 G00 Z9.999
N490 G00 X4.583 Y-1.399
N500G01 Z-1 F500
N510G01 Y351.204 F1000
N520 G00 Z9.999
N530 G00 X5.083 Y-1.399
N540G01 Z-1 F500
N550G01 Y351.204 F1000
N560 G00 Z9.999
N570 G00 X5.583 Y-1.399
N580G01 Z-1 F500
N590G01 Y351.204 F1000
N600 G00 Z9.999
N610 G00 X6.083 Y-1.399
N620G01 Z-1 F500
N630G01 Y351.204 F1000
N640 G00 Z9.999
N650 G00 X6.583 Y-1.399
N660G01 Z-1 F500
N670G01 Y-0.984 F1000
N680G01 Y-0.799 Z-0.818
N690G01 Y-0.599 Z-0.689
N700G01 Y-0.399 Z-0.603
N710G01 Y-0.199 Z-0.556
N720G01 Y0 Z-0.54
N730G01 Y350.004 Z-0.539
N740G01 Y350.204 Z-0.556
N750G01 Y350.404 Z-0.605
N760G01 Y350.604 Z-0.69
N770G01 Y350.804 Z-0.821 F500
N780G01 Y350.984 Z-1
N790G01 Y351.204 F1000
N800 G00 Z9.999
N810 G00 X7.083 Y-1.399
N820G01 Z-1 F500
N830G01 Y-1.199 Z-0.849 F1000
N840G01 Y-0.999 Z-0.515
N850G01 Y-0.799 Z-0.318
N860G01 Y-0.599 Z-0.199
N870G01 Y350.604 Z-0.199
N880G01 Y350.804 Z-0.32 F500
N890G01 Y351.004 Z-0.519
N900G01 Y351.204 Z-0.861
N910 G00 Z9.999
N920 G00 X7.583 Y-1.399
N930G01 Z-1
N940G01 Y-1.199 Z-0.349 F1000
N950G01 Y-0.999 Z-0.199
N960G01 Y351.004 Z-0.199
N970G01 Y351.204 Z-0.361 F500
N980 G00 Z9.999
N990 G00 X8.083 Y-1.399
N1000G01 Z-1
N1010G01 Y-1.199 Z-0.199 F1000
N1020G01 Y351.204 Z-0.199
N1030 G00 Z9.999
N1040 G00 X8.583 Y-1.399
N1050G01 Z-1 F500
N1060G01 Y-1.199 Z-0.199 F1000
N1070G01 Y351.204 Z-0.199
N1080 G00 Z9.999
N1090 G00 X9.083 Y-1.399
N1100G01 Z-1 F500
N1110G01 Y-1.199 Z-0.286 F1000
N1120G01 Y-0.999 Z-0.219
N1130G01 Y-0.799 Z-0.199
N1140G01 Y350.804 Z-0.199
N1150G01 Y351.004 Z-0.219
N1160G01 Y351.204 Z-0.289
N1170 G00 Z9.999
N1180 G00 X9.583 Y-1.399
N1190G01 Z-1 F500
N1200G01 Y-1.199 Z-0.392 F1000
N1210G01 Y-0.999 Z-0.314
N1220G01 Y-0.799 Z-0.273
N1230G01 Y-0.599 Z-0.248
N1240G01 Y-0.399 Z-0.233
N1250G01 Y-0.199 Z-0.224
N1260G01 Y0 Z-0.221
N1270G01 Y65.599 Z-0.221
N1280G01 Y65.799 Z-0.239
N1290G01 Y65.999 Z-0.221
N1300G01 Y70.8 Z-0.221
N1310G01 Y71 Z-0.238
N1320G01 Y71.2 Z-0.221
N1330G01 Y87.8 Z-0.22
N1340G01 Y88 Z-0.24
N1350G01 Y88.2 Z-0.22
N1360G01 Y90.6 Z-0.221
N1370G01 Y90.8 Z-0.236
N1380G01 Y91 Z-0.221
N1390G01 Y94.6 Z-0.221
N1400G01 Y94.8 Z-0.231
N1410G01 Y95 Z-0.221
N1420G01 Y97.4 Z-0.221
N1430G01 Y97.6 Z-0.228
N1440G01 Y97.8 Z-0.221
N1450G01 Y104.6 Z-0.22
N1460G01 Y104.8 Z-0.223
N1470G01 Y105 Z-0.22
N1480G01 Y106.2 Z-0.221
N1490G01 Y106.4 Z-0.222
N1500G01 Y107.4 Z-0.221
N1510G01 Y107.6 Z-0.222
N1520G01 Y129.601 Z-0.22
N1530G01 Y129.801 Z-0.222
N1540G01 Y130.401 Z-0.22
N1550G01 Y130.601 Z-0.222
N1560G01 Y131.001 Z-0.22
N1570G01 Y131.201 Z-0.222
N1580G01 Y131.801 Z-0.22
N1590G01 Y132.001 Z-0.222
N1600G01 Y133.001 Z-0.22
N1610G01 Y133.201 Z-0.222
N1620G01 Y135.201 Z-0.22
N1630G01 Y135.401 Z-0.222
N1640G01 Y135.601 Z-0.221
N1650G01 Y135.801 Z-0.222
N1660G01 Y137.201 Z-0.22
N1670G01 Y137.401 Z-0.223
N1680G01 Y137.801 Z-0.223
N1690G01 Y138.001 Z-0.221
N1700G01 Y138.201 Z-0.223
N1710G01 Y138.401 Z-0.221
N1720G01 Y138.601 Z-0.22
N1730G01 Y138.801 Z-0.223
N1740G01 Y139.201 Z-0.223
N1750G01 Y139.401 Z-0.221
N1760G01 Y139.601 Z-0.22
N1770G01 Y139.801 Z-0.223
N1780G01 Y140.001 Z-0.221
N1790G01 Y141.801 Z-0.22
N1800G01 Y142.001 Z-0.223
N1810G01 Y142.201 Z-0.22
N1820G01 Y143.201 Z-0.22
N1830G01 Y143.401 Z-0.224
N1840G01 Y143.601 Z-0.221
N1850G01 Y143.801 Z-0.224
N1860G01 Y144.001 Z-0.22
N1870G01 Y144.201 Z-0.224
N1880G01 Y144.401 Z-0.221
N1890G01 Y144.601 Z-0.22
N1900G01 Y144.801 Z-0.224
N1910G01 Y145.001 Z-0.22
N1920G01 Y145.201 Z-0.22
N1930G01 Y145.401 Z-0.224
N1940G01 Y145.601 Z-0.221
N1950G01 Y146.001 Z-0.22
N1960G01 Y146.201 Z-0.224
N1970G01 Y146.401 Z-0.221
N1980G01 Y147.801 Z-0.22
N1990G01 Y148.001 Z-0.225
N2000G01 Y148.201 Z-0.224
N2010G01 Y148.401 Z-0.221
N2020G01 Y148.801 Z-0.22
N2030G01 Y149.001 Z-0.224
N2040G01 Y149.201 Z-0.221
N2050G01 Y150.201 Z-0.22
N2060G01 Y150.401 Z-0.225
N2070G01 Y150.601 Z-0.22
N2080G01 Y152.401 Z-0.22
N2090G01 Y152.601 Z-0.225
N2100G01 Y152.801 Z-0.225
N2110G01 Y153.001 Z-0.221
N2120G01 Y153.201 Z-0.22
N2130G01 Y153.401 Z-0.226
N2140G01 Y153.601 Z-0.221
N2150G01 Y153.801 Z-0.225
N2160G01 Y154.001 Z-0.221
N2170G01 Y154.201 Z-0.225
N2180G01 Y154.401 Z-0.221
N2190G01 Y154.601 Z-0.226
N2200G01 Y154.801 Z-0.225
N2210G01 Y155.001 Z-0.22
N2220G01 Y155.801 Z-0.22
N2230G01 Y156.001 Z-0.226
N2240G01 Y156.201 Z-0.22
N2250G01 Y156.401 Z-0.226
N2260G01 Y156.601 Z-0.226
N2270G01 Y156.801 Z-0.221
N2280G01 Y157.201 Z-0.221
N2290G01 Y157.401 Z-0.226
N2300G01 Y157.801 Z-0.226
N2310G01 Y158.001 Z-0.22
N2320G01 Y158.601 Z-0.22
N2330G01 Y158.801 Z-0.227
N2340G01 Y159.001 Z-0.227
N2350G01 Y159.201 Z-0.22
N2360G01 Y160.401 Z-0.22
N2370G01 Y160.601 Z-0.226
N2380G01 Y160.801 Z-0.22
N2390G01 Y161.401 Z-0.22
N2400G01 Y161.601 Z-0.226
N2410G01 Y161.801 Z-0.22
N2420G01 Y162.001 Z-0.22
N2430G01 Y162.201 Z-0.226
N2440G01 Y162.401 Z-0.227
N2450G01 Y162.601 Z-0.22
N2460G01 Y163.001 Z-0.22
N2470G01 Y163.201 Z-0.227
N2480G01 Y163.401 Z-0.22
N2490G01 Y163.801 Z-0.22
N2500G01 Y164.001 Z-0.227
N2510G01 Y164.201 Z-0.22
N2520G01 Y164.401 Z-0.227
N2530G01 Y164.601 Z-0.22
N2540G01 Y164.801 Z-0.227
N2550G01 Y165.001 Z-0.22
N2560G01 Y165.601 Z-0.22
N2570G01 Y165.801 Z-0.227
N2580G01 Y166.001 Z-0.227
N2590G01 Y166.201 Z-0.22
N2600G01 Y167.001 Z-0.22
N2610G01 Y167.201 Z-0.227
N2620G01 Y167.601 Z-0.227
N2630G01 Y167.801 Z-0.22
N2640G01 Y168.401 Z-0.22
N2650G01 Y168.601 Z-0.228
N2660G01 Y168.801 Z-0.22
N2670G01 Y169.001 Z-0.227
N2680G01 Y169.201 Z-0.22
N2690G01 Y170.001 Z-0.22
N2700G01 Y170.201 Z-0.227
N2710G01 Y170.401 Z-0.22
N2720G01 Y171.401 Z-0.22
N2730G01 Y171.601 Z-0.227
N2740G01 Y171.801 Z-0.22
N2750G01 Y172.201 Z-0.22
N2760G01 Y172.401 Z-0.228
N2770G01 Y172.601 Z-0.22
N2780G01 Y172.801 Z-0.228
N2790G01 Y173.001 Z-0.22
N2800G01 Y173.601 Z-0.22
N2810G01 Y173.801 Z-0.228
N2820G01 Y174.001 Z-0.22
N2830G01 Y174.201 Z-0.22
N2840G01 Y174.401 Z-0.229
N2850G01 Y174.801 Z-0.228
N2860G01 Y175.001 Z-0.22
N2870G01 Y175.201 Z-0.229
N2880G01 Y175.401 Z-0.22
N2890G01 Y175.601 Z-0.228
N2900G01 Y175.801 Z-0.228
N2910G01 Y176.001 Z-0.22
N2920G01 Y176.401 Z-0.22
N2930G01 Y176.601 Z-0.23
N2940G01 Y176.801 Z-0.22
N2950G01 Y177.001 Z-0.228
N2960G01 Y177.201 Z-0.229
N2970G01 Y177.401 Z-0.22
N2980G01 Y177.801 Z-0.22
N2990G01 Y178.001 Z-0.23
N3000G01 Y178.201 Z-0.22
N3010G01 Y178.401 Z-0.23
N3020G01 Y178.601 Z-0.229
N3030G01 Y178.801 Z-0.22
N3040G01 Y180.601 Z-0.22
N3050G01 Y180.801 Z-0.229
N3060G01 Y181.001 Z-0.22
N3070G01 Y181.201 Z-0.23
N3080G01 Y181.401 Z-0.22
N3090G01 Y182.601 Z-0.22
N3100G01 Y182.801 Z-0.229
N3110G01 Y183.001 Z-0.22
N3120G01 Y185.001 Z-0.22
N3130G01 Y185.201 Z-0.23
N3140G01 Y185.401 Z-0.22
N3150G01 Y186.202 Z-0.22
N3160G01 Y186.402 Z-0.23
N3170G01 Y186.602 Z-0.23
N3180G01 Y186.802 Z-0.22
N3190G01 Y187.602 Z-0.22
N3200G01 Y187.802 Z-0.232
N3210G01 Y188.002 Z-0.22
N3220G01 Y188.202 Z-0.232
N3230G01 Y188.402 Z-0.22
N3240G01 Y188.602 Z-0.23
N3250G01 Y188.802 Z-0.22
N3260G01 Y189.202 Z-0.22
N3270G01 Y189.402 Z-0.231
N3280G01 Y189.602 Z-0.232
N3290G01 Y189.802 Z-0.22
N3300G01 Y190.002 Z-0.231
N3310G01 Y190.202 Z-0.22
N3320G01 Y190.802 Z-0.22
N3330G01 Y191.002 Z-0.23
N3340G01 Y191.202 Z-0.22
N3350G01 Y193.402 Z-0.22
N3360G01 Y193.602 Z-0.231
N3370G01 Y193.802 Z-0.22
N3380G01 Y195.002 Z-0.22
N3390G01 Y195.202 Z-0.231
N3400G01 Y195.402 Z-0.22
N3410G01 Y196.202 Z-0.22
N3420G01 Y196.402 Z-0.231
N3430G01 Y196.602 Z-0.22
N3440G01 Y198.802 Z-0.22
N3450G01 Y199.002 Z-0.232
N3460G01 Y199.202 Z-0.22
N3470G01 Y200.202 Z-0.22
N3480G01 Y200.402 Z-0.232
N3490G01 Y200.602 Z-0.232
N3500G01 Y200.802 Z-0.22
N3510G01 Y201.602 Z-0.22
N3520G01 Y201.802 Z-0.232
N3530G01 Y202.002 Z-0.234
N3540G01 Y202.202 Z-0.22
N3550G01 Y203.202 Z-0.22
N3560G01 Y203.402 Z-0.233
N3570G01 Y203.602 Z-0.22
N3580G01 Y207.802 Z-0.22
N3590G01 Y208.002 Z-0.235
N3600G01 Y208.202 Z-0.22
N3610G01 Y210.202 Z-0.22
N3620G01 Y210.402 Z-0.233
N3630G01 Y210.602 Z-0.22
N3640G01 Y211.602 Z-0.22
N3650G01 Y211.802 Z-0.236
N3660G01 Y212.002 Z-0.22
N3670G01 Y213.202 Z-0.22
N3680G01 Y213.402 Z-0.233
N3690G01 Y213.602 Z-0.22
N3700G01 Y217.002 Z-0.22
N3710G01 Y217.202 Z-0.235
N3720G01 Y217.402 Z-0.22
N3730G01 Y221.202 Z-0.22
N3740G01 Y221.402 Z-0.237
N3750G01 Y221.602 Z-0.22
N3760G01 Y226.802 Z-0.22
N3770G01 Y227.002 Z-0.236
N3780G01 Y227.202 Z-0.22
N3790G01 Y227.602 Z-0.22
N3800G01 Y227.802 Z-0.236
N3810G01 Y228.002 Z-0.22
N3820G01 Y228.402 Z-0.22
N3830G01 Y228.602 Z-0.237
N3840G01 Y228.802 Z-0.22
N3850G01 Y230.602 Z-0.22
N3860G01 Y230.802 Z-0.237
N3870G01 Y231.002 Z-0.22
N3880G01 Y237.802 Z-0.22
N3890G01 Y238.002 Z-0.238
N3900G01 Y238.202 Z-0.22
N3910G01 Y241.802 Z-0.22
N3920G01 Y242.002 Z-0.239
N3930G01 Y242.202 Z-0.22
N3940G01 Y244.802 Z-0.22
N3950G01 Y245.002 Z-0.239
N3960G01 Y245.203 Z-0.22
N3970G01 Y247.603 Z-0.22
N3980G01 Y247.803 Z-0.24
N3990G01 Y248.003 Z-0.22
N4000G01 Y249.003 Z-0.22
N4010G01 Y249.203 Z-0.239
N4020G01 Y249.403 Z-0.22
N4030G01 Y254.003 Z-0.22
N4040G01 Y254.203 Z-0.24
N4050G01 Y254.403 Z-0.22
N4060G01 Y257.003 Z-0.22
N4070G01 Y257.203 Z-0.239
N4080G01 Y257.403 Z-0.22
N4090G01 Y257.603 Z-0.244
N4100G01 Y257.803 Z-0.241
N4110G01 Y258.003 Z-0.22
N4120G01 Y259.203 Z-0.22
N4130G01 Y259.403 Z-0.241
N4140G01 Y259.603 Z-0.22
N4150G01 Y260.003 Z-0.22
N4160G01 Y260.203 Z-0.241
N4170G01 Y260.603 Z-0.241
N4180G01 Y260.803 Z-0.22
N4190G01 Y263.803 Z-0.22
N4200G01 Y264.003 Z-0.242
N4210G01 Y264.403 Z-0.242
N4220G01 Y264.603 Z-0.22
N4230G01 Y268.403 Z-0.22
N4240G01 Y268.603 Z-0.241
N4250G01 Y268.803 Z-0.243
N4260G01 Y269.003 Z-0.22
N4270G01 Y269.603 Z-0.22
N4280G01 Y269.803 Z-0.242
N4290G01 Y270.003 Z-0.22
N4300G01 Y277.603 Z-0.22
N4310G01 Y277.803 Z-0.244
N4320G01 Y278.003 Z-0.22
N4330G01 Y286.203 Z-0.22
N4340G01 Y286.403 Z-0.245
N4350G01 Y286.603 Z-0.22
N4360G01 Y291.403 Z-0.22
N4370G01 Y291.603 Z-0.245
N4380G01 Y291.803 Z-0.22
N4390G01 Y295.403 Z-0.22
N4400G01 Y295.603 Z-0.25
N4410G01 Y295.803 Z-0.22
N4420G01 Y296.003 Z-0.247
N4430G01 Y296.203 Z-0.22
N4440G01 Y296.403 Z-0.247
N4450G01 Y296.603 Z-0.244
N4460G01 Y296.803 Z-0.22
N4470G01 Y300.403 Z-0.22
N4480G01 Y300.603 Z-0.247
N4490G01 Y300.803 Z-0.22
N4500G01 Y312.004 Z-0.22
N4510G01 Y312.204 Z-0.25
N4520G01 Y312.404 Z-0.22
N4530G01 Y316.204 Z-0.22
N4540G01 Y316.404 Z-0.25
N4550G01 Y316.604 Z-0.22
N4560G01 Y337.004 Z-0.22
N4570G01 Y337.204 Z-0.253
N4580G01 Y337.404 Z-0.22
N4590G01 Y337.604 Z-0.253
N4600G01 Y337.804 Z-0.22
N4610G01 Y339.804 Z-0.22
N4620G01 Y340.004 Z-0.254
N4630G01 Y340.204 Z-0.22
N4640G01 Y346.804 Z-0.22
N4650G01 Y347.004 Z-0.255
N4660G01 Y347.204 Z-0.22
N4670G01 Y350.004 Z-0.22
N4680G01 Y350.204 Z-0.223
N4690G01 Y350.404 Z-0.233
N4700G01 Y350.604 Z-0.248
N4710G01 Y350.804 Z-0.274
N4720G01 Y351.004 Z-0.315
N4730G01 Y351.204 Z-0.393
N4740 G00 Z9.999
N4750 G00 X10.083 Y-1.399
N4760G01 Z-1 F500
N4770G01 Y-1.199 Z-0.505 F1000
N4780G01 Y-0.999 Z-0.422
N4790G01 Y-0.799 Z-0.377
N4800G01 Y-0.599 Z-0.348
N4810G01 Y-0.399 Z-0.329
N4820G01 Y-0.199 Z-0.32
N4830G01 Y0 Z-0.316
N4840G01 Y71.4 Z-0.316
N4850G01 Y71.6 Z-0.325
N4860G01 Y71.8 Z-0.316
N4870G01 Y76.6 Z-0.316
N4880G01 Y76.8 Z-0.327
N4890G01 Y77 Z-0.316
N4900G01 Y77.6 Z-0.316
N4910G01 Y77.8 Z-0.327
N4920G01 Y78 Z-0.316
N4930G01 Y80.8 Z-0.316
N4940G01 Y81 Z-0.327
N4950G01 Y81.2 Z-0.316
N4960G01 Y82.2 Z-0.316
N4970G01 Y82.4 Z-0.325
N4980G01 Y82.6 Z-0.316
N4990G01 Y86.4 Z-0.316
N5000G01 Y86.6 Z-0.327
N5010G01 Y86.8 Z-0.316
N5020G01 Y87.8 Z-0.316
N5030G01 Y88 Z-0.327
N5040G01 Y88.2 Z-0.316
N5050G01 Y89.2 Z-0.316
N5060G01 Y89.4 Z-0.327
N5070G01 Y89.6 Z-0.316
N5080G01 Y90.6 Z-0.316
N5090G01 Y90.8 Z-0.327
N5100G01 Y91 Z-0.316
N5110G01 Y93 Z-0.316
N5120G01 Y93.2 Z-0.327
N5130G01 Y93.4 Z-0.316
N5140G01 Y94.6 Z-0.316
N5150G01 Y94.8 Z-0.327
N5160G01 Y95 Z-0.327
N5170G01 Y95.2 Z-0.316
N5180G01 Y96.2 Z-0.316
N5190G01 Y96.4 Z-0.327
N5200G01 Y96.6 Z-0.316
N5210G01 Y97.6 Z-0.316
N5220G01 Y97.8 Z-0.327
N5230G01 Y98 Z-0.316
N5240G01 Y98.2 Z-0.316
N5250G01 Y98.4 Z-0.325
N5260G01 Y98.6 Z-0.316
N5270G01 Y98.8 Z-0.316
N5280G01 Y99 Z-0.325
N5290G01 Y99.2 Z-0.316
N5300G01 Y101.8 Z-0.316
N5310G01 Y102 Z-0.327
N5320G01 Y102.2 Z-0.316
N5330G01 Y104.6 Z-0.316
N5340G01 Y104.8 Z-0.325
N5350G01 Y105 Z-0.316
N5360G01 Y105.4 Z-0.316
N5370G01 Y105.6 Z-0.325
N5380G01 Y105.8 Z-0.316
N5390G01 Y106 Z-0.325
N5400G01 Y106.2 Z-0.316
N5410G01 Y106.8 Z-0.316
N5420G01 Y107 Z-0.324
N5430G01 Y107.2 Z-0.316
N5440G01 Y107.4 Z-0.327
N5450G01 Y107.6 Z-0.316
N5460G01 Y107.8 Z-0.325
N5470G01 Y108 Z-0.316
N5480G01 Y109.8 Z-0.316
N5490G01 Y110 Z-0.325
N5500G01 Y110.2 Z-0.325
N5510G01 Y110.4 Z-0.316
N5520G01 Y115.2 Z-0.316
N5530G01 Y115.4 Z-0.325
N5540G01 Y115.6 Z-0.316
N5550G01 Y118.2 Z-0.316
N5560G01 Y118.4 Z-0.327
N5570G01 Y118.6 Z-0.316
N5580G01 Y120.4 Z-0.316
N5590G01 Y120.6 Z-0.325
N5600G01 Y120.8 Z-0.316
N5610G01 Y121 Z-0.316
N5620G01 Y121.2 Z-0.325
N5630G01 Y121.4 Z-0.316
N5640G01 Y122.2 Z-0.316
N5650G01 Y122.4 Z-0.325
N5660G01 Y122.6 Z-0.325
N5670G01 Y122.8 Z-0.316
N5680G01 Y124.8 Z-0.316
N5690G01 Y125 Z-0.325
N5700G01 Y125.2 Z-0.316
N5710G01 Y126.2 Z-0.316
N5720G01 Y126.4 Z-0.324
N5730G01 Y126.6 Z-0.316
N5740G01 Y127.601 Z-0.316
N5750G01 Y127.801 Z-0.325
N5760G01 Y128.001 Z-0.316
N5770G01 Y129.401 Z-0.316
N5780G01 Y129.601 Z-0.325
N5790G01 Y129.801 Z-0.316
N5800G01 Y130.401 Z-0.316
N5810G01 Y130.601 Z-0.327
N5820G01 Y130.801 Z-0.316
N5830G01 Y135.601 Z-0.316
N5840G01 Y135.801 Z-0.327
N5850G01 Y136.001 Z-0.316
N5860G01 Y136.201 Z-0.316
N5870G01 Y136.401 Z-0.325
N5880G01 Y136.601 Z-0.327
N5890G01 Y136.801 Z-0.316
N5900G01 Y137.801 Z-0.316
N5910G01 Y138.001 Z-0.325
N5920G01 Y138.201 Z-0.316
N5930G01 Y140.601 Z-0.316
N5940G01 Y140.801 Z-0.325
N5950G01 Y141.001 Z-0.316
N5960G01 Y141.401 Z-0.316
N5970G01 Y141.601 Z-0.325
N5980G01 Y141.801 Z-0.316
N5990G01 Y142.001 Z-0.316
N6000G01 Y142.201 Z-0.325
N6010G01 Y142.401 Z-0.316
N6020G01 Y143.401 Z-0.316
N6030G01 Y143.601 Z-0.327
N6040G01 Y143.801 Z-0.316
N6050G01 Y147.201 Z-0.316
N6060G01 Y147.401 Z-0.325
N6070G01 Y147.601 Z-0.316
N6080G01 Y148.601 Z-0.316
N6090G01 Y148.801 Z-0.325
N6100G01 Y149.001 Z-0.316
N6110G01 Y149.201 Z-0.325
N6120G01 Y149.401 Z-0.316
N6130G01 Y150.001 Z-0.316
N6140G01 Y150.201 Z-0.325
N6150G01 Y150.401 Z-0.316
N6160G01 Y152.601 Z-0.316
N6170G01 Y152.801 Z-0.327
N6180G01 Y153.001 Z-0.316
N6190G01 Y158.401 Z-0.316
N6200G01 Y158.601 Z-0.327
N6210G01 Y158.801 Z-0.316
N6220G01 Y159.601 Z-0.316
N6230G01 Y159.801 Z-0.327
N6240G01 Y160.001 Z-0.325
N6250G01 Y160.201 Z-0.316
N6260G01 Y161.201 Z-0.316
N6270G01 Y161.401 Z-0.327
N6280G01 Y161.601 Z-0.316
N6290G01 Y162.601 Z-0.316
N6300G01 Y162.801 Z-0.325
N6310G01 Y163.001 Z-0.316
N6320G01 Y164.001 Z-0.316
N6330G01 Y164.201 Z-0.325
N6340G01 Y164.401 Z-0.316
N6350G01 Y165.001 Z-0.316
N6360G01 Y165.201 Z-0.327
N6370G01 Y165.401 Z-0.327
N6380G01 Y165.601 Z-0.316
N6390G01 Y166.401 Z-0.316
N6400G01 Y166.601 Z-0.327
N6410G01 Y166.801 Z-0.316
N6420G01 Y167.001 Z-0.325
N6430G01 Y167.201 Z-0.316
N6440G01 Y167.801 Z-0.316
N6450G01 Y168.001 Z-0.325
N6460G01 Y168.201 Z-0.316
N6470G01 Y169.201 Z-0.316
N6480G01 Y169.401 Z-0.325
N6490G01 Y169.601 Z-0.316
N6500G01 Y169.801 Z-0.327
N6510G01 Y170.001 Z-0.316
N6520G01 Y170.801 Z-0.316
N6530G01 Y171.001 Z-0.327
N6540G01 Y171.201 Z-0.325
N6550G01 Y171.401 Z-0.316
N6560G01 Y172.401 Z-0.316
N6570G01 Y172.601 Z-0.327
N6580G01 Y172.801 Z-0.316
N6590G01 Y173.401 Z-0.316
N6600G01 Y173.601 Z-0.327
N6610G01 Y173.801 Z-0.316
N6620G01 Y174.801 Z-0.316
N6630G01 Y175.001 Z-0.325
N6640G01 Y175.201 Z-0.316
N6650G01 Y175.401 Z-0.327
N6660G01 Y175.601 Z-0.316
N6670G01 Y176.601 Z-0.316
N6680G01 Y176.801 Z-0.327
N6690G01 Y177.001 Z-0.316
N6700G01 Y177.401 Z-0.316
N6710G01 Y177.601 Z-0.327
N6720G01 Y177.801 Z-0.325
N6730G01 Y178.001 Z-0.316
N6740G01 Y178.201 Z-0.325
N6750G01 Y178.401 Z-0.316
N6760G01 Y179.401 Z-0.316
N6770G01 Y179.601 Z-0.327
N6780G01 Y179.801 Z-0.316
N6790G01 Y180.201 Z-0.316
N6800G01 Y180.401 Z-0.327
N6810G01 Y180.601 Z-0.316
N6820G01 Y180.801 Z-0.316
N6830G01 Y181.001 Z-0.327
N6840G01 Y181.201 Z-0.316
N6850G01 Y181.401 Z-0.316
N6860G01 Y181.601 Z-0.325
N6870G01 Y181.801 Z-0.327
N6880G01 Y182.001 Z-0.325
N6890G01 Y182.201 Z-0.316
N6900G01 Y182.401 Z-0.327
N6910G01 Y182.601 Z-0.327
N6920G01 Y182.801 Z-0.316
N6930G01 Y183.001 Z-0.316
N6940G01 Y183.201 Z-0.327
N6950G01 Y183.401 Z-0.316
N6960G01 Y183.601 Z-0.316
N6970G01 Y183.801 Z-0.327
N6980G01 Y184.001 Z-0.316
N6990G01 Y185.601 Z-0.316
N7000G01 Y185.801 Z-0.327
N7010G01 Y186.002 Z-0.316
N7020G01 Y187.402 Z-0.316
N7030G01 Y187.602 Z-0.327
N7040G01 Y187.802 Z-0.316
N7050G01 Y191.402 Z-0.316
N7060G01 Y191.602 Z-0.325
N7070G01 Y191.802 Z-0.316
N7080G01 Y192.802 Z-0.316
N7090G01 Y193.002 Z-0.327
N7100G01 Y193.202 Z-0.316
N7110G01 Y194.002 Z-0.316
N7120G01 Y194.202 Z-0.327
N7130G01 Y194.402 Z-0.327
N7140G01 Y194.602 Z-0.325
N7150G01 Y194.802 Z-0.316
N7160G01 Y195.602 Z-0.316
N7170G01 Y195.802 Z-0.325
N7180G01 Y196.002 Z-0.316
N7190G01 Y196.202 Z-0.325
N7200G01 Y196.402 Z-0.316
N7210G01 Y198.002 Z-0.316
N7220G01 Y198.202 Z-0.325
N7230G01 Y198.402 Z-0.325
N7240G01 Y198.602 Z-0.316
N7250G01 Y201.002 Z-0.316
N7260G01 Y201.202 Z-0.327
N7270G01 Y201.402 Z-0.325
N7280G01 Y201.602 Z-0.316
N7290G01 Y202.402 Z-0.316
N7300G01 Y202.602 Z-0.325
N7310G01 Y202.802 Z-0.327
N7320G01 Y203.002 Z-0.316
N7330G01 Y204.402 Z-0.316
N7340G01 Y204.602 Z-0.327
N7350G01 Y204.802 Z-0.316
N7360G01 Y205.202 Z-0.316
N7370G01 Y205.402 Z-0.327
N7380G01 Y205.602 Z-0.316
N7390G01 Y208.002 Z-0.316
N7400G01 Y208.202 Z-0.325
N7410G01 Y208.402 Z-0.316
N7420G01 Y209.602 Z-0.316
N7430G01 Y209.802 Z-0.327
N7440G01 Y210.002 Z-0.316
N7450G01 Y210.202 Z-0.325
N7460G01 Y210.402 Z-0.316
N7470G01 Y210.802 Z-0.316
N7480G01 Y211.002 Z-0.325
N7490G01 Y211.202 Z-0.316
N7500G01 Y212.202 Z-0.316
N7510G01 Y212.402 Z-0.327
N7520G01 Y212.602 Z-0.316
N7530G01 Y213.602 Z-0.316
N7540G01 Y213.802 Z-0.327
N7550G01 Y214.002 Z-0.316
N7560G01 Y214.202 Z-0.316
N7570G01 Y214.402 Z-0.327
N7580G01 Y214.602 Z-0.316
N7590G01 Y216.402 Z-0.316
N7600G01 Y216.602 Z-0.327
N7610G01 Y216.802 Z-0.316
N7620G01 Y217.602 Z-0.316
N7630G01 Y217.802 Z-0.327
N7640G01 Y218.002 Z-0.316
N7650G01 Y220.202 Z-0.316
N7660G01 Y220.402 Z-0.327
N7670G01 Y220.602 Z-0.327
N7680G01 Y220.802 Z-0.316
N7690G01 Y222.002 Z-0.316
N7700G01 Y222.202 Z-0.325
N7710G01 Y222.402 Z-0.316
N7720G01 Y224.602 Z-0.316
N7730G01 Y224.802 Z-0.325
N7740G01 Y225.002 Z-0.316
N7750G01 Y227.202 Z-0.316
N7760G01 Y227.402 Z-0.325
N7770G01 Y227.602 Z-0.316
N7780G01 Y228.802 Z-0.316
N7790G01 Y229.002 Z-0.325
N7800G01 Y229.202 Z-0.316
N7810G01 Y231.002 Z-0.316
N7820G01 Y231.202 Z-0.327
N7830G01 Y231.402 Z-0.316
N7840G01 Y231.602 Z-0.316
N7850G01 Y231.802 Z-0.325
N7860G01 Y232.002 Z-0.316
N7870G01 Y234.402 Z-0.316
N7880G01 Y234.602 Z-0.325
N7890G01 Y234.802 Z-0.316
N7900G01 Y235.602 Z-0.316
N7910G01 Y235.802 Z-0.325
N7920G01 Y236.002 Z-0.316
N7930G01 Y238.402 Z-0.316
N7940G01 Y238.602 Z-0.325
N7950G01 Y238.802 Z-0.316
N7960G01 Y243.802 Z-0.316
N7970G01 Y244.002 Z-0.325
N7980G01 Y244.202 Z-0.316
N7990G01 Y246.803 Z-0.316
N8000G01 Y247.003 Z-0.325
N8010G01 Y247.203 Z-0.316
N8020G01 Y248.003 Z-0.316
N8030G01 Y248.203 Z-0.325
N8040G01 Y248.403 Z-0.327
N8050G01 Y248.603 Z-0.316
N8060G01 Y249.603 Z-0.316
N8070G01 Y249.803 Z-0.324
N8080G01 Y250.003 Z-0.316
N8090G01 Y250.803 Z-0.316
N8100G01 Y251.003 Z-0.327
N8110G01 Y251.203 Z-0.316
N8120G01 Y251.803 Z-0.316
N8130G01 Y252.003 Z-0.325
N8140G01 Y252.203 Z-0.316
N8150G01 Y254.603 Z-0.316
N8160G01 Y254.803 Z-0.325
N8170G01 Y255.003 Z-0.327
N8180G01 Y255.203 Z-0.316
N8190G01 Y258.003 Z-0.316
N8200G01 Y258.203 Z-0.325
N8210G01 Y258.403 Z-0.316
N8220G01 Y259.003 Z-0.316
N8230G01 Y259.203 Z-0.327
N8240G01 Y259.403 Z-0.327
N8250G01 Y259.603 Z-0.316
N8260G01 Y259.803 Z-0.325
N8270G01 Y260.003 Z-0.316
N8280G01 Y260.603 Z-0.316
N8290G01 Y260.803 Z-0.325
N8300G01 Y261.003 Z-0.327
N8310G01 Y261.203 Z-0.325
N8320G01 Y261.403 Z-0.316
N8330G01 Y263.603 Z-0.316
N8340G01 Y263.803 Z-0.324
N8350G01 Y264.003 Z-0.316
N8360G01 Y264.203 Z-0.325
N8370G01 Y264.403 Z-0.316
N8380G01 Y264.603 Z-0.316
N8390G01 Y264.803 Z-0.325
N8400G01 Y265.003 Z-0.316
N8410G01 Y265.203 Z-0.326
N8420G01 Y265.403 Z-0.325
N8430G01 Y265.603 Z-0.316
N8440G01 Y266.003 Z-0.316
N8450G01 Y266.203 Z-0.325
N8460G01 Y266.403 Z-0.316
N8470G01 Y266.603 Z-0.316
N8480G01 Y266.803 Z-0.324
N8490G01 Y267.003 Z-0.324
N8500G01 Y267.203 Z-0.316
N8510G01 Y267.403 Z-0.316
N8520G01 Y267.603 Z-0.324
N8530G01 Y267.803 Z-0.323
N8540G01 Y268.003 Z-0.316
N8550G01 Y268.603 Z-0.316
N8560G01 Y268.803 Z-0.323
N8570G01 Y269.003 Z-0.316
N8580G01 Y270.003 Z-0.316
N8590G01 Y270.203 Z-0.322
N8600G01 Y270.403 Z-0.316
N8610G01 Y270.803 Z-0.318
N8620G01 Y271.003 Z-0.321
N8630G01 Y271.203 Z-0.316
N8640G01 Y271.803 Z-0.316
N8650G01 Y272.003 Z-0.321
N8660G01 Y272.203 Z-0.321
N8670G01 Y272.403 Z-0.316
N8680G01 Y273.003 Z-0.316
N8690G01 Y273.203 Z-0.32
N8700G01 Y273.403 Z-0.316
N8710G01 Y275.203 Z-0.316
N8720G01 Y275.403 Z-0.319
N8730G01 Y275.603 Z-0.316
N8740G01 Y276.003 Z-0.316
N8750G01 Y276.203 Z-0.319
N8760G01 Y276.403 Z-0.316
N8770G01 Y277.803 Z-0.316
N8780G01 Y278.003 Z-0.318
N8790G01 Y279.003 Z-0.316
N8800G01 Y279.203 Z-0.318
N8810G01 Y279.603 Z-0.316
N8820G01 Y279.803 Z-0.317
N8830G01 Y280.203 Z-0.316
N8840G01 Y280.403 Z-0.317
N8850G01 Y300.403 Z-0.316
N8860G01 Y300.803 Z-0.317
N8870G01 Y302.203 Z-0.316
N8880G01 Y302.403 Z-0.317
N8890G01 Y302.603 Z-0.316
N8900G01 Y302.803 Z-0.317
N8910G01 Y304.403 Z-0.316
N8920G01 Y304.603 Z-0.318
N8930G01 Y305.204 Z-0.316
N8940G01 Y305.404 Z-0.318
N8950G01 Y306.404 Z-0.316
N8960G01 Y306.604 Z-0.318
N8970G01 Y306.804 Z-0.316
N8980G01 Y307.204 Z-0.318
N8990G01 Y307.404 Z-0.316
N9000G01 Y309.604 Z-0.316
N9010G01 Y309.804 Z-0.319
N9020G01 Y310.004 Z-0.316
N9030G01 Y311.204 Z-0.316
N9040G01 Y311.404 Z-0.319
N9050G01 Y311.604 Z-0.316
N9060G01 Y311.804 Z-0.316
N9070G01 Y312.004 Z-0.319
N9080G01 Y312.204 Z-0.316
N9090G01 Y312.404 Z-0.319
N9100G01 Y312.604 Z-0.316
N9110G01 Y315.404 Z-0.316
N9120G01 Y315.604 Z-0.319
N9130G01 Y315.804 Z-0.32
N9140G01 Y316.004 Z-0.316
N9150G01 Y316.204 Z-0.32
N9160G01 Y316.404 Z-0.316
N9170G01 Y318.204 Z-0.316
N9180G01 Y318.404 Z-0.32
N9190G01 Y318.604 Z-0.316
N9200G01 Y320.404 Z-0.316
N9210G01 Y320.604 Z-0.32
N9220G01 Y320.804 Z-0.316
N9230G01 Y321.004 Z-0.316
N9240G01 Y321.204 Z-0.321
N9250G01 Y321.404 Z-0.321
N9260G01 Y321.604 Z-0.316
N9270G01 Y321.804 Z-0.316
N9280G01 Y322.004 Z-0.321
N9290G01 Y322.204 Z-0.316
N9300G01 Y322.404 Z-0.321
N9310G01 Y322.604 Z-0.316
N9320G01 Y323.004 Z-0.316
N9330G01 Y323.204 Z-0.321
N9340G01 Y323.604 Z-0.322
N9350G01 Y323.804 Z-0.316
N9360G01 Y324.004 Z-0.322
N9370G01 Y324.204 Z-0.316
N9380G01 Y324.404 Z-0.321
N9390G01 Y324.604 Z-0.316
N9400G01 Y324.804 Z-0.316
N9410G01 Y325.004 Z-0.322
N9420G01 Y325.204 Z-0.316
N9430G01 Y325.404 Z-0.316
N9440G01 Y325.604 Z-0.322
N9450G01 Y325.804 Z-0.316
N9460G01 Y326.004 Z-0.316
N9470G01 Y326.204 Z-0.321
N9480G01 Y326.404 Z-0.316
N9490G01 Y326.604 Z-0.316
N9500G01 Y326.804 Z-0.322
N9510G01 Y327.404 Z-0.322
N9520G01 Y327.604 Z-0.316
N9530G01 Y330.404 Z-0.316
N9540G01 Y330.604 Z-0.322
N9550G01 Y330.804 Z-0.323
N9560G01 Y331.004 Z-0.316
N9570G01 Y331.204 Z-0.323
N9580G01 Y331.404 Z-0.316
N9590G01 Y336.004 Z-0.316
N9600G01 Y336.204 Z-0.323
N9610G01 Y336.404 Z-0.316
N9620G01 Y336.804 Z-0.316
N9630G01 Y337.004 Z-0.323
N9640G01 Y337.204 Z-0.323
N9650G01 Y337.404 Z-0.316
N9660G01 Y337.604 Z-0.316
N9670G01 Y337.804 Z-0.323
N9680G01 Y338.004 Z-0.316
N9690G01 Y343.804 Z-0.316
N9700G01 Y344.004 Z-0.324
N9710G01 Y344.204 Z-0.316
N9720G01 Y350.004 Z-0.316
N9730G01 Y350.204 Z-0.32
N9740G01 Y350.404 Z-0.329
N9750G01 Y350.604 Z-0.348
N9760G01 Y350.804 Z-0.377
N9770G01 Y351.004 Z-0.424
N9780G01 Y351.204 Z-0.51
N9790 G00 Z9.999
N9800 G00 X10.583 Y-1.399
N9810G01 Z-1 F500
N9820G01 Y-1.199 Z-0.637 F1000
N9830G01 Y-0.999 Z-0.543
N9840G01 Y-0.799 Z-0.493
N9850G01 Y-0.599 Z-0.46
N9860G01 Y-0.399 Z-0.44
N9870G01 Y-0.199 Z-0.429
N9880G01 Y0 Z-0.425
N9890G01 Y68.6 Z-0.425
N9900G01 Y68.8 Z-0.448
N9910G01 Y69 Z-0.425
N9920G01 Y121.4 Z-0.425
N9930G01 Y121.6 Z-0.426
N9940G01 Y122.6 Z-0.425
N9950G01 Y122.8 Z-0.426
N9960G01 Y125.4 Z-0.425
N9970G01 Y125.6 Z-0.427
N9980G01 Y125.8 Z-0.425
N9990G01 Y128.201 Z-0.425
N10000G01 Y128.401 Z-0.428
N10010G01 Y128.601 Z-0.425
N10020G01 Y128.801 Z-0.428
N10030G01 Y129.001 Z-0.425
N10040G01 Y129.601 Z-0.425
N10050G01 Y129.801 Z-0.428
N10060G01 Y130.201 Z-0.428
N10070G01 Y130.401 Z-0.425
N10080G01 Y131.001 Z-0.425
N10090G01 Y131.201 Z-0.428
N10100G01 Y131.401 Z-0.425
N10110G01 Y132.401 Z-0.425
N10120G01 Y132.601 Z-0.429
N10130G01 Y132.801 Z-0.428
N10140G01 Y133.001 Z-0.425
N10150G01 Y135.801 Z-0.425
N10160G01 Y136.001 Z-0.429
N10170G01 Y136.201 Z-0.425
N10180G01 Y136.601 Z-0.425
N10190G01 Y136.801 Z-0.429
N10200G01 Y137.001 Z-0.425
N10210G01 Y137.601 Z-0.425
N10220G01 Y137.801 Z-0.429
N10230G01 Y138.001 Z-0.425
N10240G01 Y139.001 Z-0.425
N10250G01 Y139.201 Z-0.429
N10260G01 Y139.401 Z-0.425
N10270G01 Y140.801 Z-0.425
N10280G01 Y141.001 Z-0.429
N10290G01 Y141.201 Z-0.425
N10300G01 Y141.801 Z-0.425
N10310G01 Y142.001 Z-0.43
N10320G01 Y142.201 Z-0.425
N10330G01 Y142.401 Z-0.425
N10340G01 Y142.601 Z-0.431
N10350G01 Y142.801 Z-0.43
N10360G01 Y143.001 Z-0.425
N10370G01 Y143.801 Z-0.425
N10380G01 Y144.001 Z-0.43
N10390G01 Y144.201 Z-0.425
N10400G01 Y144.601 Z-0.425
N10410G01 Y144.801 Z-0.431
N10420G01 Y145.001 Z-0.425
N10430G01 Y145.201 Z-0.431
N10440G01 Y145.401 Z-0.425
N10450G01 Y146.001 Z-0.425
N10460G01 Y146.201 Z-0.431
N10470G01 Y146.401 Z-0.425
N10480G01 Y147.401 Z-0.425
N10490G01 Y147.601 Z-0.432
N10500G01 Y147.801 Z-0.425
N10510G01 Y148.801 Z-0.425
N10520G01 Y149.001 Z-0.431
N10530G01 Y149.201 Z-0.425
N10540G01 Y150.201 Z-0.425
N10550G01 Y150.401 Z-0.432
N10560G01 Y150.601 Z-0.425
N10570G01 Y150.801 Z-0.432
N10580G01 Y151.001 Z-0.425
N10590G01 Y152.001 Z-0.425
N10600G01 Y152.201 Z-0.432
N10610G01 Y152.401 Z-0.425
N10620G01 Y153.001 Z-0.425
N10630G01 Y153.201 Z-0.433
N10640G01 Y153.401 Z-0.425
N10650G01 Y155.801 Z-0.425
N10660G01 Y156.001 Z-0.433
N10670G01 Y156.201 Z-0.425
N10680G01 Y156.401 Z-0.425
N10690G01 Y156.601 Z-0.433
N10700G01 Y156.801 Z-0.425
N10710G01 Y157.201 Z-0.425
N10720G01 Y157.401 Z-0.433
N10730G01 Y157.601 Z-0.425
N10740G01 Y159.001 Z-0.425
N10750G01 Y159.201 Z-0.433
N10760G01 Y159.401 Z-0.425
N10770G01 Y160.001 Z-0.425
N10780G01 Y160.201 Z-0.435
N10790G01 Y160.401 Z-0.425
N10800G01 Y160.601 Z-0.433
N10810G01 Y160.801 Z-0.425
N10820G01 Y164.201 Z-0.425
N10830G01 Y164.401 Z-0.436
N10840G01 Y164.601 Z-0.436
N10850G01 Y164.801 Z-0.425
N10860G01 Y165.601 Z-0.425
N10870G01 Y165.801 Z-0.436
N10880G01 Y166.201 Z-0.435
N10890G01 Y166.401 Z-0.425
N10900G01 Y167.001 Z-0.425
N10910G01 Y167.201 Z-0.435
N10920G01 Y167.401 Z-0.425
N10930G01 Y172.201 Z-0.425
N10940G01 Y172.401 Z-0.436
N10950G01 Y172.601 Z-0.425
N10960G01 Y172.801 Z-0.435
N10970G01 Y173.001 Z-0.425
N10980G01 Y173.601 Z-0.425
N10990G01 Y173.801 Z-0.436
N11000G01 Y174.001 Z-0.425
N11010G01 Y175.001 Z-0.425
N11020G01 Y175.201 Z-0.436
N11030G01 Y175.401 Z-0.425
N11040G01 Y176.401 Z-0.425
N11050G01 Y176.601 Z-0.437
N11060G01 Y176.801 Z-0.425
N11070G01 Y183.401 Z-0.425
N11080G01 Y183.601 Z-0.438
N11090G01 Y183.801 Z-0.425
N11100G01 Y185.001 Z-0.425
N11110G01 Y185.201 Z-0.438
N11120G01 Y185.401 Z-0.425
N11130G01 Y193.402 Z-0.425
N11140G01 Y193.602 Z-0.442
N11150G01 Y193.802 Z-0.425
N11160G01 Y194.802 Z-0.425
N11170G01 Y195.002 Z-0.44
N11180G01 Y195.202 Z-0.425
N11190G01 Y196.202 Z-0.425
N11200G01 Y196.402 Z-0.44
N11210G01 Y196.602 Z-0.425
N11220G01 Y204.402 Z-0.425
N11230G01 Y204.602 Z-0.442
N11240G01 Y204.802 Z-0.425
N11250G01 Y211.602 Z-0.425
N11260G01 Y211.802 Z-0.444
N11270G01 Y212.002 Z-0.425
N11280G01 Y218.402 Z-0.425
N11290G01 Y218.602 Z-0.445
N11300G01 Y218.802 Z-0.425
N11310G01 Y221.202 Z-0.425
N11320G01 Y221.402 Z-0.444
N11330G01 Y221.602 Z-0.425
N11340G01 Y233.602 Z-0.425
N11350G01 Y233.802 Z-0.448
N11360G01 Y234.002 Z-0.425
N11370G01 Y239.002 Z-0.425
N11380G01 Y239.202 Z-0.449
N11390G01 Y239.402 Z-0.425
N11400G01 Y278.803 Z-0.425
N11410G01 Y279.003 Z-0.456
N11420G01 Y279.203 Z-0.457
N11430G01 Y279.403 Z-0.425
N11440G01 Y285.803 Z-0.425
N11450G01 Y286.003 Z-0.458
N11460G01 Y286.203 Z-0.425
N11470G01 Y296.003 Z-0.425
N11480G01 Y296.203 Z-0.459
N11490G01 Y296.403 Z-0.425
N11500G01 Y296.603 Z-0.425
N11510G01 Y296.803 Z-0.46
N11520G01 Y297.003 Z-0.425
N11530G01 Y304.603 Z-0.425
N11540G01 Y304.803 Z-0.462
N11550G01 Y305.004 Z-0.425
N11560G01 Y350.004 Z-0.425
N11570G01 Y350.204 Z-0.429
N11580G01 Y350.404 Z-0.44
N11590G01 Y350.604 Z-0.461
N11600G01 Y350.804 Z-0.493
N11610G01 Y351.004 Z-0.545
N11620G01 Y351.204 Z-0.639
N11630 G00 Z9.999
N11640 G00 X11.083 Y-1.399
N11650G01 Z-1 F500
N11660G01 Y-1.199 Z-0.78 F1000
N11670G01 Y-0.999 Z-0.678
N11680G01 Y-0.799 Z-0.622
N11690G01 Y-0.599 Z-0.586
N11700G01 Y-0.399 Z-0.563
N11710G01 Y-0.199 Z-0.551
N11720G01 Y0 Z-0.546
N11730G01 Y84.8 Z-0.546
N11740G01 Y85 Z-0.558
N11750G01 Y85.2 Z-0.546
N11760G01 Y93.4 Z-0.546
N11770G01 Y93.6 Z-0.561
N11780G01 Y93.8 Z-0.546
N11790G01 Y96 Z-0.546
N11800G01 Y96.2 Z-0.558
N11810G01 Y96.4 Z-0.546
N11820G01 Y104.6 Z-0.546
N11830G01 Y104.8 Z-0.558
N11840G01 Y105 Z-0.546
N11850G01 Y106.8 Z-0.546
N11860G01 Y107 Z-0.561
N11870G01 Y107.2 Z-0.546
N11880G01 Y111.2 Z-0.546
N11890G01 Y111.4 Z-0.558
N11900G01 Y111.6 Z-0.546
N11910G01 Y114 Z-0.546
N11920G01 Y114.2 Z-0.558
N11930G01 Y114.4 Z-0.546
N11940G01 Y121 Z-0.546
N11950G01 Y121.2 Z-0.561
N11960G01 Y121.4 Z-0.546
N11970G01 Y122.4 Z-0.546
N11980G01 Y122.6 Z-0.558
N11990G01 Y122.8 Z-0.546
N12000G01 Y133.601 Z-0.546
N12010G01 Y133.801 Z-0.561
N12020G01 Y134.001 Z-0.546
N12030G01 Y135.001 Z-0.546
N12040G01 Y135.201 Z-0.561
N12050G01 Y135.401 Z-0.546
N12060G01 Y140.201 Z-0.546
N12070G01 Y140.401 Z-0.558
N12080G01 Y140.601 Z-0.546
N12090G01 Y148.401 Z-0.546
N12100G01 Y148.601 Z-0.56
N12110G01 Y148.801 Z-0.546
N12120G01 Y149.401 Z-0.546
N12130G01 Y149.601 Z-0.548
N12140G01 Y154.201 Z-0.546
N12150G01 Y154.401 Z-0.558
N12160G01 Y154.601 Z-0.546
N12170G01 Y157.001 Z-0.546
N12180G01 Y157.201 Z-0.56
N12190G01 Y157.401 Z-0.546
N12200G01 Y158.401 Z-0.546
N12210G01 Y158.601 Z-0.56
N12220G01 Y158.801 Z-0.546
N12230G01 Y159.601 Z-0.546
N12240G01 Y159.801 Z-0.558
N12250G01 Y160.001 Z-0.56
N12260G01 Y160.201 Z-0.546
N12270G01 Y160.801 Z-0.546
N12280G01 Y161.001 Z-0.558
N12290G01 Y161.201 Z-0.546
N12300G01 Y163.601 Z-0.546
N12310G01 Y163.801 Z-0.558
N12320G01 Y164.001 Z-0.546
N12330G01 Y165.001 Z-0.546
N12340G01 Y165.201 Z-0.558
N12350G01 Y165.401 Z-0.546
N12360G01 Y166.001 Z-0.546
N12370G01 Y166.201 Z-0.558
N12380G01 Y166.401 Z-0.546
N12390G01 Y166.801 Z-0.546
N12400G01 Y167.001 Z-0.56
N12410G01 Y167.201 Z-0.546
N12420G01 Y171.001 Z-0.546
N12430G01 Y171.201 Z-0.56
N12440G01 Y171.401 Z-0.546
N12450G01 Y172.401 Z-0.546
N12460G01 Y172.601 Z-0.56
N12470G01 Y172.801 Z-0.546
N12480G01 Y175.201 Z-0.546
N12490G01 Y175.401 Z-0.558
N12500G01 Y175.601 Z-0.546
N12510G01 Y176.601 Z-0.546
N12520G01 Y176.801 Z-0.56
N12530G01 Y177.001 Z-0.546
N12540G01 Y179.401 Z-0.546
N12550G01 Y179.601 Z-0.558
N12560G01 Y179.801 Z-0.546
N12570G01 Y180.201 Z-0.546
N12580G01 Y180.401 Z-0.56
N12590G01 Y180.601 Z-0.546
N12600G01 Y182.201 Z-0.546
N12610G01 Y182.401 Z-0.558
N12620G01 Y182.601 Z-0.546
N12630G01 Y187.202 Z-0.546
N12640G01 Y187.402 Z-0.558
N12650G01 Y187.602 Z-0.546
N12660G01 Y189.602 Z-0.546
N12670G01 Y189.802 Z-0.558
N12680G01 Y190.002 Z-0.546
N12690G01 Y196.002 Z-0.546
N12700G01 Y196.202 Z-0.56
N12710G01 Y196.402 Z-0.546
N12720G01 Y196.602 Z-0.546
N12730G01 Y196.802 Z-0.558
N12740G01 Y197.002 Z-0.546
N12750G01 Y201.202 Z-0.546
N12760G01 Y201.402 Z-0.558
N12770G01 Y201.602 Z-0.546
N12780G01 Y202.402 Z-0.546
N12790G01 Y202.602 Z-0.558
N12800G01 Y202.802 Z-0.546
N12810G01 Y208.002 Z-0.546
N12820G01 Y208.202 Z-0.56
N12830G01 Y208.402 Z-0.546
N12840G01 Y217.602 Z-0.546
N12850G01 Y217.802 Z-0.558
N12860G01 Y218.002 Z-0.546
N12870G01 Y219.202 Z-0.546
N12880G01 Y219.402 Z-0.56
N12890G01 Y219.602 Z-0.546
N12900G01 Y220.002 Z-0.546
N12910G01 Y220.202 Z-0.558
N12920G01 Y220.402 Z-0.56
N12930G01 Y220.602 Z-0.546
N12940G01 Y230.002 Z-0.546
N12950G01 Y230.202 Z-0.554
N12960G01 Y230.402 Z-0.546
N12970G01 Y231.602 Z-0.546
N12980G01 Y231.802 Z-0.558
N12990G01 Y232.002 Z-0.546
N13000G01 Y232.802 Z-0.546
N13010G01 Y233.002 Z-0.558
N13020G01 Y233.202 Z-0.546
N13030G01 Y239.802 Z-0.546
N13040G01 Y240.002 Z-0.56
N13050G01 Y240.202 Z-0.546
N13060G01 Y245.203 Z-0.546
N13070G01 Y245.403 Z-0.558
N13080G01 Y245.603 Z-0.546
N13090G01 Y249.403 Z-0.546
N13100G01 Y249.603 Z-0.56
N13110G01 Y249.803 Z-0.546
N13120G01 Y254.803 Z-0.546
N13130G01 Y255.003 Z-0.558
N13140G01 Y255.203 Z-0.546
N13150G01 Y257.003 Z-0.546
N13160G01 Y257.203 Z-0.56
N13170G01 Y257.403 Z-0.546
N13180G01 Y258.603 Z-0.546
N13190G01 Y258.803 Z-0.557
N13200G01 Y259.003 Z-0.546
N13210G01 Y260.603 Z-0.546
N13220G01 Y260.803 Z-0.556
N13230G01 Y261.003 Z-0.546
N13240G01 Y261.203 Z-0.546
N13250G01 Y261.403 Z-0.555
N13260G01 Y261.603 Z-0.546
N13270G01 Y261.803 Z-0.546
N13280G01 Y262.003 Z-0.555
N13290G01 Y262.203 Z-0.546
N13300G01 Y262.603 Z-0.546
N13310G01 Y262.803 Z-0.554
N13320G01 Y263.003 Z-0.546
N13330G01 Y263.203 Z-0.546
N13340G01 Y263.403 Z-0.554
N13350G01 Y263.603 Z-0.546
N13360G01 Y263.803 Z-0.546
N13370G01 Y264.003 Z-0.553
N13380G01 Y264.203 Z-0.546
N13390G01 Y265.003 Z-0.546
N13400G01 Y265.203 Z-0.552
N13410G01 Y265.403 Z-0.552
N13420G01 Y265.603 Z-0.546
N13430G01 Y270.803 Z-0.546
N13440G01 Y271.003 Z-0.549
N13450G01 Y271.203 Z-0.546
N13460G01 Y272.403 Z-0.546
N13470G01 Y272.603 Z-0.549
N13480G01 Y272.803 Z-0.546
N13490G01 Y295.003 Z-0.547
N13500G01 Y296.003 Z-0.546
N13510G01 Y296.203 Z-0.548
N13520G01 Y303.003 Z-0.546
N13530G01 Y303.203 Z-0.549
N13540G01 Y303.603 Z-0.549
N13550G01 Y303.803 Z-0.546
N13560G01 Y305.004 Z-0.546
N13570G01 Y305.204 Z-0.549
N13580G01 Y305.404 Z-0.546
N13590G01 Y305.604 Z-0.549
N13600G01 Y305.804 Z-0.549
N13610G01 Y306.004 Z-0.546
N13620G01 Y306.204 Z-0.55
N13630G01 Y306.404 Z-0.546
N13640G01 Y308.004 Z-0.546
N13650G01 Y308.204 Z-0.55
N13660G01 Y308.404 Z-0.546
N13670G01 Y308.604 Z-0.55
N13680G01 Y308.804 Z-0.546
N13690G01 Y310.804 Z-0.546
N13700G01 Y311.004 Z-0.55
N13710G01 Y311.204 Z-0.546
N13720G01 Y311.804 Z-0.546
N13730G01 Y312.004 Z-0.551
N13740G01 Y312.204 Z-0.546
N13750G01 Y314.204 Z-0.546
N13760G01 Y314.404 Z-0.551
N13770G01 Y314.604 Z-0.546
N13780G01 Y314.804 Z-0.551
N13790G01 Y315.004 Z-0.551
N13800G01 Y315.204 Z-0.546
N13810G01 Y316.604 Z-0.546
N13820G01 Y316.804 Z-0.552
N13830G01 Y317.004 Z-0.546
N13840G01 Y324.004 Z-0.546
N13850G01 Y324.204 Z-0.553
N13860G01 Y324.404 Z-0.546
N13870G01 Y336.604 Z-0.546
N13880G01 Y336.804 Z-0.556
N13890G01 Y337.004 Z-0.546
N13900G01 Y348.404 Z-0.546
N13910G01 Y348.604 Z-0.559
N13920G01 Y348.804 Z-0.546
N13930G01 Y350.004 Z-0.546
N13940G01 Y350.204 Z-0.551
N13950G01 Y350.404 Z-0.563
N13960G01 Y350.604 Z-0.587
N13970G01 Y350.804 Z-0.622
N13980G01 Y351.004 Z-0.68
N13990G01 Y351.204 Z-0.784
N14000 G00 Z9.999
N14010 G00 X11.583 Y-1.399
N14020G01 Z-1 F500
N14030G01 Y-1.199 Z-0.94 F1000
N14040G01 Y-0.999 Z-0.825
N14050G01 Y-0.799 Z-0.765
N14060G01 Y-0.599 Z-0.725
N14070G01 Y-0.399 Z-0.701
N14080G01 Y-0.199 Z-0.687
N14090G01 Y0 Z-0.682
N14100G01 Y21.399 Z-0.682
N14110G01 Y21.599 Z-0.684
N14120G01 Y27.399 Z-0.682
N14130G01 Y27.599 Z-0.686
N14140G01 Y27.799 Z-0.682
N14150G01 Y46.399 Z-0.682
N14160G01 Y46.599 Z-0.686
N14170G01 Y46.799 Z-0.682
N14180G01 Y62.799 Z-0.682
N14190G01 Y62.999 Z-0.685
N14200G01 Y63.199 Z-0.682
N14210G01 Y128.201 Z-0.682
N14220G01 Y128.401 Z-0.684
N14230G01 Y128.601 Z-0.682
N14240G01 Y131.201 Z-0.682
N14250G01 Y131.401 Z-0.685
N14260G01 Y131.601 Z-0.682
N14270G01 Y135.201 Z-0.682
N14280G01 Y135.401 Z-0.686
N14290G01 Y135.601 Z-0.682
N14300G01 Y137.201 Z-0.682
N14310G01 Y137.401 Z-0.687
N14320G01 Y137.601 Z-0.682
N14330G01 Y138.001 Z-0.682
N14340G01 Y138.201 Z-0.687
N14350G01 Y138.401 Z-0.682
N14360G01 Y140.801 Z-0.682
N14370G01 Y141.001 Z-0.687
N14380G01 Y141.201 Z-0.682
N14390G01 Y142.401 Z-0.682
N14400G01 Y142.601 Z-0.688
N14410G01 Y142.801 Z-0.682
N14420G01 Y143.201 Z-0.682
N14430G01 Y143.401 Z-0.688
N14440G01 Y143.601 Z-0.682
N14450G01 Y146.001 Z-0.682
N14460G01 Y146.201 Z-0.689
N14470G01 Y146.401 Z-0.682
N14480G01 Y146.601 Z-0.689
N14490G01 Y146.801 Z-0.682
N14500G01 Y151.601 Z-0.682
N14510G01 Y151.801 Z-0.69
N14520G01 Y152.001 Z-0.682
N14530G01 Y154.401 Z-0.682
N14540G01 Y154.601 Z-0.692
N14550G01 Y154.801 Z-0.682
N14560G01 Y158.601 Z-0.682
N14570G01 Y158.801 Z-0.693
N14580G01 Y159.001 Z-0.682
N14590G01 Y160.201 Z-0.682
N14600G01 Y160.401 Z-0.692
N14610G01 Y160.601 Z-0.682
N14620G01 Y161.401 Z-0.682
N14630G01 Y161.601 Z-0.692
N14640G01 Y161.801 Z-0.682
N14650G01 Y162.801 Z-0.682
N14660G01 Y163.001 Z-0.693
N14670G01 Y163.201 Z-0.682
N14680G01 Y164.201 Z-0.682
N14690G01 Y164.401 Z-0.693
N14700G01 Y164.601 Z-0.682
N14710G01 Y188.002 Z-0.682
N14720G01 Y188.202 Z-0.699
N14730G01 Y188.402 Z-0.682
N14740G01 Y200.202 Z-0.682
N14750G01 Y200.402 Z-0.702
N14760G01 Y200.602 Z-0.682
N14770G01 Y204.602 Z-0.682
N14780G01 Y204.802 Z-0.703
N14790G01 Y205.002 Z-0.682
N14800G01 Y206.202 Z-0.682
N14810G01 Y206.402 Z-0.702
N14820G01 Y206.602 Z-0.682
N14830G01 Y350.004 Z-0.682
N14840G01 Y350.204 Z-0.687
N14850G01 Y350.404 Z-0.701
N14860G01 Y350.604 Z-0.726
N14870G01 Y350.804 Z-0.765
N14880G01 Y351.004 Z-0.829
N14890G01 Y351.204 Z-0.943
N14900 G00 Z9.999
N14910 G00 X12.083 Y-1.399
N14920G01 Z-1 F500
N14930G01 Y-1.015 F1000
N14940G01 Y-0.999 Z-0.99
N14950G01 Y-0.799 Z-0.922
N14960G01 Y-0.599 Z-0.879
N14970G01 Y-0.399 Z-0.851
N14980G01 Y-0.199 Z-0.836
N14990G01 Y0 Z-0.831
N15000G01 Y136.001 Z-0.831
N15010G01 Y136.201 Z-0.843
N15020G01 Y136.401 Z-0.831
N15030G01 Y144.801 Z-0.831
N15040G01 Y145.001 Z-0.843
N15050G01 Y145.201 Z-0.831
N15060G01 Y152.601 Z-0.831
N15070G01 Y152.801 Z-0.843
N15080G01 Y153.001 Z-0.831
N15090G01 Y162.601 Z-0.831
N15100G01 Y162.801 Z-0.843
N15110G01 Y163.001 Z-0.831
N15120G01 Y163.601 Z-0.831
N15130G01 Y163.801 Z-0.843
N15140G01 Y164.001 Z-0.831
N15150G01 Y172.401 Z-0.831
N15160G01 Y172.601 Z-0.846
N15170G01 Y172.801 Z-0.831
N15180G01 Y173.801 Z-0.831
N15190G01 Y174.001 Z-0.843
N15200G01 Y174.201 Z-0.831
N15210G01 Y175.201 Z-0.831
N15220G01 Y175.401 Z-0.843
N15230G01 Y175.601 Z-0.831
N15240G01 Y176.001 Z-0.831
N15250G01 Y176.201 Z-0.843
N15260G01 Y176.401 Z-0.831
N15270G01 Y176.601 Z-0.831
N15280G01 Y176.801 Z-0.843
N15290G01 Y177.001 Z-0.831
N15300G01 Y179.401 Z-0.831
N15310G01 Y179.601 Z-0.843
N15320G01 Y179.801 Z-0.831
N15330G01 Y181.801 Z-0.831
N15340G01 Y182.001 Z-0.846
N15350G01 Y182.201 Z-0.831
N15360G01 Y202.002 Z-0.831
N15370G01 Y202.202 Z-0.843
N15380G01 Y202.402 Z-0.831
N15390G01 Y217.602 Z-0.831
N15400G01 Y217.802 Z-0.843
N15410G01 Y218.002 Z-0.831
N15420G01 Y227.402 Z-0.831
N15430G01 Y227.602 Z-0.843
N15440G01 Y227.802 Z-0.831
N15450G01 Y235.802 Z-0.831
N15460G01 Y236.002 Z-0.846
N15470G01 Y236.202 Z-0.831
N15480G01 Y238.602 Z-0.831
N15490G01 Y238.802 Z-0.846
N15500G01 Y239.002 Z-0.831
N15510G01 Y241.202 Z-0.831
N15520G01 Y241.402 Z-0.843
N15530G01 Y241.602 Z-0.831
N15540G01 Y262.403 Z-0.831
N15550G01 Y262.603 Z-0.846
N15560G01 Y262.803 Z-0.831
N15570G01 Y267.203 Z-0.831
N15580G01 Y267.403 Z-0.84
N15590G01 Y267.603 Z-0.831
N15600G01 Y273.803 Z-0.831
N15610G01 Y274.003 Z-0.835
N15620G01 Y274.203 Z-0.831
N15630G01 Y274.803 Z-0.831
N15640G01 Y275.003 Z-0.835
N15650G01 Y275.203 Z-0.831
N15660G01 Y275.403 Z-0.831
N15670G01 Y275.603 Z-0.834
N15680G01 Y275.803 Z-0.831
N15690G01 Y301.803 Z-0.831
N15700G01 Y302.403 Z-0.832
N15710G01 Y303.003 Z-0.831
N15720G01 Y303.203 Z-0.832
N15730G01 Y307.204 Z-0.831
N15740G01 Y307.404 Z-0.833
N15750G01 Y307.604 Z-0.831
N15760G01 Y314.004 Z-0.831
N15770G01 Y314.204 Z-0.835
N15780G01 Y314.404 Z-0.831
N15790G01 Y321.604 Z-0.831
N15800G01 Y321.804 Z-0.837
N15810G01 Y322.004 Z-0.831
N15820G01 Y322.204 Z-0.831
N15830G01 Y322.404 Z-0.837
N15840G01 Y322.604 Z-0.831
N15850G01 Y322.804 Z-0.831
N15860G01 Y323.004 Z-0.837
N15870G01 Y323.204 Z-0.831
N15880G01 Y323.604 Z-0.831
N15890G01 Y323.804 Z-0.837
N15900G01 Y324.004 Z-0.837
N15910G01 Y324.204 Z-0.831
N15920G01 Y329.004 Z-0.831
N15930G01 Y329.204 Z-0.839
N15940G01 Y329.404 Z-0.831
N15950G01 Y350.004 Z-0.831
N15960G01 Y350.204 Z-0.836
N15970G01 Y350.404 Z-0.851
N15980G01 Y350.604 Z-0.88
N15990G01 Y350.804 Z-0.923
N16000G01 Y351.004 Z-0.992
N16010G01 Y351.017 Z-1 F500
N16020G01 Y351.204 F1000
N16030 G00 Z9.999
N16040 G00 X12.583 Y-1.399
N16050G01 Z-1 F500
N16060G01 Y-0.153 F1000
N16070G01 Y0 Z-0.995
N16080G01 Y135.201 Z-0.995
N16090G01 Y135.401 Z-0.996
N16100G01 Y137.001 Z-0.995
N16110G01 Y137.201 Z-0.997
N16120G01 Y137.601 Z-0.995
N16130G01 Y137.801 Z-0.997
N16140G01 Y140.201 Z-0.995
N16150G01 Y140.401 Z-0.998
N16160G01 Y140.601 Z-0.995
N16170G01 Y146.001 Z-0.995
N16180G01 Y146.201 Z-0.999
N16190G01 Y146.401 Z-0.995
N16200G01 Y150.201 Z-0.995
N16210G01 Y150.354 Z-1
N16220G01 Y150.448
N16230G01 Y150.601 Z-0.995
N16240G01 Y151.801 Z-0.995
N16250G01 Y151.955 Z-1
N16260G01 Y152.047
N16270G01 Y152.201 Z-0.995
N16280G01 Y158.601 Z-0.995
N16290G01 Y158.717 Z-1
N16300G01 Y158.885
N16310G01 Y159.001 Z-0.995
N16320G01 Y175.001 Z-0.995
N16330G01 Y175.075 Z-1
N16340G01 Y175.329
N16350G01 Y175.401 Z-0.995
N16360G01 Y176.401 Z-0.995
N16370G01 Y176.472 Z-1
N16380G01 Y176.731
N16390G01 Y176.801 Z-0.995
N16400G01 Y177.801 Z-0.995
N16410G01 Y177.87 Z-1
N16420G01 Y178.133
N16430G01 Y178.201 Z-0.995
N16440G01 Y183.401 Z-0.995
N16450G01 Y183.464 Z-1
N16460G01 Y183.739
N16470G01 Y183.801 Z-0.995
N16480G01 Y205.802 Z-0.995
N16490G01 Y205.845 Z-1
N16500G01 Y206.159
N16510G01 Y206.202 Z-0.995
N16520G01 Y305.404 Z-0.995
N16530G01 Y305.604 Z-0.998
N16540G01 Y305.804 Z-0.995
N16550G01 Y350.004 Z-0.995
N16560G01 Y350.204 Z-1
N16570G01 Y351.204
N16580 G00 Z9.999
N16590 G00 X13.083 Y-1.399
N16600G01 Z-1 F500
N16610G01 Y351.204 F1000
N16620 G00 Z9.999
N16630 G00 X-0.916 Y-1.399
N16640G01 Z-2 F500
N16650G01 Y351.204 F1000
N16660 G00 Z9.999
N16670 G00 X-0.416 Y-1.399
N16680G01 Z-2 F500
N16690G01 Y351.204 F1000
N16700 G00 Z9.999
N16710 G00 X0.083 Y-1.399
N16720G01 Z-2 F500
N16730G01 Y351.204 F1000
N16740 G00 Z9.999
N16750 G00 X0.583 Y-1.399
N16760G01 Z-2 F500
N16770G01 Y351.204 F1000
N16780 G00 Z9.999
N16790 G00 X1.083 Y-1.399
N16800G01 Z-2 F500
N16810G01 Y351.204 F1000
N16820 G00 Z9.999
N16830 G00 X1.583 Y-1.399
N16840G01 Z-2 F500
N16850G01 Y351.204 F1000
N16860 G00 Z9.999
N16870 G00 X2.083 Y-1.399
N16880G01 Z-2 F500
N16890G01 Y351.204 F1000
N16900 G00 Z9.999
N16910 G00 X2.583 Y-1.399
N16920G01 Z-2 F500
N16930G01 Y351.204 F1000
N16940 G00 Z9.999
N16950 G00 X3.083 Y-1.399
N16960G01 Z-2 F500
N16970G01 Y351.204 F1000
N16980 G00 Z9.999
N16990 G00 X3.583 Y-1.399
N17000G01 Z-2 F500
N17010G01 Y351.204 F1000
N17020 G00 Z9.999
N17030 G00 X4.083 Y-1.399
N17040G01 Z-2 F500
N17050G01 Y351.204 F1000
N17060 G00 Z9.999
N17070 G00 X4.583 Y-1.399
N17080G01 Z-2 F500
N17090G01 Y351.204 F1000
N17100 G00 Z9.999
N17110 G00 X5.083 Y-1.399
N17120G01 Z-2 F500
N17130G01 Y351.204 F1000
N17140 G00 Z9.999
N17150 G00 X5.583 Y-1.399
N17160G01 Z-2 F500
N17170G01 Y-0.985 F1000
N17180G01 Y-0.799 Z-1.817
N17190G01 Y-0.599 Z-1.688
N17200G01 Y-0.399 Z-1.604
N17210G01 Y-0.199 Z-1.556
N17220G01 Y0 Z-1.54
N17230G01 Y116.4 Z-1.539
N17240G01 Y116.6 Z-1.543
N17250G01 Y116.8 Z-1.54
N17260G01 Y198.802 Z-1.539
N17270G01 Y199.002 Z-1.548
N17280G01 Y199.202 Z-1.539
N17290G01 Y350.004 Z-1.539
N17300G01 Y350.204 Z-1.555
N17310G01 Y350.404 Z-1.605
N17320G01 Y350.604 Z-1.69
N17330G01 Y350.804 Z-1.82 F500
N17340G01 Y350.984 Z-2
N17350G01 Y351.204 F1000
N17360 G00 Z9.999
N17370 G00 X6.083 Y-1.399
N17380G01 Z-2 F500
N17390G01 Y-1.199 Z-1.849 F1000
N17400G01 Y-0.999 Z-1.514
N17410G01 Y-0.799 Z-1.318
N17420G01 Y-0.599 Z-1.188
N17430G01 Y-0.399 Z-1.103
N17440G01 Y-0.199 Z-1.055
N17450G01 Y0 Z-1.04
N17460G01 Y350.004 Z-1.039
N17470G01 Y350.204 Z-1.055
N17480G01 Y350.404 Z-1.105
N17490G01 Y350.604 Z-1.191
N17500G01 Y350.804 Z-1.322 F500
N17510G01 Y351.004 Z-1.52
N17520G01 Y351.204 Z-1.861
N17530 G00 Z9.999
N17540 G00 X6.583 Y-1.399
N17550G01 Z-2
N17560G01 Y-1.199 Z-1.348 F1000
N17570G01 Y-0.999 Z-1.015
N17580G01 Y-0.984 Z-1
N17590G01 X6.667 Y-1.054 Z-1.001
N17600G01 X6.751 Y-1.123 Z-1.027
N17610G01 X6.835 Y-1.193 Z-1.08
N17620G01 X6.918 Y-1.263 Z-1.21 F500
N17630G01 X7.002 Y-1.332 Z-1.838
N17640G01 X7.083 Y-1.399 Z-2
N17650G01 X12.083 F1000
N17660G01 Y-1.199 Z-1.112
N17670G01 Y-1.015 Z-1
N17680G01 X12.168 Y-1.08 Z-1.058
N17690G01 X12.252 Y-1.145 Z-1.131 F500
N17700G01 X12.337 Y-1.21 Z-1.218
N17710G01 X12.421 Y-1.275 Z-1.676
N17720G01 X12.583 Y-1.399 Z-2
N17730G01 Y-1.199 Z-1.301 F1000
N17740G01 Y-0.999 Z-1.167
N17750G01 Y-0.799 Z-1.094
N17760G01 Y-0.599 Z-1.047
N17770G01 Y-0.399 Z-1.018
N17780G01 Y-0.199 Z-1.001
N17790G01 Y-0.153 Z-1
N17800 G00 Z9.999
N17810 G00 Y150.354
N17820G01 Z-1 F500
N17830G01 Y150.401 Z-1.001 F1000
N17840G01 Y150.448 Z-1
N17850 G00 Z9.999
N17860 G00 Y151.955
N17870G01 Z-1 F500
N17880G01 Y152.001 Z-1.001 F1000
N17890G01 Y152.047 Z-1
N17900 G00 Z9.999
N17910 G00 Y158.717
N17920G01 Z-1 F500
N17930G01 Y158.801 Z-1.003 F1000
N17940G01 Y158.885 Z-1
N17950 G00 Z9.999
N17960 G00 Y175.075
N17970G01 Z-1 F500
N17980G01 Y175.201 Z-1.008 F1000
N17990G01 Y175.329 Z-1
N18000G01 Y175.529 Z-0.995
N18010G01 Y176.329
N18020G01 Y176.472 Z-1
N18030G01 Y176.601 Z-1.008
N18040G01 Y176.731 Z-1
N18050G01 Y176.931 Z-0.995
N18060G01 Y177.731
N18070G01 Y177.87 Z-1
N18080G01 Y178.001 Z-1.008
N18090G01 Y178.133 Z-1
N18100 G00 Z9.999
N18110 G00 Y183.464
N18120G01 Z-1 F500
N18130G01 Y183.601 Z-1.01 F1000
N18140G01 Y183.739 Z-1
N18150 G00 Z9.999
N18160 G00 Y205.845
N18170G01 Z-1 F500
N18180G01 Y206.002 Z-1.016 F1000
N18190G01 Y206.159 Z-1
N18200 G00 Z9.999
N18210 G00 X12.083 Y351.017
N18220G01 Z-1 F500
N18230G01 Y351.204 Z-1.118
N18240G01 X12.169 Y351.025 Z-1.03 F1000
N18250G01 X12.255 Y350.846 Z-0.993
N18260G01 X12.341 Y350.666 Z-0.976
N18270G01 X12.427 Y350.487 Z-0.975
N18280G01 X12.514 Y350.307 Z-0.984
N18290G01 X12.583 Y350.163 Z-1
N18300G01 Y350.204 Z-1.001
N18310G01 Y350.404 Z-1.018
N18320G01 Y350.604 Z-1.048
N18330G01 Y350.804 Z-1.095
N18340G01 Y351.004 Z-1.171
N18350G01 Y351.204 Z-1.306 F500
N18360 G00 Z9.999
N18370 G00 X13.083 Y-1.399
N18380G01 Z-2
N18390G01 Y-0.999 F1000
N18400G01 Y-0.799 Z-1.282
N18410G01 Y-0.599 Z-1.232
N18420G01 Y-0.399 Z-1.198
N18430G01 Y-0.199 Z-1.18
N18440G01 Y0 Z-1.174
N18450G01 Y49.399 Z-1.174
N18460G01 Y49.599 Z-1.175
N18470G01 Y154.201 Z-1.174
N18480G01 Y154.401 Z-1.182
N18490G01 Y154.601 Z-1.174
N18500G01 Y155.401 Z-1.174
N18510G01 Y155.601 Z-1.182
N18520G01 Y155.801 Z-1.184
N18530G01 Y156.001 Z-1.174
N18540G01 Y157.801 Z-1.174
N18550G01 Y158.001 Z-1.175
N18560G01 Y159.801 Z-1.174
N18570G01 Y160.001 Z-1.184
N18580G01 Y160.201 Z-1.174
N18590G01 Y165.001 Z-1.174
N18600G01 Y165.201 Z-1.182
N18610G01 Y165.401 Z-1.174
N18620G01 Y178.001 Z-1.174
N18630G01 Y178.201 Z-1.182
N18640G01 Y178.401 Z-1.174
N18650G01 Y183.601 Z-1.174
N18660G01 Y183.801 Z-1.182
N18670G01 Y184.001 Z-1.174
N18680G01 Y195.602 Z-1.174
N18690G01 Y195.802 Z-1.182
N18700G01 Y196.002 Z-1.174
N18710G01 Y198.202 Z-1.174
N18720G01 Y198.402 Z-1.184
N18730G01 Y198.602 Z-1.174
N18740G01 Y199.802 Z-1.174
N18750G01 Y200.002 Z-1.184
N18760G01 Y200.202 Z-1.174
N18770G01 Y216.202 Z-1.174
N18780G01 Y216.402 Z-1.184
N18790G01 Y216.602 Z-1.174
N18800G01 Y227.202 Z-1.174
N18810G01 Y227.402 Z-1.182
N18820G01 Y227.602 Z-1.174
N18830G01 Y258.203 Z-1.174
N18840G01 Y258.403 Z-1.182
N18850G01 Y258.603 Z-1.174
N18860G01 Y301.603 Z-1.174
N18870G01 Y301.803 Z-1.175
N18880G01 Y322.004 Z-1.174
N18890G01 Y322.404 Z-1.175
N18900G01 Y323.004 Z-1.174
N18910G01 Y323.204 Z-1.175
N18920G01 Y324.004 Z-1.174
N18930G01 Y324.204 Z-1.175
N18940G01 Y326.204 Z-1.174
N18950G01 Y326.404 Z-1.176
N18960G01 Y326.604 Z-1.174
N18970G01 Y336.404 Z-1.174
N18980G01 Y336.604 Z-1.179
N18990G01 Y336.804 Z-1.174
N19000G01 Y350.004 Z-1.174
N19010G01 Y350.204 Z-1.18
N19020G01 Y350.404 Z-1.199
N19030G01 Y350.604 Z-1.232
N19040G01 Y350.804 Z-1.284
N19050G01 Y351.004 Z-2 F500
N19060G01 Y351.204 F1000
N19070 G00 Z9.999
N19080 G00 X6.583 Y350.984
N19090G01 Z-1 F500
N19100G01 Y351.004 Z-1.02
N19110G01 Y351.204 Z-1.359
N19120 G00 Z9.999
N19130 G00 X-0.916 Y-1.399
N19140G01 Z-3
N19150G01 Y351.204 F1000
N19160 G00 Z9.999
N19170 G00 X-0.416 Y-1.399
N19180G01 Z-3 F500
N19190G01 Y351.204 F1000
N19200 G00 Z9.999
N19210 G00 X0.083 Y-1.399
N19220G01 Z-3 F500
N19230G01 Y351.204 F1000
N19240 G00 Z9.999
N19250 G00 X0.583 Y-1.399
N19260G01 Z-3 F500
N19270G01 Y351.204 F1000
N19280 G00 Z9.999
N19290 G00 X1.083 Y-1.399
N19300G01 Z-3 F500
N19310G01 Y351.204 F1000
N19320 G00 Z9.999
N19330 G00 X1.583 Y-1.399
N19340G01 Z-3 F500
N19350G01 Y351.204 F1000
N19360 G00 Z9.999
N19370 G00 X2.083 Y-1.399
N19380G01 Z-3 F500
N19390G01 Y351.204 F1000
N19400 G00 Z9.999
N19410 G00 X2.583 Y-1.399
N19420G01 Z-3 F500
N19430G01 Y351.204 F1000
N19440 G00 Z9.999
N19450 G00 X3.083 Y-1.399
N19460G01 Z-3 F500
N19470G01 Y351.204 F1000
N19480 G00 Z9.999
N19490 G00 X3.583 Y-1.399
N19500G01 Z-3 F500
N19510G01 Y351.204 F1000
N19520 G00 Z9.999
N19530 G00 X4.083 Y-1.399
N19540G01 Z-3 F500
N19550G01 Y351.204 F1000
N19560 G00 Z9.999
N19570 G00 X4.583 Y-1.399
N19580G01 Z-3 F500
N19590G01 Y-0.985 Z-3 F1000
N19600G01 Y-0.799 Z-2.818
N19610G01 Y-0.599 Z-2.688
N19620G01 Y-0.399 Z-2.603
N19630G01 Y-0.199 Z-2.555
N19640G01 Y0 Z-2.54
N19650G01 Y320.604 Z-2.538
N19660G01 Y320.804 Z-2.539
N19670G01 Y325.004 Z-2.539
N19680G01 Y325.204 Z-2.54
N19690G01 Y326.004 Z-2.539
N19700G01 Y326.204 Z-2.542
N19710G01 Y326.404 Z-2.539
N19720G01 Y350.004 Z-2.539
N19730G01 Y350.204 Z-2.556
N19740G01 Y350.404 Z-2.604
N19750G01 Y350.604 Z-2.69
N19760G01 Y350.804 Z-2.822 F500
N19770G01 Y350.984 Z-3
N19780G01 Y351.204 F1000
N19790 G00 Z9.999
N19800 G00 X5.083 Y-1.399
N19810G01 Z-3 F500
N19820G01 Y-1.199 Z-2.847 F1000
N19830G01 Y-0.999 Z-2.513
N19840G01 Y-0.799 Z-2.318
N19850G01 Y-0.599 Z-2.188
N19860G01 Y-0.399 Z-2.104
N19870G01 Y-0.199 Z-2.055
N19880G01 Y0 Z-2.04
N19890G01 Y203.602 Z-2.038
N19900G01 Y203.802 Z-2.039
N19910G01 Y210.002 Z-2.039
N19920G01 Y210.202 Z-2.041
N19930G01 Y211.402 Z-2.039
N19940G01 Y211.602 Z-2.042
N19950G01 Y211.802 Z-2.039
N19960G01 Y350.004 Z-2.039
N19970G01 Y350.204 Z-2.055
N19980G01 Y350.404 Z-2.105
N19990G01 Y350.604 Z-2.19
N20000G01 Y350.804 Z-2.321 F500
N20010G01 Y351.004 Z-2.52
N20020G01 Y351.204 Z-2.859
N20030 G00 Z9.999
N20040 G00 X5.583 Y-1.399
N20050G01 Z-3
N20060G01 Y-1.199 Z-2.35 F1000
N20070G01 Y-0.999 Z-2.014
N20080G01 Y-0.985 Z-2
N20090G01 X5.667 Y-1.055 Z-2.003
N20100G01 X5.751 Y-1.124 Z-2.027
N20110G01 X5.835 Y-1.194 Z-2.083
N20120G01 X5.918 Y-1.263 Z-2.213 F500
N20130G01 X6.002 Y-1.333 Z-2.838
N20140G01 X6.083 Y-1.399 Z-3
N20150G01 X13.083 F1000
N20160G01 Y-0.999
N20170 G00 Z9.999
N20180 G00 X5.583 Y350.984
N20190G01 Z-2 F500
N20200G01 Y351.004 Z-2.02
N20210G01 Y351.204 Z-2.361
N20220 G00 Z9.999
N20230 G00 X13.083 Y351.004
N20240G01 Z-3
N20250G01 Y351.204 F1000
N20260 G00 Z9.999
N20270 G00 X-0.916 Y-1.399
N20280G01 Z-4 F500
N20290G01 Y351.204 F1000
N20300 G00 Z9.999
N20310 G00 X-0.416 Y-1.399
N20320G01 Z-4 F500
N20330G01 Y351.204 F1000
N20340 G00 Z9.999
N20350 G00 X0.083 Y-1.399
N20360G01 Z-4 F500
N20370G01 Y351.204 F1000
N20380 G00 Z9.999
N20390 G00 X0.583 Y-1.399
N20400G01 Z-4 F500
N20410G01 Y351.204 F1000
N20420 G00 Z9.999
N20430 G00 X1.083 Y-1.399
N20440G01 Z-4 F500
N20450G01 Y351.204 F1000
N20460 G00 Z9.999
N20470 G00 X1.583 Y-1.399
N20480G01 Z-4 F500
N20490G01 Y351.204 F1000
N20500 G00 Z9.999
N20510 G00 X2.083 Y-1.399
N20520G01 Z-4 F500
N20530G01 Y351.204 F1000
N20540 G00 Z9.999
N20550 G00 X2.583 Y-1.399
N20560G01 Z-4 F500
N20570G01 Y351.204 F1000
N20580 G00 Z9.999
N20590 G00 X3.083 Y-1.399
N20600G01 Z-4 F500
N20610G01 Y351.204 F1000
N20620 G00 Z9.999
N20630 G00 X3.583 Y-1.399
N20640G01 Z-4 F500
N20650G01 Y-0.985 F1000
N20660G01 Y-0.799 Z-3.818
N20670G01 Y-0.599 Z-3.688
N20680G01 Y-0.399 Z-3.603
N20690G01 Y-0.199 Z-3.555
N20700G01 Y0 Z-3.54
N20710G01 Y250.603 Z-3.538
N20720G01 Y251.003 Z-3.539
N20730G01 Y255.403 Z-3.539
N20740G01 Y255.603 Z-3.541
N20750G01 Y350.004 Z-3.539
N20760G01 Y350.204 Z-3.555
N20770G01 Y350.404 Z-3.604
N20780G01 Y350.604 Z-3.69
N20790G01 Y350.804 Z-3.822 F500
N20800G01 Y350.984 Z-4
N20810G01 Y351.204 F1000
N20820 G00 Z9.999
N20830 G00 X4.083 Y-1.399
N20840G01 Z-4 F500
N20850G01 Y-1.199 Z-3.85 F1000
N20860G01 Y-0.999 Z-3.515
N20870G01 Y-0.799 Z-3.318
N20880G01 Y-0.599 Z-3.188
N20890G01 Y-0.399 Z-3.103
N20900G01 Y-0.199 Z-3.055
N20910G01 Y0 Z-3.04
N20920G01 Y222.402 Z-3.039
N20930G01 Y222.602 Z-3.051
N20940G01 Y222.802 Z-3.039
N20950G01 Y350.004 Z-3.039
N20960G01 Y350.204 Z-3.055
N20970G01 Y350.404 Z-3.105
N20980G01 Y350.604 Z-3.19
N20990G01 Y350.804 Z-3.321 F500
N21000G01 Y351.004 Z-3.52
N21010G01 Y351.204 Z-3.861
N21020 G00 Z9.999
N21030 G00 X4.583 Y-1.399
N21040G01 Z-4
N21050G01 Y-1.199 Z-3.349 F1000
N21060G01 Y-0.999 Z-3.014
N21070G01 Y-0.985 Z-3
N21080G01 X4.667 Y-1.055 Z-3.002
N21090G01 X4.751 Y-1.124 Z-3.027
N21100G01 X4.835 Y-1.194 Z-3.083
N21110G01 X4.918 Y-1.263 Z-3.209 F500
N21120G01 X5.002 Y-1.333 Z-3.838
N21130G01 X5.083 Y-1.399 Z-4
N21140G01 X13.083 F1000
N21150G01 Y-0.999
N21160 G00 Z9.999
N21170 G00 X4.583 Y350.984
N21180G01 Z-3 F500
N21190G01 Y351.004 Z-3.02
N21200G01 Y351.204 Z-3.361
N21210 G00 Z9.999
N21220 G00 X13.083 Y351.004
N21230G01 Z-4
N21240G01 Y351.204 F1000
N21250 G00 Z9.999
N21260 G00 X-0.916 Y-1.399
N21270G01 Z-5 F500
N21280G01 Y351.204 F1000
N21290 G00 Z9.999
N21300 G00 X-0.416 Y-1.399
N21310G01 Z-5 F500
N21320G01 Y351.204 F1000
N21330 G00 Z9.999
N21340 G00 X0.083 Y-1.399
N21350G01 Z-5 F500
N21360G01 Y351.204 F1000
N21370 G00 Z9.999
N21380 G00 X0.583 Y-1.399
N21390G01 Z-5 F500
N21400G01 Y351.204 F1000
N21410 G00 Z9.999
N21420 G00 X1.083 Y-1.399
N21430G01 Z-5 F500
N21440G01 Y351.204 F1000
N21450 G00 Z9.999
N21460 G00 X1.583 Y-1.399
N21470G01 Z-5 F500
N21480G01 Y351.204 F1000
N21490 G00 Z9.999
N21500 G00 X2.083 Y-1.399
N21510G01 Z-5 F500
N21520G01 Y351.204 F1000
N21530 G00 Z9.999
N21540 G00 X2.583 Y-1.399
N21550G01 Z-5 F500
N21560G01 Y-0.985 F1000
N21570G01 Y-0.799 Z-4.818
N21580G01 Y-0.599 Z-4.688
N21590G01 Y-0.399 Z-4.602
N21600G01 Y-0.199 Z-4.555
N21610G01 Y0 Z-4.54
N21620G01 Y206.602 Z-4.538
N21630G01 Y206.802 Z-4.539
N21640G01 Y211.602 Z-4.539
N21650G01 Y211.802 Z-4.541
N21660G01 Y350.004 Z-4.539
N21670G01 Y350.204 Z-4.555
N21680G01 Y350.404 Z-4.605
N21690G01 Y350.604 Z-4.69
N21700G01 Y350.804 Z-4.821 F500
N21710G01 Y350.985 Z-5
N21720G01 Y351.204 F1000
N21730 G00 Z9.999
N21740 G00 X3.083 Y-1.399
N21750G01 Z-5 F500
N21760G01 Y-1.199 Z-4.849 F1000
N21770G01 Y-0.999 Z-4.514
N21780G01 Y-0.799 Z-4.316
N21790G01 Y-0.599 Z-4.188
N21800G01 Y-0.399 Z-4.104
N21810G01 Y-0.199 Z-4.054
N21820G01 Y0 Z-4.04
N21830G01 Y232.402 Z-4.039
N21840G01 Y232.602 Z-4.044
N21850G01 Y232.802 Z-4.039
N21860G01 Y350.004 Z-4.039
N21870G01 Y350.204 Z-4.055
N21880G01 Y350.404 Z-4.105
N21890G01 Y350.604 Z-4.19
N21900G01 Y350.804 Z-4.32 F500
N21910G01 Y351.004 Z-4.519
N21920G01 Y351.204 Z-4.861
N21930 G00 Z9.999
N21940 G00 X3.583 Y-1.399
N21950G01 Z-5
N21960G01 Y-1.199 Z-4.348 F1000
N21970G01 Y-0.999 Z-4.013
N21980G01 Y-0.985 Z-4
N21990G01 X3.667 Y-1.055 Z-4.003
N22000G01 X3.751 Y-1.124 Z-4.026
N22010G01 X3.835 Y-1.194 Z-4.082
N22020G01 X3.918 Y-1.263 Z-4.209 F500
N22030G01 X4.002 Y-1.333 Z-4.838
N22040G01 X4.083 Y-1.399 Z-5
N22050G01 X13.083 F1000
N22060G01 Y-0.999
N22070 G00 Z9.999
N22080 G00 X3.583 Y350.984
N22090G01 Z-4 F500
N22100G01 Y351.004 Z-4.02
N22110G01 Y351.204 Z-4.36
N22120 G00 Z9.999
N22130 G00 X13.083 Y351.004
N22140G01 Z-5
N22150G01 Y351.204 F1000
N22160 G00 Z9.999
N22170 G00 X-0.916 Y-1.399
N22180G01 Z-6 F500
N22190G01 Y351.204 F1000
N22200 G00 Z9.999
N22210 G00 X-0.416 Y-1.399
N22220G01 Z-6 F500
N22230G01 Y351.204 F1000
N22240 G00 Z9.999
N22250 G00 X0.083 Y-1.399
N22260G01 Z-6 F500
N22270G01 Y351.204 F1000
N22280 G00 Z9.999
N22290 G00 X0.583 Y-1.399
N22300G01 Z-6 F500
N22310G01 Y351.204 F1000
N22320 G00 Z9.999
N22330 G00 X1.083 Y-1.399
N22340G01 Z-6 F500
N22350G01 Y351.204 F1000
N22360 G00 Z9.999
N22370 G00 X1.583 Y-1.399
N22380G01 Z-6 F500
N22390G01 Y-0.985 F1000
N22400G01 Y-0.799 Z-5.818
N22410G01 Y-0.599 Z-5.688
N22420G01 Y-0.399 Z-5.602
N22430G01 Y-0.199 Z-5.554
N22440G01 Y0 Z-5.54
N22450G01 Y350.004 Z-5.539
N22460G01 Y350.204 Z-5.555
N22470G01 Y350.404 Z-5.603
N22480G01 Y350.604 Z-5.69
N22490G01 Y350.804 Z-5.822 F500
N22500G01 Y350.983 Z-6
N22510G01 Y351.204 F1000
N22520 G00 Z9.999
N22530 G00 X2.083 Y-1.399
N22540G01 Z-6 F500
N22550G01 Y-1.199 Z-5.849 F1000
N22560G01 Y-0.999 Z-5.514
N22570G01 Y-0.799 Z-5.318
N22580G01 Y-0.599 Z-5.188
N22590G01 Y-0.399 Z-5.103
N22600G01 Y-0.199 Z-5.055
N22610G01 Y0 Z-5.04
N22620G01 Y350.004 Z-5.039
N22630G01 Y350.204 Z-5.056
N22640G01 Y350.404 Z-5.105
N22650G01 Y350.604 Z-5.19
N22660G01 Y350.804 Z-5.321 F500
N22670G01 Y351.004 Z-5.52
N22680G01 Y351.204 Z-5.861
N22690 G00 Z9.999
N22700 G00 X2.583 Y-1.399
N22710G01 Z-6
N22720G01 Y-1.199 Z-5.349 F1000
N22730G01 Y-0.999 Z-5.014
N22740G01 Y-0.985 Z-5
N22750G01 X2.667 Y-1.055 Z-5.001
N22760G01 X2.751 Y-1.124 Z-5.026
N22770G01 X2.835 Y-1.194 Z-5.083
N22780G01 X2.918 Y-1.263 Z-5.21 F500
N22790G01 X3.002 Y-1.333 Z-5.838
N22800G01 X3.083 Y-1.399 Z-6
N22810G01 X13.083 F1000
N22820G01 Y-0.999
N22830 G00 Z9.999
N22840 G00 X2.583 Y350.985
N22850G01 Z-5 F500
N22860G01 Y351.004 Z-5.019
N22870G01 Y351.204 Z-5.359
N22880 G00 Z9.999
N22890 G00 X13.083 Y351.004
N22900G01 Z-6
N22910G01 Y351.204 F1000
N22920 G00 Z9.999
N22930 G00 X-0.916 Y-1.399
N22940G01 Z-7 F500
N22950G01 Y351.204 F1000
N22960 G00 Z9.999
N22970 G00 X-0.416 Y-1.399
N22980G01 Z-7 F500
N22990G01 Y351.204 F1000
N23000 G00 Z9.999
N23010 G00 X0.083 Y-1.399
N23020G01 Z-7 F500
N23030G01 Y351.204 F1000
N23040 G00 Z9.999
N23050 G00 X0.583 Y-1.399
N23060G01 Z-7 F500
N23070G01 Y-0.984 F1000
N23080G01 Y-0.799 Z-6.818
N23090G01 Y-0.599 Z-6.688
N23100G01 Y-0.399 Z-6.604
N23110G01 Y-0.199 Z-6.555
N23120G01 Y0 Z-6.54
N23130G01 Y131.401 Z-6.539
N23140G01 Y131.601 Z-6.549
N23150G01 Y131.801 Z-6.539
N23160G01 Y132.801 Z-6.54
N23170G01 Y133.001 Z-6.545
N23180G01 Y133.201 Z-6.539
N23190G01 Y142.401 Z-6.539
N23200G01 Y142.601 Z-6.541
N23210G01 Y157.601 Z-6.539
N23220G01 Y157.801 Z-6.55
N23230G01 Y158.001 Z-6.539
N23240G01 Y167.601 Z-6.539
N23250G01 Y167.801 Z-6.542
N23260G01 Y168.001 Z-6.539
N23270G01 Y194.602 Z-6.539
N23280G01 Y194.802 Z-6.546
N23290G01 Y195.002 Z-6.539
N23300G01 Y350.004 Z-6.539
N23310G01 Y350.204 Z-6.556
N23320G01 Y350.404 Z-6.605
N23330G01 Y350.604 Z-6.69
N23340G01 Y350.804 Z-6.822 F500
N23350G01 Y350.984 Z-7
N23360G01 Y351.204 F1000
N23370 G00 Z9.999
N23380 G00 X1.083 Y-1.399
N23390G01 Z-7 F500
N23400G01 Y-1.199 Z-6.849 F1000
N23410G01 Y-0.999 Z-6.514
N23420G01 Y-0.799 Z-6.318
N23430G01 Y-0.599 Z-6.187
N23440G01 Y-0.399 Z-6.103
N23450G01 Y-0.199 Z-6.055
N23460G01 Y0 Z-6.04
N23470G01 Y326.604 Z-6.038
N23480G01 Y326.804 Z-6.039
N23490G01 Y350.004 Z-6.039
N23500G01 Y350.204 Z-6.056
N23510G01 Y350.404 Z-6.105
N23520G01 Y350.604 Z-6.189
N23530G01 Y350.804 Z-6.321 F500
N23540G01 Y351.004 Z-6.52
N23550G01 Y351.204 Z-6.861
N23560 G00 Z9.999
N23570 G00 X1.583 Y-1.399
N23580G01 Z-7
N23590G01 Y-1.199 Z-6.349 F1000
N23600G01 Y-0.999 Z-6.014
N23610G01 Y-0.985 Z-6
N23620G01 X1.667 Y-1.054 Z-6.003
N23630G01 X1.751 Y-1.124 Z-6.027
N23640G01 X1.835 Y-1.194 Z-6.083
N23650G01 X1.918 Y-1.263 Z-6.212 F500
N23660G01 X2.002 Y-1.333 Z-6.838
N23670G01 X2.083 Y-1.399 Z-7
N23680G01 X13.083 F1000
N23690G01 Y-0.999
N23700 G00 Z9.999
N23710 G00 X1.583 Y350.983
N23720G01 Z-6 F500
N23730G01 Y351.004 Z-6.02
N23740G01 Y351.204 Z-6.359
N23750 G00 Z9.999
N23760 G00 X13.083 Y351.004
N23770G01 Z-7
N23780G01 Y351.204 F1000
N23790 G00 Z9.999
N23800 G00 X-0.916 Y-1.399
N23810G01 Z-8 F500
N23820G01 Y351.204 F1000
N23830 G00 Z9.999
N23840 G00 X-0.416 Y-1.399
N23850G01 Z-8 F500
N23860G01 Y-0.985 F1000
N23870G01 Y-0.799 Z-7.816
N23880G01 Y-0.599 Z-7.688
N23890G01 Y-0.399 Z-7.603
N23900G01 Y-0.199 Z-7.554
N23910G01 Y0 Z-7.54
N23920G01 Y287.803 Z-7.539
N23930G01 Y288.003 Z-7.549
N23940G01 Y288.203 Z-7.539
N23950G01 Y350.004 Z-7.539
N23960G01 Y350.204 Z-7.555
N23970G01 Y350.404 Z-7.605
N23980G01 Y350.604 Z-7.689
N23990G01 Y350.804 Z-7.822 F500
N24000G01 Y350.984 Z-8
N24010G01 Y351.204 F1000
N24020 G00 Z9.999
N24030 G00 X0.083 Y-1.399
N24040G01 Z-8 F500
N24050G01 Y-1.199 Z-7.85 F1000
N24060G01 Y-0.999 Z-7.514
N24070G01 Y-0.799 Z-7.318
N24080G01 Y-0.599 Z-7.188
N24090G01 Y-0.399 Z-7.102
N24100G01 Y-0.199 Z-7.055
N24110G01 Y0 Z-7.04
N24120G01 Y273.403 Z-7.038
N24130G01 Y273.603 Z-7.039
N24140G01 Y279.803 Z-7.039
N24150G01 Y280.003 Z-7.043
N24160G01 Y280.203 Z-7.039
N24170G01 Y350.004 Z-7.039
N24180G01 Y350.204 Z-7.056
N24190G01 Y350.404 Z-7.104
N24200G01 Y350.604 Z-7.19
N24210G01 Y350.804 Z-7.322 F500
N24220G01 Y351.004 Z-7.519
N24230G01 Y351.204 Z-7.859
N24240 G00 Z9.999
N24250 G00 X0.583 Y-1.399
N24260G01 Z-8
N24270G01 Y-1.199 Z-7.347 F1000
N24280G01 Y-0.999 Z-7.014
N24290G01 Y-0.984 Z-7
N24300G01 X0.667 Y-1.054 Z-7.003
N24310G01 X0.751 Y-1.124 Z-7.026
N24320G01 X0.835 Y-1.193 Z-7.083
N24330G01 X0.918 Y-1.263 Z-7.211 F500
N24340G01 X1.002 Y-1.332 Z-7.838
N24350G01 X1.083 Y-1.399 Z-8
N24360G01 X13.083 F1000
N24370G01 Y-0.999
N24380 G00 Z9.999
N24390 G00 X0.583 Y350.984
N24400G01 Z-7 F500
N24410G01 Y351.004 Z-7.02
N24420G01 Y351.204 Z-7.359
N24430 G00 Z9.999
N24440 G00 X13.083 Y351.004
N24450G01 Z-8
N24460G01 Y351.204 F1000
N24470 G00 Z9.999
N24480 G00 X-0.916 Y-1.399
N24490G01 Z-8.4 F500
N24500G01 Y-0.999 F1000
N24510G01 Y-0.799 Z-8.318
N24520G01 Y-0.599 Z-8.188
N24530G01 Y-0.399 Z-8.102
N24540G01 Y-0.199 Z-8.055
N24550G01 Y0 Z-8.04
N24560G01 Y184.801 Z-8.039
N24570G01 Y185.001 Z-8.041
N24580G01 Y350.004 Z-8.039
N24590G01 Y350.204 Z-8.055
N24600G01 Y350.404 Z-8.104
N24610G01 Y350.604 Z-8.19
N24620G01 Y350.804 Z-8.321 F500
N24630G01 Y351.004 Z-8.4 F1000
N24640G01 Y351.204
N24650 G00 Z9.999
N24660 G00 X-0.416 Y-1.399
N24670G01 Z-8.4 F500
N24680G01 Y-1.199 Z-8.347 F1000
N24690G01 Y-0.999 Z-8.014
N24700G01 Y-0.985 Z-8
N24710G01 X-0.285 Y-1.093 Z-8.013
N24720G01 X-0.154 Y-1.202 Z-8.092
N24730G01 X-0.023 Y-1.311 Z-8.314 F500
N24740G01 X0.083 Y-1.399 Z-8.4
N24750G01 X13.083 F1000
N24760G01 Y-0.999
N24770 G00 Z9.999
N24780 G00 Y351.004
N24790G01 Z-8.4 F500
N24800G01 Y351.204 F1000
N24810 G00 Z9.999
N24820 G00 X-0.416 Y350.984
N24830G01 Z-8 F500
N24840G01 Y351.004 Z-8.019
N24850G01 Y351.204 Z-8.361
N24860 G00 Z9.999
N24870 M02
