(GCode created using the HeeksCNC Mach3 post processor)
(/home/user/git-repos/dkoukoul/donation-box/designs/3D/blender/left-side panel/key-hole-file.tap)
(G-code generated with BlenderCAM and NC library)
N10 G17 G21 G90
(Tool change)
N20G43H1
N30T1 M06
N40 G00 X0 Y0 Z19.999 S12000 M03
N50 G00 X107.669 Y141.563
N60G01 Z-1 F500
N70G01 X107.697 Y141.542 F1000
N80G01 X107.727 Y141.524
N90G01 X107.758 Y141.507
N100G01 X107.791 Y141.492
N110G01 X107.824 Y141.48
N120G01 X107.858 Y141.47
N130G01 X107.893 Y141.461
N140G01 X107.927 Y141.456
N150G01 X107.962 Y141.452
N160G01 X108 Y141.451
N170G01 X108.037 Y141.452
N180G01 X108.072 Y141.456
N190G01 X108.107 Y141.461
N200G01 X108.141 Y141.47
N210G01 X108.175 Y141.48
N220G01 X108.208 Y141.492
N230G01 X108.24 Y141.507
N240G01 X108.272 Y141.524
N250G01 X108.301 Y141.542
N260G01 X108.331 Y141.563
N270G01 X108.358 Y141.585
N280G01 X108.385 Y141.61
N290G01 X108.41 Y141.638
N300G01 X108.433 Y141.665
N310G01 X108.453 Y141.694
N320G01 X108.472 Y141.724
N330G01 X108.489 Y141.755
N340G01 X108.503 Y141.787
N350G01 X108.516 Y141.821
N360G01 X108.526 Y141.854
N370G01 X108.534 Y141.889
N380G01 X108.54 Y141.924
N390G01 X108.543 Y141.959
N400G01 X108.544 Y142
N410G01 X108.543 Y142.04
N420G01 X108.54 Y142.076
N430G01 X108.534 Y142.11
N440G01 X108.526 Y142.145
N450G01 X108.516 Y142.178
N460G01 X108.503 Y142.212
N470G01 X108.488 Y142.244
N480G01 X108.472 Y142.275
N490G01 X108.453 Y142.305
N500G01 X108.432 Y142.334
N510G01 X108.41 Y142.361
N520G01 X108.385 Y142.389
N530G01 X108.358 Y142.414
N540G01 X108.33 Y142.436
N550G01 X108.301 Y142.457
N560G01 X108.272 Y142.475
N570G01 X108.241 Y142.492
N580G01 X108.208 Y142.507
N590G01 X108.175 Y142.519
N600G01 X108.141 Y142.529
N610G01 X108.106 Y142.538
N620G01 X108.072 Y142.543
N630G01 X108.037 Y142.547
N640G01 X108 Y142.548
N650G01 X107.962 Y142.547
N660G01 X107.927 Y142.543
N670G01 X107.892 Y142.538
N680G01 X107.858 Y142.53
N690G01 X107.824 Y142.519
N700G01 X107.791 Y142.507
N710G01 X107.759 Y142.492
N720G01 X107.727 Y142.476
N730G01 X107.697 Y142.457
N740G01 X107.669 Y142.436
N750G01 X107.641 Y142.414
N760G01 X107.614 Y142.388
N770G01 X107.589 Y142.361
N780G01 X107.567 Y142.334
N790G01 X107.546 Y142.305
N800G01 X107.527 Y142.275
N810G01 X107.511 Y142.244
N820G01 X107.496 Y142.211
N830G01 X107.483 Y142.179
N840G01 X107.473 Y142.145
N850G01 X107.465 Y142.11
N860G01 X107.459 Y142.076
N870G01 X107.456 Y142.04
N880G01 X107.455 Y142
N890G01 X107.456 Y141.959
N900G01 X107.459 Y141.924
N910G01 X107.465 Y141.889
N920G01 X107.473 Y141.854
N930G01 X107.483 Y141.821
N940G01 X107.496 Y141.788
N950G01 X107.511 Y141.755
N960G01 X107.527 Y141.724
N970G01 X107.546 Y141.694
N980G01 X107.566 Y141.665
N990G01 X107.589 Y141.638
N1000G01 X107.614 Y141.61
N1010G01 X107.641 Y141.585
N1020G01 X107.669 Y141.563
N1030G01 X106.847 Y140.491
N1040G01 X106.948 Y140.419
N1050G01 X107.053 Y140.353
N1060G01 X107.162 Y140.295
N1070G01 X107.274 Y140.244
N1080G01 X107.389 Y140.201
N1090G01 X107.507 Y140.165
N1100G01 X107.628 Y140.137
N1110G01 X107.75 Y140.117
N1120G01 X107.873 Y140.104
N1130G01 X108 Y140.1
N1140G01 X108.126 Y140.104
N1150G01 X108.249 Y140.117
N1160G01 X108.372 Y140.137
N1170G01 X108.492 Y140.165
N1180G01 X108.61 Y140.201
N1190G01 X108.725 Y140.244
N1200G01 X108.838 Y140.295
N1210G01 X108.946 Y140.353
N1220G01 X109.051 Y140.419
N1230G01 X109.152 Y140.491
N1240G01 X109.248 Y140.569
N1250G01 X109.34 Y140.655
N1260G01 X109.426 Y140.748
N1270G01 X109.505 Y140.844
N1280G01 X109.577 Y140.945
N1290G01 X109.642 Y141.049
N1300G01 X109.7 Y141.158
N1310G01 X109.751 Y141.271
N1320G01 X109.795 Y141.386
N1330G01 X109.83 Y141.504
N1340G01 X109.859 Y141.625
N1350G01 X109.879 Y141.747
N1360G01 X109.891 Y141.87
N1370G01 X109.895 Y142
N1380G01 X109.891 Y142.129
N1390G01 X109.879 Y142.253
N1400G01 X109.858 Y142.375
N1410G01 X109.83 Y142.495
N1420G01 X109.795 Y142.613
N1430G01 X109.751 Y142.728
N1440G01 X109.7 Y142.841
N1450G01 X109.642 Y142.95
N1460G01 X109.577 Y143.054
N1470G01 X109.505 Y143.155
N1480G01 X109.427 Y143.251
N1490G01 X109.34 Y143.344
N1500G01 X109.248 Y143.43
N1510G01 X109.152 Y143.508
N1520G01 X109.051 Y143.581
N1530G01 X108.946 Y143.646
N1540G01 X108.837 Y143.704
N1550G01 X108.725 Y143.755
N1560G01 X108.61 Y143.798
N1570G01 X108.492 Y143.834
N1580G01 X108.371 Y143.862
N1590G01 X108.25 Y143.882
N1600G01 X108.126 Y143.895
N1610G01 X108 Y143.899
N1620G01 X107.873 Y143.895
N1630G01 X107.75 Y143.882
N1640G01 X107.627 Y143.862
N1650G01 X107.508 Y143.834
N1660G01 X107.389 Y143.798
N1670G01 X107.274 Y143.755
N1680G01 X107.162 Y143.704
N1690G01 X107.053 Y143.646
N1700G01 X106.948 Y143.58
N1710G01 X106.847 Y143.509
N1720G01 X106.751 Y143.43
N1730G01 X106.659 Y143.343
N1740G01 X106.573 Y143.251
N1750G01 X106.494 Y143.155
N1760G01 X106.422 Y143.054
N1770G01 X106.357 Y142.95
N1780G01 X106.299 Y142.841
N1790G01 X106.248 Y142.728
N1800G01 X106.204 Y142.613
N1810G01 X106.169 Y142.495
N1820G01 X106.14 Y142.375
N1830G01 X106.12 Y142.252
N1840G01 X106.108 Y142.129
N1850G01 X106.104 Y142
N1860G01 X106.108 Y141.87
N1870G01 X106.12 Y141.747
N1880G01 X106.141 Y141.625
N1890G01 X106.169 Y141.504
N1900G01 X106.204 Y141.387
N1910G01 X106.248 Y141.271
N1920G01 X106.299 Y141.158
N1930G01 X106.357 Y141.05
N1940G01 X106.422 Y140.945
N1950G01 X106.494 Y140.844
N1960G01 X106.572 Y140.748
N1970G01 X106.659 Y140.655
N1980G01 X106.751 Y140.569
N1990G01 X106.847 Y140.491
N2000G01 X106.026 Y139.418
N2010G01 X106.198 Y139.295
N2020G01 X106.378 Y139.183
N2030G01 X106.564 Y139.084
N2040G01 X106.757 Y138.997
N2050G01 X106.954 Y138.922
N2060G01 X107.156 Y138.861
N2070G01 X107.363 Y138.812
N2080G01 X107.572 Y138.778
N2090G01 X107.784 Y138.757
N2100G01 X108 Y138.75
N2110G01 X108.215 Y138.757
N2120G01 X108.427 Y138.778
N2130G01 X108.636 Y138.812
N2140G01 X108.842 Y138.861
N2150G01 X109.045 Y138.922
N2160G01 X109.242 Y138.996
N2170G01 X109.434 Y139.084
N2180G01 X109.621 Y139.183
N2190G01 X109.801 Y139.295
N2200G01 X109.974 Y139.419
N2210G01 X110.138 Y139.554
N2220G01 X110.295 Y139.701
N2230G01 X110.443 Y139.858
N2240G01 X110.578 Y140.023
N2250G01 X110.701 Y140.195
N2260G01 X110.813 Y140.375
N2270G01 X110.912 Y140.562
N2280G01 X110.999 Y140.754
N2290G01 X111.074 Y140.952
N2300G01 X111.135 Y141.154
N2310G01 X111.183 Y141.36
N2320G01 X111.218 Y141.57
N2330G01 X111.239 Y141.782
N2340G01 X111.246 Y142
N2350G01 X111.239 Y142.217
N2360G01 X111.218 Y142.429
N2370G01 X111.183 Y142.639
N2380G01 X111.135 Y142.845
N2390G01 X111.074 Y143.047
N2400G01 X110.999 Y143.245
N2410G01 X110.912 Y143.437
N2420G01 X110.813 Y143.624
N2430G01 X110.701 Y143.803
N2440G01 X110.577 Y143.976
N2450G01 X110.443 Y144.141
N2460G01 X110.295 Y144.298
N2470G01 X110.138 Y144.445
N2480G01 X109.974 Y144.581
N2490G01 X109.801 Y144.704
N2500G01 X109.621 Y144.816
N2510G01 X109.434 Y144.915
N2520G01 X109.242 Y145.002
N2530G01 X109.044 Y145.077
N2540G01 X108.843 Y145.138
N2550G01 X108.636 Y145.187
N2560G01 X108.427 Y145.221
N2570G01 X108.215 Y145.242
N2580G01 X108 Y145.25
N2590G01 X107.784 Y145.242
N2600G01 X107.572 Y145.221
N2610G01 X107.362 Y145.187
N2620G01 X107.157 Y145.139
N2630G01 X106.954 Y145.077
N2640G01 X106.757 Y145.003
N2650G01 X106.565 Y144.915
N2660G01 X106.378 Y144.816
N2670G01 X106.198 Y144.704
N2680G01 X106.026 Y144.581
N2690G01 X105.861 Y144.445
N2700G01 X105.704 Y144.298
N2710G01 X105.556 Y144.141
N2720G01 X105.422 Y143.976
N2730G01 X105.298 Y143.803
N2740G01 X105.186 Y143.624
N2750G01 X105.087 Y143.437
N2760G01 X105 Y143.244
N2770G01 X104.925 Y143.047
N2780G01 X104.864 Y142.845
N2790G01 X104.816 Y142.639
N2800G01 X104.781 Y142.429
N2810G01 X104.76 Y142.217
N2820G01 X104.753 Y142
N2830G01 X104.76 Y141.782
N2840G01 X104.781 Y141.57
N2850G01 X104.816 Y141.36
N2860G01 X104.864 Y141.154
N2870G01 X104.925 Y140.952
N2880G01 X105 Y140.754
N2890G01 X105.087 Y140.562
N2900G01 X105.186 Y140.375
N2910G01 X105.298 Y140.195
N2920G01 X105.421 Y140.023
N2930G01 X105.556 Y139.858
N2940G01 X105.704 Y139.701
N2950G01 X105.861 Y139.554
N2960G01 X106.026 Y139.418
N2970G01 X105.204 Y138.346
N2980G01 X105.449 Y138.171
N2990G01 X105.703 Y138.013
N3000G01 X105.967 Y137.872
N3010G01 X106.24 Y137.749
N3020G01 X106.52 Y137.643
N3030G01 X106.806 Y137.556
N3040G01 X107.098 Y137.488
N3050G01 X107.395 Y137.439
N3060G01 X107.695 Y137.409
N3070G01 X108 Y137.399
N3080G01 X108.304 Y137.409
N3090G01 X108.604 Y137.439
N3100G01 X108.901 Y137.488
N3110G01 X109.193 Y137.556
N3120G01 X109.479 Y137.643
N3130G01 X109.759 Y137.749
N3140G01 X110.031 Y137.872
N3150G01 X110.296 Y138.013
N3160G01 X110.55 Y138.171
N3170G01 X110.795 Y138.346
N3180G01 X111.029 Y138.538
N3190G01 X111.251 Y138.746
N3200G01 X111.459 Y138.968
N3210G01 X111.65 Y139.202
N3220G01 X111.825 Y139.446
N3230G01 X111.983 Y139.701
N3240G01 X112.124 Y139.965
N3250G01 X112.247 Y140.238
N3260G01 X112.353 Y140.518
N3270G01 X112.439 Y140.804
N3280G01 X112.508 Y141.096
N3290G01 X112.557 Y141.393
N3300G01 X112.587 Y141.693
N3310G01 X112.597 Y142
N3320G01 X112.587 Y142.306
N3330G01 X112.557 Y142.606
N3340G01 X112.508 Y142.903
N3350G01 X112.439 Y143.195
N3360G01 X112.353 Y143.481
N3370G01 X112.247 Y143.761
N3380G01 X112.124 Y144.034
N3390G01 X111.983 Y144.298
N3400G01 X111.825 Y144.553
N3410G01 X111.65 Y144.797
N3420G01 X111.459 Y145.031
N3430G01 X111.251 Y145.253
N3440G01 X111.029 Y145.461
N3450G01 X110.795 Y145.653
N3460G01 X110.55 Y145.828
N3470G01 X110.296 Y145.986
N3480G01 X110.032 Y146.127
N3490G01 X109.759 Y146.25
N3500G01 X109.479 Y146.356
N3510G01 X109.193 Y146.443
N3520G01 X108.901 Y146.511
N3530G01 X108.604 Y146.56
N3540G01 X108.304 Y146.59
N3550G01 X108 Y146.6
N3560G01 X107.695 Y146.59
N3570G01 X107.395 Y146.56
N3580G01 X107.098 Y146.511
N3590G01 X106.807 Y146.443
N3600G01 X106.519 Y146.356
N3610G01 X106.24 Y146.25
N3620G01 X105.967 Y146.127
N3630G01 X105.703 Y145.986
N3640G01 X105.449 Y145.828
N3650G01 X105.204 Y145.653
N3660G01 X104.971 Y145.461
N3670G01 X104.748 Y145.253
N3680G01 X104.54 Y145.031
N3690G01 X104.349 Y144.797
N3700G01 X104.174 Y144.553
N3710G01 X104.016 Y144.298
N3720G01 X103.875 Y144.034
N3730G01 X103.752 Y143.761
N3740G01 X103.647 Y143.481
N3750G01 X103.56 Y143.195
N3760G01 X103.491 Y142.903
N3770G01 X103.442 Y142.606
N3780G01 X103.412 Y142.306
N3790G01 X103.402 Y142
N3800G01 X103.412 Y141.693
N3810G01 X103.442 Y141.393
N3820G01 X103.491 Y141.096
N3830G01 X103.56 Y140.804
N3840G01 X103.646 Y140.518
N3850G01 X103.752 Y140.238
N3860G01 X103.875 Y139.965
N3870G01 X104.016 Y139.701
N3880G01 X104.174 Y139.446
N3890G01 X104.349 Y139.202
N3900G01 X104.54 Y138.968
N3910G01 X104.749 Y138.746
N3920G01 X104.97 Y138.538
N3930G01 X105.204 Y138.346
N3940G01 X104.383 Y137.274
N3950G01 X104.699 Y137.048
N3960G01 X105.029 Y136.843
N3970G01 X105.37 Y136.661
N3980G01 X105.723 Y136.501
N3990G01 X106.085 Y136.365
N4000G01 X106.455 Y136.252
N4010G01 X106.834 Y136.163
N4020G01 X107.217 Y136.1
N4030G01 X107.606 Y136.061
N4040G01 X108 Y136.048
N4050G01 X108.393 Y136.061
N4060G01 X108.782 Y136.1
N4070G01 X109.166 Y136.163
N4080G01 X109.544 Y136.252
N4090G01 X109.914 Y136.365
N4100G01 X110.276 Y136.501
N4110G01 X110.628 Y136.66
N4120G01 X110.97 Y136.843
N4130G01 X111.3 Y137.048
N4140G01 X111.617 Y137.274
N4150G01 X111.919 Y137.522
N4160G01 X112.206 Y137.791
N4170G01 X112.475 Y138.078
N4180G01 X112.722 Y138.38
N4190G01 X112.949 Y138.697
N4200G01 X113.153 Y139.027
N4210G01 X113.336 Y139.369
N4220G01 X113.495 Y139.721
N4230G01 X113.632 Y140.083
N4240G01 X113.744 Y140.454
N4250G01 X113.832 Y140.832
N4260G01 X113.896 Y141.216
N4270G01 X113.934 Y141.605
N4280G01 X113.947 Y142
N4290G01 X113.934 Y142.394
N4300G01 X113.896 Y142.783
N4310G01 X113.832 Y143.167
N4320G01 X113.744 Y143.545
N4330G01 X113.631 Y143.916
N4340G01 X113.495 Y144.278
N4350G01 X113.336 Y144.63
N4360G01 X113.153 Y144.972
N4370G01 X112.949 Y145.302
N4380G01 X112.723 Y145.619
N4390G01 X112.475 Y145.921
N4400G01 X112.206 Y146.208
N4410G01 X111.919 Y146.477
N4420G01 X111.616 Y146.725
N4430G01 X111.3 Y146.951
N4440G01 X110.97 Y147.156
N4450G01 X110.629 Y147.338
N4460G01 X110.276 Y147.498
N4470G01 X109.914 Y147.635
N4480G01 X109.544 Y147.747
N4490G01 X109.166 Y147.836
N4500G01 X108.782 Y147.899
N4510G01 X108.393 Y147.938
N4520G01 X108 Y147.951
N4530G01 X107.606 Y147.938
N4540G01 X107.217 Y147.899
N4550G01 X106.833 Y147.836
N4560G01 X106.456 Y147.747
N4570G01 X106.085 Y147.634
N4580G01 X105.723 Y147.498
N4590G01 X105.37 Y147.339
N4600G01 X105.029 Y147.156
N4610G01 X104.699 Y146.951
N4620G01 X104.383 Y146.725
N4630G01 X104.08 Y146.477
N4640G01 X103.793 Y146.208
N4650G01 X103.524 Y145.921
N4660G01 X103.277 Y145.619
N4670G01 X103.05 Y145.302
N4680G01 X102.846 Y144.972
N4690G01 X102.663 Y144.63
N4700G01 X102.504 Y144.278
N4710G01 X102.368 Y143.916
N4720G01 X102.255 Y143.545
N4730G01 X102.167 Y143.167
N4740G01 X102.103 Y142.783
N4750G01 X102.065 Y142.394
N4760G01 X102.052 Y142
N4770G01 X102.065 Y141.605
N4780G01 X102.103 Y141.216
N4790G01 X102.167 Y140.832
N4800G01 X102.255 Y140.454
N4810G01 X102.367 Y140.083
N4820G01 X102.504 Y139.721
N4830G01 X102.663 Y139.369
N4840G01 X102.846 Y139.027
N4850G01 X103.05 Y138.697
N4860G01 X103.277 Y138.38
N4870G01 X103.524 Y138.078
N4880G01 X103.793 Y137.791
N4890G01 X104.08 Y137.522
N4900G01 X104.383 Y137.274
N4910G01 X103.561 Y136.202
N4920G01 X103.949 Y135.924
N4930G01 X104.354 Y135.673
N4940G01 X104.773 Y135.449
N4950G01 X105.206 Y135.253
N4960G01 X105.65 Y135.086
N4970G01 X106.105 Y134.947
N4980G01 X106.569 Y134.839
N4990G01 X107.04 Y134.761
N5000G01 X107.517 Y134.713
N5010G01 X108 Y134.697
N5020G01 X108.482 Y134.713
N5030G01 X108.959 Y134.761
N5040G01 X109.43 Y134.839
N5050G01 X109.894 Y134.947
N5060G01 X110.349 Y135.086
N5070G01 X110.793 Y135.253
N5080G01 X111.225 Y135.449
N5090G01 X111.645 Y135.673
N5100G01 X112.05 Y135.924
N5110G01 X112.438 Y136.202
N5120G01 X112.809 Y136.506
N5130G01 X113.161 Y136.836
N5140G01 X113.491 Y137.189
N5150G01 X113.795 Y137.559
N5160G01 X114.073 Y137.948
N5170G01 X114.324 Y138.353
N5180G01 X114.547 Y138.772
N5190G01 X114.743 Y139.205
N5200G01 X114.911 Y139.649
N5210G01 X115.049 Y140.104
N5220G01 X115.157 Y140.567
N5230G01 X115.235 Y141.039
N5240G01 X115.282 Y141.516
N5250G01 X115.298 Y142
N5260G01 X115.282 Y142.483
N5270G01 X115.235 Y142.96
N5280G01 X115.157 Y143.432
N5290G01 X115.049 Y143.895
N5300G01 X114.91 Y144.35
N5310G01 X114.743 Y144.794
N5320G01 X114.547 Y145.227
N5330G01 X114.324 Y145.647
N5340G01 X114.073 Y146.051
N5350G01 X113.795 Y146.44
N5360G01 X113.491 Y146.811
N5370G01 X113.161 Y147.163
N5380G01 X112.809 Y147.493
N5390G01 X112.438 Y147.797
N5400G01 X112.049 Y148.075
N5410G01 X111.645 Y148.326
N5420G01 X111.226 Y148.55
N5430G01 X110.793 Y148.746
N5440G01 X110.349 Y148.913
N5450G01 X109.894 Y149.052
N5460G01 X109.43 Y149.16
N5470G01 X108.959 Y149.238
N5480G01 X108.482 Y149.286
N5490G01 X108 Y149.302
N5500G01 X107.517 Y149.286
N5510G01 X107.04 Y149.238
N5520G01 X106.569 Y149.16
N5530G01 X106.105 Y149.052
N5540G01 X105.65 Y148.913
N5550G01 X105.206 Y148.746
N5560G01 X104.773 Y148.55
N5570G01 X104.354 Y148.326
N5580G01 X103.95 Y148.075
N5590G01 X103.561 Y147.797
N5600G01 X103.19 Y147.493
N5610G01 X102.838 Y147.163
N5620G01 X102.508 Y146.811
N5630G01 X102.204 Y146.44
N5640G01 X101.926 Y146.051
N5650G01 X101.675 Y145.647
N5660G01 X101.452 Y145.227
N5670G01 X101.256 Y144.794
N5680G01 X101.089 Y144.35
N5690G01 X100.95 Y143.895
N5700G01 X100.842 Y143.432
N5710G01 X100.764 Y142.96
N5720G01 X100.717 Y142.483
N5730G01 X100.701 Y142
N5740G01 X100.717 Y141.516
N5750G01 X100.764 Y141.039
N5760G01 X100.842 Y140.568
N5770G01 X100.95 Y140.104
N5780G01 X101.088 Y139.649
N5790G01 X101.256 Y139.205
N5800G01 X101.452 Y138.772
N5810G01 X101.675 Y138.353
N5820G01 X101.926 Y137.948
N5830G01 X102.204 Y137.559
N5840G01 X102.508 Y137.189
N5850G01 X102.838 Y136.836
N5860G01 X103.19 Y136.506
N5870G01 X103.561 Y136.202
N5880G01 X102.74 Y135.13
N5890G01 X103.2 Y134.8
N5900G01 X103.679 Y134.503
N5910G01 X104.176 Y134.237
N5920G01 X104.689 Y134.005
N5930G01 X105.215 Y133.807
N5940G01 X105.754 Y133.643
N5950G01 X106.304 Y133.514
N5960G01 X106.862 Y133.422
N5970G01 X107.428 Y133.365
N5980G01 X108 Y133.347
N5990G01 X108.571 Y133.365
N6000G01 X109.137 Y133.422
N6010G01 X109.695 Y133.514
N6020G01 X110.245 Y133.643
N6030G01 X110.784 Y133.807
N6040G01 X111.31 Y134.005
N6050G01 X111.823 Y134.237
N6060G01 X112.32 Y134.503
N6070G01 X112.799 Y134.8
N6080G01 X113.26 Y135.13
N6090G01 X113.699 Y135.49
N6100G01 X114.117 Y135.881
N6110G01 X114.507 Y136.299
N6120G01 X114.868 Y136.738
N6130G01 X115.197 Y137.199
N6140G01 X115.494 Y137.678
N6150G01 X115.759 Y138.175
N6160G01 X115.991 Y138.688
N6170G01 X116.19 Y139.215
N6180G01 X116.353 Y139.754
N6190G01 X116.482 Y140.303
N6200G01 X116.574 Y140.862
N6210G01 X116.63 Y141.427
N6220G01 X116.649 Y142
N6230G01 X116.63 Y142.572
N6240G01 X116.574 Y143.137
N6250G01 X116.482 Y143.696
N6260G01 X116.353 Y144.245
N6270G01 X116.189 Y144.784
N6280G01 X115.991 Y145.311
N6290G01 X115.759 Y145.824
N6300G01 X115.494 Y146.321
N6310G01 X115.197 Y146.8
N6320G01 X114.868 Y147.261
N6330G01 X114.507 Y147.7
N6340G01 X114.117 Y148.118
N6350G01 X113.699 Y148.509
N6360G01 X113.26 Y148.869
N6370G01 X112.799 Y149.199
N6380G01 X112.32 Y149.496
N6390G01 X111.823 Y149.762
N6400G01 X111.31 Y149.994
N6410G01 X110.784 Y150.192
N6420G01 X110.245 Y150.356
N6430G01 X109.695 Y150.485
N6440G01 X109.137 Y150.577
N6450G01 X108.571 Y150.634
N6460G01 X108 Y150.653
N6470G01 X107.428 Y150.634
N6480G01 X106.862 Y150.577
N6490G01 X106.304 Y150.485
N6500G01 X105.754 Y150.356
N6510G01 X105.215 Y150.192
N6520G01 X104.689 Y149.994
N6530G01 X104.176 Y149.762
N6540G01 X103.679 Y149.496
N6550G01 X103.2 Y149.199
N6560G01 X102.74 Y148.869
N6570G01 X102.3 Y148.509
N6580G01 X101.882 Y148.118
N6590G01 X101.492 Y147.7
N6600G01 X101.131 Y147.261
N6610G01 X100.802 Y146.8
N6620G01 X100.505 Y146.321
N6630G01 X100.24 Y145.824
N6640G01 X100.008 Y145.311
N6650G01 X99.81 Y144.784
N6660G01 X99.646 Y144.245
N6670G01 X99.517 Y143.696
N6680G01 X99.425 Y143.137
N6690G01 X99.369 Y142.572
N6700G01 X99.35 Y142
N6710G01 X99.369 Y141.427
N6720G01 X99.425 Y140.862
N6730G01 X99.517 Y140.303
N6740G01 X99.646 Y139.754
N6750G01 X99.81 Y139.215
N6760G01 X100.008 Y138.688
N6770G01 X100.24 Y138.175
N6780G01 X100.505 Y137.678
N6790G01 X100.802 Y137.199
N6800G01 X101.131 Y136.738
N6810G01 X101.492 Y136.299
N6820G01 X101.882 Y135.881
N6830G01 X102.3 Y135.49
N6840G01 X102.74 Y135.13
N6850 G00 Z19.999
N6860 G00 X107.669 Y141.563
N6870G01 Z-2 F500
N6880G01 X107.697 Y141.542 F1000
N6890G01 X107.727 Y141.524
N6900G01 X107.758 Y141.507
N6910G01 X107.791 Y141.492
N6920G01 X107.824 Y141.48
N6930G01 X107.858 Y141.47
N6940G01 X107.893 Y141.461
N6950G01 X107.927 Y141.456
N6960G01 X107.962 Y141.452
N6970G01 X108 Y141.451
N6980G01 X108.037 Y141.452
N6990G01 X108.072 Y141.456
N7000G01 X108.107 Y141.461
N7010G01 X108.141 Y141.47
N7020G01 X108.175 Y141.48
N7030G01 X108.208 Y141.492
N7040G01 X108.24 Y141.507
N7050G01 X108.272 Y141.524
N7060G01 X108.301 Y141.542
N7070G01 X108.331 Y141.563
N7080G01 X108.358 Y141.585
N7090G01 X108.385 Y141.61
N7100G01 X108.41 Y141.638
N7110G01 X108.433 Y141.665
N7120G01 X108.453 Y141.694
N7130G01 X108.472 Y141.724
N7140G01 X108.489 Y141.755
N7150G01 X108.503 Y141.787
N7160G01 X108.516 Y141.821
N7170G01 X108.526 Y141.854
N7180G01 X108.534 Y141.889
N7190G01 X108.54 Y141.924
N7200G01 X108.543 Y141.959
N7210G01 X108.544 Y142
N7220G01 X108.543 Y142.04
N7230G01 X108.54 Y142.076
N7240G01 X108.534 Y142.11
N7250G01 X108.526 Y142.145
N7260G01 X108.516 Y142.178
N7270G01 X108.503 Y142.212
N7280G01 X108.488 Y142.244
N7290G01 X108.472 Y142.275
N7300G01 X108.453 Y142.305
N7310G01 X108.432 Y142.334
N7320G01 X108.41 Y142.361
N7330G01 X108.385 Y142.389
N7340G01 X108.358 Y142.414
N7350G01 X108.33 Y142.436
N7360G01 X108.301 Y142.457
N7370G01 X108.272 Y142.475
N7380G01 X108.241 Y142.492
N7390G01 X108.208 Y142.507
N7400G01 X108.175 Y142.519
N7410G01 X108.141 Y142.529
N7420G01 X108.106 Y142.538
N7430G01 X108.072 Y142.543
N7440G01 X108.037 Y142.547
N7450G01 X108 Y142.548
N7460G01 X107.962 Y142.547
N7470G01 X107.927 Y142.543
N7480G01 X107.892 Y142.538
N7490G01 X107.858 Y142.53
N7500G01 X107.824 Y142.519
N7510G01 X107.791 Y142.507
N7520G01 X107.759 Y142.492
N7530G01 X107.727 Y142.476
N7540G01 X107.697 Y142.457
N7550G01 X107.669 Y142.436
N7560G01 X107.641 Y142.414
N7570G01 X107.614 Y142.388
N7580G01 X107.589 Y142.361
N7590G01 X107.567 Y142.334
N7600G01 X107.546 Y142.305
N7610G01 X107.527 Y142.275
N7620G01 X107.511 Y142.244
N7630G01 X107.496 Y142.211
N7640G01 X107.483 Y142.179
N7650G01 X107.473 Y142.145
N7660G01 X107.465 Y142.11
N7670G01 X107.459 Y142.076
N7680G01 X107.456 Y142.04
N7690G01 X107.455 Y142
N7700G01 X107.456 Y141.959
N7710G01 X107.459 Y141.924
N7720G01 X107.465 Y141.889
N7730G01 X107.473 Y141.854
N7740G01 X107.483 Y141.821
N7750G01 X107.496 Y141.788
N7760G01 X107.511 Y141.755
N7770G01 X107.527 Y141.724
N7780G01 X107.546 Y141.694
N7790G01 X107.566 Y141.665
N7800G01 X107.589 Y141.638
N7810G01 X107.614 Y141.61
N7820G01 X107.641 Y141.585
N7830G01 X107.669 Y141.563
N7840G01 X106.847 Y140.491
N7850G01 X106.948 Y140.419
N7860G01 X107.053 Y140.353
N7870G01 X107.162 Y140.295
N7880G01 X107.274 Y140.244
N7890G01 X107.389 Y140.201
N7900G01 X107.507 Y140.165
N7910G01 X107.628 Y140.137
N7920G01 X107.75 Y140.117
N7930G01 X107.873 Y140.104
N7940G01 X108 Y140.1
N7950G01 X108.126 Y140.104
N7960G01 X108.249 Y140.117
N7970G01 X108.372 Y140.137
N7980G01 X108.492 Y140.165
N7990G01 X108.61 Y140.201
N8000G01 X108.725 Y140.244
N8010G01 X108.838 Y140.295
N8020G01 X108.946 Y140.353
N8030G01 X109.051 Y140.419
N8040G01 X109.152 Y140.491
N8050G01 X109.248 Y140.569
N8060G01 X109.34 Y140.655
N8070G01 X109.426 Y140.748
N8080G01 X109.505 Y140.844
N8090G01 X109.577 Y140.945
N8100G01 X109.642 Y141.049
N8110G01 X109.7 Y141.158
N8120G01 X109.751 Y141.271
N8130G01 X109.795 Y141.386
N8140G01 X109.83 Y141.504
N8150G01 X109.859 Y141.625
N8160G01 X109.879 Y141.747
N8170G01 X109.891 Y141.87
N8180G01 X109.895 Y142
N8190G01 X109.891 Y142.129
N8200G01 X109.879 Y142.253
N8210G01 X109.858 Y142.375
N8220G01 X109.83 Y142.495
N8230G01 X109.795 Y142.613
N8240G01 X109.751 Y142.728
N8250G01 X109.7 Y142.841
N8260G01 X109.642 Y142.95
N8270G01 X109.577 Y143.054
N8280G01 X109.505 Y143.155
N8290G01 X109.427 Y143.251
N8300G01 X109.34 Y143.344
N8310G01 X109.248 Y143.43
N8320G01 X109.152 Y143.508
N8330G01 X109.051 Y143.581
N8340G01 X108.946 Y143.646
N8350G01 X108.837 Y143.704
N8360G01 X108.725 Y143.755
N8370G01 X108.61 Y143.798
N8380G01 X108.492 Y143.834
N8390G01 X108.371 Y143.862
N8400G01 X108.25 Y143.882
N8410G01 X108.126 Y143.895
N8420G01 X108 Y143.899
N8430G01 X107.873 Y143.895
N8440G01 X107.75 Y143.882
N8450G01 X107.627 Y143.862
N8460G01 X107.508 Y143.834
N8470G01 X107.389 Y143.798
N8480G01 X107.274 Y143.755
N8490G01 X107.162 Y143.704
N8500G01 X107.053 Y143.646
N8510G01 X106.948 Y143.58
N8520G01 X106.847 Y143.509
N8530G01 X106.751 Y143.43
N8540G01 X106.659 Y143.343
N8550G01 X106.573 Y143.251
N8560G01 X106.494 Y143.155
N8570G01 X106.422 Y143.054
N8580G01 X106.357 Y142.95
N8590G01 X106.299 Y142.841
N8600G01 X106.248 Y142.728
N8610G01 X106.204 Y142.613
N8620G01 X106.169 Y142.495
N8630G01 X106.14 Y142.375
N8640G01 X106.12 Y142.252
N8650G01 X106.108 Y142.129
N8660G01 X106.104 Y142
N8670G01 X106.108 Y141.87
N8680G01 X106.12 Y141.747
N8690G01 X106.141 Y141.625
N8700G01 X106.169 Y141.504
N8710G01 X106.204 Y141.387
N8720G01 X106.248 Y141.271
N8730G01 X106.299 Y141.158
N8740G01 X106.357 Y141.05
N8750G01 X106.422 Y140.945
N8760G01 X106.494 Y140.844
N8770G01 X106.572 Y140.748
N8780G01 X106.659 Y140.655
N8790G01 X106.751 Y140.569
N8800G01 X106.847 Y140.491
N8810G01 X106.026 Y139.418
N8820G01 X106.198 Y139.295
N8830G01 X106.378 Y139.183
N8840G01 X106.564 Y139.084
N8850G01 X106.757 Y138.997
N8860G01 X106.954 Y138.922
N8870G01 X107.156 Y138.861
N8880G01 X107.363 Y138.812
N8890G01 X107.572 Y138.778
N8900G01 X107.784 Y138.757
N8910G01 X108 Y138.75
N8920G01 X108.215 Y138.757
N8930G01 X108.427 Y138.778
N8940G01 X108.636 Y138.812
N8950G01 X108.842 Y138.861
N8960G01 X109.045 Y138.922
N8970G01 X109.242 Y138.996
N8980G01 X109.434 Y139.084
N8990G01 X109.621 Y139.183
N9000G01 X109.801 Y139.295
N9010G01 X109.974 Y139.419
N9020G01 X110.138 Y139.554
N9030G01 X110.295 Y139.701
N9040G01 X110.443 Y139.858
N9050G01 X110.578 Y140.023
N9060G01 X110.701 Y140.195
N9070G01 X110.813 Y140.375
N9080G01 X110.912 Y140.562
N9090G01 X110.999 Y140.754
N9100G01 X111.074 Y140.952
N9110G01 X111.135 Y141.154
N9120G01 X111.183 Y141.36
N9130G01 X111.218 Y141.57
N9140G01 X111.239 Y141.782
N9150G01 X111.246 Y142
N9160G01 X111.239 Y142.217
N9170G01 X111.218 Y142.429
N9180G01 X111.183 Y142.639
N9190G01 X111.135 Y142.845
N9200G01 X111.074 Y143.047
N9210G01 X110.999 Y143.245
N9220G01 X110.912 Y143.437
N9230G01 X110.813 Y143.624
N9240G01 X110.701 Y143.803
N9250G01 X110.577 Y143.976
N9260G01 X110.443 Y144.141
N9270G01 X110.295 Y144.298
N9280G01 X110.138 Y144.445
N9290G01 X109.974 Y144.581
N9300G01 X109.801 Y144.704
N9310G01 X109.621 Y144.816
N9320G01 X109.434 Y144.915
N9330G01 X109.242 Y145.002
N9340G01 X109.044 Y145.077
N9350G01 X108.843 Y145.138
N9360G01 X108.636 Y145.187
N9370G01 X108.427 Y145.221
N9380G01 X108.215 Y145.242
N9390G01 X108 Y145.25
N9400G01 X107.784 Y145.242
N9410G01 X107.572 Y145.221
N9420G01 X107.362 Y145.187
N9430G01 X107.157 Y145.139
N9440G01 X106.954 Y145.077
N9450G01 X106.757 Y145.003
N9460G01 X106.565 Y144.915
N9470G01 X106.378 Y144.816
N9480G01 X106.198 Y144.704
N9490G01 X106.026 Y144.581
N9500G01 X105.861 Y144.445
N9510G01 X105.704 Y144.298
N9520G01 X105.556 Y144.141
N9530G01 X105.422 Y143.976
N9540G01 X105.298 Y143.803
N9550G01 X105.186 Y143.624
N9560G01 X105.087 Y143.437
N9570G01 X105 Y143.244
N9580G01 X104.925 Y143.047
N9590G01 X104.864 Y142.845
N9600G01 X104.816 Y142.639
N9610G01 X104.781 Y142.429
N9620G01 X104.76 Y142.217
N9630G01 X104.753 Y142
N9640G01 X104.76 Y141.782
N9650G01 X104.781 Y141.57
N9660G01 X104.816 Y141.36
N9670G01 X104.864 Y141.154
N9680G01 X104.925 Y140.952
N9690G01 X105 Y140.754
N9700G01 X105.087 Y140.562
N9710G01 X105.186 Y140.375
N9720G01 X105.298 Y140.195
N9730G01 X105.421 Y140.023
N9740G01 X105.556 Y139.858
N9750G01 X105.704 Y139.701
N9760G01 X105.861 Y139.554
N9770G01 X106.026 Y139.418
N9780G01 X105.204 Y138.346
N9790G01 X105.449 Y138.171
N9800G01 X105.703 Y138.013
N9810G01 X105.967 Y137.872
N9820G01 X106.24 Y137.749
N9830G01 X106.52 Y137.643
N9840G01 X106.806 Y137.556
N9850G01 X107.098 Y137.488
N9860G01 X107.395 Y137.439
N9870G01 X107.695 Y137.409
N9880G01 X108 Y137.399
N9890G01 X108.304 Y137.409
N9900G01 X108.604 Y137.439
N9910G01 X108.901 Y137.488
N9920G01 X109.193 Y137.556
N9930G01 X109.479 Y137.643
N9940G01 X109.759 Y137.749
N9950G01 X110.031 Y137.872
N9960G01 X110.296 Y138.013
N9970G01 X110.55 Y138.171
N9980G01 X110.795 Y138.346
N9990G01 X111.029 Y138.538
N10000G01 X111.251 Y138.746
N10010G01 X111.459 Y138.968
N10020G01 X111.65 Y139.202
N10030G01 X111.825 Y139.446
N10040G01 X111.983 Y139.701
N10050G01 X112.124 Y139.965
N10060G01 X112.247 Y140.238
N10070G01 X112.353 Y140.518
N10080G01 X112.439 Y140.804
N10090G01 X112.508 Y141.096
N10100G01 X112.557 Y141.393
N10110G01 X112.587 Y141.693
N10120G01 X112.597 Y142
N10130G01 X112.587 Y142.306
N10140G01 X112.557 Y142.606
N10150G01 X112.508 Y142.903
N10160G01 X112.439 Y143.195
N10170G01 X112.353 Y143.481
N10180G01 X112.247 Y143.761
N10190G01 X112.124 Y144.034
N10200G01 X111.983 Y144.298
N10210G01 X111.825 Y144.553
N10220G01 X111.65 Y144.797
N10230G01 X111.459 Y145.031
N10240G01 X111.251 Y145.253
N10250G01 X111.029 Y145.461
N10260G01 X110.795 Y145.653
N10270G01 X110.55 Y145.828
N10280G01 X110.296 Y145.986
N10290G01 X110.032 Y146.127
N10300G01 X109.759 Y146.25
N10310G01 X109.479 Y146.356
N10320G01 X109.193 Y146.443
N10330G01 X108.901 Y146.511
N10340G01 X108.604 Y146.56
N10350G01 X108.304 Y146.59
N10360G01 X108 Y146.6
N10370G01 X107.695 Y146.59
N10380G01 X107.395 Y146.56
N10390G01 X107.098 Y146.511
N10400G01 X106.807 Y146.443
N10410G01 X106.519 Y146.356
N10420G01 X106.24 Y146.25
N10430G01 X105.967 Y146.127
N10440G01 X105.703 Y145.986
N10450G01 X105.449 Y145.828
N10460G01 X105.204 Y145.653
N10470G01 X104.971 Y145.461
N10480G01 X104.748 Y145.253
N10490G01 X104.54 Y145.031
N10500G01 X104.349 Y144.797
N10510G01 X104.174 Y144.553
N10520G01 X104.016 Y144.298
N10530G01 X103.875 Y144.034
N10540G01 X103.752 Y143.761
N10550G01 X103.647 Y143.481
N10560G01 X103.56 Y143.195
N10570G01 X103.491 Y142.903
N10580G01 X103.442 Y142.606
N10590G01 X103.412 Y142.306
N10600G01 X103.402 Y142
N10610G01 X103.412 Y141.693
N10620G01 X103.442 Y141.393
N10630G01 X103.491 Y141.096
N10640G01 X103.56 Y140.804
N10650G01 X103.646 Y140.518
N10660G01 X103.752 Y140.238
N10670G01 X103.875 Y139.965
N10680G01 X104.016 Y139.701
N10690G01 X104.174 Y139.446
N10700G01 X104.349 Y139.202
N10710G01 X104.54 Y138.968
N10720G01 X104.749 Y138.746
N10730G01 X104.97 Y138.538
N10740G01 X105.204 Y138.346
N10750G01 X104.383 Y137.274
N10760G01 X104.699 Y137.048
N10770G01 X105.029 Y136.843
N10780G01 X105.37 Y136.661
N10790G01 X105.723 Y136.501
N10800G01 X106.085 Y136.365
N10810G01 X106.455 Y136.252
N10820G01 X106.834 Y136.163
N10830G01 X107.217 Y136.1
N10840G01 X107.606 Y136.061
N10850G01 X108 Y136.048
N10860G01 X108.393 Y136.061
N10870G01 X108.782 Y136.1
N10880G01 X109.166 Y136.163
N10890G01 X109.544 Y136.252
N10900G01 X109.914 Y136.365
N10910G01 X110.276 Y136.501
N10920G01 X110.628 Y136.66
N10930G01 X110.97 Y136.843
N10940G01 X111.3 Y137.048
N10950G01 X111.617 Y137.274
N10960G01 X111.919 Y137.522
N10970G01 X112.206 Y137.791
N10980G01 X112.475 Y138.078
N10990G01 X112.722 Y138.38
N11000G01 X112.949 Y138.697
N11010G01 X113.153 Y139.027
N11020G01 X113.336 Y139.369
N11030G01 X113.495 Y139.721
N11040G01 X113.632 Y140.083
N11050G01 X113.744 Y140.454
N11060G01 X113.832 Y140.832
N11070G01 X113.896 Y141.216
N11080G01 X113.934 Y141.605
N11090G01 X113.947 Y142
N11100G01 X113.934 Y142.394
N11110G01 X113.896 Y142.783
N11120G01 X113.832 Y143.167
N11130G01 X113.744 Y143.545
N11140G01 X113.631 Y143.916
N11150G01 X113.495 Y144.278
N11160G01 X113.336 Y144.63
N11170G01 X113.153 Y144.972
N11180G01 X112.949 Y145.302
N11190G01 X112.723 Y145.619
N11200G01 X112.475 Y145.921
N11210G01 X112.206 Y146.208
N11220G01 X111.919 Y146.477
N11230G01 X111.616 Y146.725
N11240G01 X111.3 Y146.951
N11250G01 X110.97 Y147.156
N11260G01 X110.629 Y147.338
N11270G01 X110.276 Y147.498
N11280G01 X109.914 Y147.635
N11290G01 X109.544 Y147.747
N11300G01 X109.166 Y147.836
N11310G01 X108.782 Y147.899
N11320G01 X108.393 Y147.938
N11330G01 X108 Y147.951
N11340G01 X107.606 Y147.938
N11350G01 X107.217 Y147.899
N11360G01 X106.833 Y147.836
N11370G01 X106.456 Y147.747
N11380G01 X106.085 Y147.634
N11390G01 X105.723 Y147.498
N11400G01 X105.37 Y147.339
N11410G01 X105.029 Y147.156
N11420G01 X104.699 Y146.951
N11430G01 X104.383 Y146.725
N11440G01 X104.08 Y146.477
N11450G01 X103.793 Y146.208
N11460G01 X103.524 Y145.921
N11470G01 X103.277 Y145.619
N11480G01 X103.05 Y145.302
N11490G01 X102.846 Y144.972
N11500G01 X102.663 Y144.63
N11510G01 X102.504 Y144.278
N11520G01 X102.368 Y143.916
N11530G01 X102.255 Y143.545
N11540G01 X102.167 Y143.167
N11550G01 X102.103 Y142.783
N11560G01 X102.065 Y142.394
N11570G01 X102.052 Y142
N11580G01 X102.065 Y141.605
N11590G01 X102.103 Y141.216
N11600G01 X102.167 Y140.832
N11610G01 X102.255 Y140.454
N11620G01 X102.367 Y140.083
N11630G01 X102.504 Y139.721
N11640G01 X102.663 Y139.369
N11650G01 X102.846 Y139.027
N11660G01 X103.05 Y138.697
N11670G01 X103.277 Y138.38
N11680G01 X103.524 Y138.078
N11690G01 X103.793 Y137.791
N11700G01 X104.08 Y137.522
N11710G01 X104.383 Y137.274
N11720G01 X103.561 Y136.202
N11730G01 X103.949 Y135.924
N11740G01 X104.354 Y135.673
N11750G01 X104.773 Y135.449
N11760G01 X105.206 Y135.253
N11770G01 X105.65 Y135.086
N11780G01 X106.105 Y134.947
N11790G01 X106.569 Y134.839
N11800G01 X107.04 Y134.761
N11810G01 X107.517 Y134.713
N11820G01 X108 Y134.697
N11830G01 X108.482 Y134.713
N11840G01 X108.959 Y134.761
N11850G01 X109.43 Y134.839
N11860G01 X109.894 Y134.947
N11870G01 X110.349 Y135.086
N11880G01 X110.793 Y135.253
N11890G01 X111.225 Y135.449
N11900G01 X111.645 Y135.673
N11910G01 X112.05 Y135.924
N11920G01 X112.438 Y136.202
N11930G01 X112.809 Y136.506
N11940G01 X113.161 Y136.836
N11950G01 X113.491 Y137.189
N11960G01 X113.795 Y137.559
N11970G01 X114.073 Y137.948
N11980G01 X114.324 Y138.353
N11990G01 X114.547 Y138.772
N12000G01 X114.743 Y139.205
N12010G01 X114.911 Y139.649
N12020G01 X115.049 Y140.104
N12030G01 X115.157 Y140.567
N12040G01 X115.235 Y141.039
N12050G01 X115.282 Y141.516
N12060G01 X115.298 Y142
N12070G01 X115.282 Y142.483
N12080G01 X115.235 Y142.96
N12090G01 X115.157 Y143.432
N12100G01 X115.049 Y143.895
N12110G01 X114.91 Y144.35
N12120G01 X114.743 Y144.794
N12130G01 X114.547 Y145.227
N12140G01 X114.324 Y145.647
N12150G01 X114.073 Y146.051
N12160G01 X113.795 Y146.44
N12170G01 X113.491 Y146.811
N12180G01 X113.161 Y147.163
N12190G01 X112.809 Y147.493
N12200G01 X112.438 Y147.797
N12210G01 X112.049 Y148.075
N12220G01 X111.645 Y148.326
N12230G01 X111.226 Y148.55
N12240G01 X110.793 Y148.746
N12250G01 X110.349 Y148.913
N12260G01 X109.894 Y149.052
N12270G01 X109.43 Y149.16
N12280G01 X108.959 Y149.238
N12290G01 X108.482 Y149.286
N12300G01 X108 Y149.302
N12310G01 X107.517 Y149.286
N12320G01 X107.04 Y149.238
N12330G01 X106.569 Y149.16
N12340G01 X106.105 Y149.052
N12350G01 X105.65 Y148.913
N12360G01 X105.206 Y148.746
N12370G01 X104.773 Y148.55
N12380G01 X104.354 Y148.326
N12390G01 X103.95 Y148.075
N12400G01 X103.561 Y147.797
N12410G01 X103.19 Y147.493
N12420G01 X102.838 Y147.163
N12430G01 X102.508 Y146.811
N12440G01 X102.204 Y146.44
N12450G01 X101.926 Y146.051
N12460G01 X101.675 Y145.647
N12470G01 X101.452 Y145.227
N12480G01 X101.256 Y144.794
N12490G01 X101.089 Y144.35
N12500G01 X100.95 Y143.895
N12510G01 X100.842 Y143.432
N12520G01 X100.764 Y142.96
N12530G01 X100.717 Y142.483
N12540G01 X100.701 Y142
N12550G01 X100.717 Y141.516
N12560G01 X100.764 Y141.039
N12570G01 X100.842 Y140.568
N12580G01 X100.95 Y140.104
N12590G01 X101.088 Y139.649
N12600G01 X101.256 Y139.205
N12610G01 X101.452 Y138.772
N12620G01 X101.675 Y138.353
N12630G01 X101.926 Y137.948
N12640G01 X102.204 Y137.559
N12650G01 X102.508 Y137.189
N12660G01 X102.838 Y136.836
N12670G01 X103.19 Y136.506
N12680G01 X103.561 Y136.202
N12690G01 X102.74 Y135.13
N12700G01 X103.2 Y134.8
N12710G01 X103.679 Y134.503
N12720G01 X104.176 Y134.237
N12730G01 X104.689 Y134.005
N12740G01 X105.215 Y133.807
N12750G01 X105.754 Y133.643
N12760G01 X106.304 Y133.514
N12770G01 X106.862 Y133.422
N12780G01 X107.428 Y133.365
N12790G01 X108 Y133.347
N12800G01 X108.571 Y133.365
N12810G01 X109.137 Y133.422
N12820G01 X109.695 Y133.514
N12830G01 X110.245 Y133.643
N12840G01 X110.784 Y133.807
N12850G01 X111.31 Y134.005
N12860G01 X111.823 Y134.237
N12870G01 X112.32 Y134.503
N12880G01 X112.799 Y134.8
N12890G01 X113.26 Y135.13
N12900G01 X113.699 Y135.49
N12910G01 X114.117 Y135.881
N12920G01 X114.507 Y136.299
N12930G01 X114.868 Y136.738
N12940G01 X115.197 Y137.199
N12950G01 X115.494 Y137.678
N12960G01 X115.759 Y138.175
N12970G01 X115.991 Y138.688
N12980G01 X116.19 Y139.215
N12990G01 X116.353 Y139.754
N13000G01 X116.482 Y140.303
N13010G01 X116.574 Y140.862
N13020G01 X116.63 Y141.427
N13030G01 X116.649 Y142
N13040G01 X116.63 Y142.572
N13050G01 X116.574 Y143.137
N13060G01 X116.482 Y143.696
N13070G01 X116.353 Y144.245
N13080G01 X116.189 Y144.784
N13090G01 X115.991 Y145.311
N13100G01 X115.759 Y145.824
N13110G01 X115.494 Y146.321
N13120G01 X115.197 Y146.8
N13130G01 X114.868 Y147.261
N13140G01 X114.507 Y147.7
N13150G01 X114.117 Y148.118
N13160G01 X113.699 Y148.509
N13170G01 X113.26 Y148.869
N13180G01 X112.799 Y149.199
N13190G01 X112.32 Y149.496
N13200G01 X111.823 Y149.762
N13210G01 X111.31 Y149.994
N13220G01 X110.784 Y150.192
N13230G01 X110.245 Y150.356
N13240G01 X109.695 Y150.485
N13250G01 X109.137 Y150.577
N13260G01 X108.571 Y150.634
N13270G01 X108 Y150.653
N13280G01 X107.428 Y150.634
N13290G01 X106.862 Y150.577
N13300G01 X106.304 Y150.485
N13310G01 X105.754 Y150.356
N13320G01 X105.215 Y150.192
N13330G01 X104.689 Y149.994
N13340G01 X104.176 Y149.762
N13350G01 X103.679 Y149.496
N13360G01 X103.2 Y149.199
N13370G01 X102.74 Y148.869
N13380G01 X102.3 Y148.509
N13390G01 X101.882 Y148.118
N13400G01 X101.492 Y147.7
N13410G01 X101.131 Y147.261
N13420G01 X100.802 Y146.8
N13430G01 X100.505 Y146.321
N13440G01 X100.24 Y145.824
N13450G01 X100.008 Y145.311
N13460G01 X99.81 Y144.784
N13470G01 X99.646 Y144.245
N13480G01 X99.517 Y143.696
N13490G01 X99.425 Y143.137
N13500G01 X99.369 Y142.572
N13510G01 X99.35 Y142
N13520G01 X99.369 Y141.427
N13530G01 X99.425 Y140.862
N13540G01 X99.517 Y140.303
N13550G01 X99.646 Y139.754
N13560G01 X99.81 Y139.215
N13570G01 X100.008 Y138.688
N13580G01 X100.24 Y138.175
N13590G01 X100.505 Y137.678
N13600G01 X100.802 Y137.199
N13610G01 X101.131 Y136.738
N13620G01 X101.492 Y136.299
N13630G01 X101.882 Y135.881
N13640G01 X102.3 Y135.49
N13650G01 X102.74 Y135.13
N13660 G00 Z19.999
N13670 G00 X107.669 Y141.563
N13680G01 Z-3 F500
N13690G01 X107.697 Y141.542 F1000
N13700G01 X107.727 Y141.524
N13710G01 X107.758 Y141.507
N13720G01 X107.791 Y141.492
N13730G01 X107.824 Y141.48
N13740G01 X107.858 Y141.47
N13750G01 X107.893 Y141.461
N13760G01 X107.927 Y141.456
N13770G01 X107.962 Y141.452
N13780G01 X108 Y141.451
N13790G01 X108.037 Y141.452
N13800G01 X108.072 Y141.456
N13810G01 X108.107 Y141.461
N13820G01 X108.141 Y141.47
N13830G01 X108.175 Y141.48
N13840G01 X108.208 Y141.492
N13850G01 X108.24 Y141.507
N13860G01 X108.272 Y141.524
N13870G01 X108.301 Y141.542
N13880G01 X108.331 Y141.563
N13890G01 X108.358 Y141.585
N13900G01 X108.385 Y141.61
N13910G01 X108.41 Y141.638
N13920G01 X108.433 Y141.665
N13930G01 X108.453 Y141.694
N13940G01 X108.472 Y141.724
N13950G01 X108.489 Y141.755
N13960G01 X108.503 Y141.787
N13970G01 X108.516 Y141.821
N13980G01 X108.526 Y141.854
N13990G01 X108.534 Y141.889
N14000G01 X108.54 Y141.924
N14010G01 X108.543 Y141.959
N14020G01 X108.544 Y142
N14030G01 X108.543 Y142.04
N14040G01 X108.54 Y142.076
N14050G01 X108.534 Y142.11
N14060G01 X108.526 Y142.145
N14070G01 X108.516 Y142.178
N14080G01 X108.503 Y142.212
N14090G01 X108.488 Y142.244
N14100G01 X108.472 Y142.275
N14110G01 X108.453 Y142.305
N14120G01 X108.432 Y142.334
N14130G01 X108.41 Y142.361
N14140G01 X108.385 Y142.389
N14150G01 X108.358 Y142.414
N14160G01 X108.33 Y142.436
N14170G01 X108.301 Y142.457
N14180G01 X108.272 Y142.475
N14190G01 X108.241 Y142.492
N14200G01 X108.208 Y142.507
N14210G01 X108.175 Y142.519
N14220G01 X108.141 Y142.529
N14230G01 X108.106 Y142.538
N14240G01 X108.072 Y142.543
N14250G01 X108.037 Y142.547
N14260G01 X108 Y142.548
N14270G01 X107.962 Y142.547
N14280G01 X107.927 Y142.543
N14290G01 X107.892 Y142.538
N14300G01 X107.858 Y142.53
N14310G01 X107.824 Y142.519
N14320G01 X107.791 Y142.507
N14330G01 X107.759 Y142.492
N14340G01 X107.727 Y142.476
N14350G01 X107.697 Y142.457
N14360G01 X107.669 Y142.436
N14370G01 X107.641 Y142.414
N14380G01 X107.614 Y142.388
N14390G01 X107.589 Y142.361
N14400G01 X107.567 Y142.334
N14410G01 X107.546 Y142.305
N14420G01 X107.527 Y142.275
N14430G01 X107.511 Y142.244
N14440G01 X107.496 Y142.211
N14450G01 X107.483 Y142.179
N14460G01 X107.473 Y142.145
N14470G01 X107.465 Y142.11
N14480G01 X107.459 Y142.076
N14490G01 X107.456 Y142.04
N14500G01 X107.455 Y142
N14510G01 X107.456 Y141.959
N14520G01 X107.459 Y141.924
N14530G01 X107.465 Y141.889
N14540G01 X107.473 Y141.854
N14550G01 X107.483 Y141.821
N14560G01 X107.496 Y141.788
N14570G01 X107.511 Y141.755
N14580G01 X107.527 Y141.724
N14590G01 X107.546 Y141.694
N14600G01 X107.566 Y141.665
N14610G01 X107.589 Y141.638
N14620G01 X107.614 Y141.61
N14630G01 X107.641 Y141.585
N14640G01 X107.669 Y141.563
N14650G01 X106.847 Y140.491
N14660G01 X106.948 Y140.419
N14670G01 X107.053 Y140.353
N14680G01 X107.162 Y140.295
N14690G01 X107.274 Y140.244
N14700G01 X107.389 Y140.201
N14710G01 X107.507 Y140.165
N14720G01 X107.628 Y140.137
N14730G01 X107.75 Y140.117
N14740G01 X107.873 Y140.104
N14750G01 X108 Y140.1
N14760G01 X108.126 Y140.104
N14770G01 X108.249 Y140.117
N14780G01 X108.372 Y140.137
N14790G01 X108.492 Y140.165
N14800G01 X108.61 Y140.201
N14810G01 X108.725 Y140.244
N14820G01 X108.838 Y140.295
N14830G01 X108.946 Y140.353
N14840G01 X109.051 Y140.419
N14850G01 X109.152 Y140.491
N14860G01 X109.248 Y140.569
N14870G01 X109.34 Y140.655
N14880G01 X109.426 Y140.748
N14890G01 X109.505 Y140.844
N14900G01 X109.577 Y140.945
N14910G01 X109.642 Y141.049
N14920G01 X109.7 Y141.158
N14930G01 X109.751 Y141.271
N14940G01 X109.795 Y141.386
N14950G01 X109.83 Y141.504
N14960G01 X109.859 Y141.625
N14970G01 X109.879 Y141.747
N14980G01 X109.891 Y141.87
N14990G01 X109.895 Y142
N15000G01 X109.891 Y142.129
N15010G01 X109.879 Y142.253
N15020G01 X109.858 Y142.375
N15030G01 X109.83 Y142.495
N15040G01 X109.795 Y142.613
N15050G01 X109.751 Y142.728
N15060G01 X109.7 Y142.841
N15070G01 X109.642 Y142.95
N15080G01 X109.577 Y143.054
N15090G01 X109.505 Y143.155
N15100G01 X109.427 Y143.251
N15110G01 X109.34 Y143.344
N15120G01 X109.248 Y143.43
N15130G01 X109.152 Y143.508
N15140G01 X109.051 Y143.581
N15150G01 X108.946 Y143.646
N15160G01 X108.837 Y143.704
N15170G01 X108.725 Y143.755
N15180G01 X108.61 Y143.798
N15190G01 X108.492 Y143.834
N15200G01 X108.371 Y143.862
N15210G01 X108.25 Y143.882
N15220G01 X108.126 Y143.895
N15230G01 X108 Y143.899
N15240G01 X107.873 Y143.895
N15250G01 X107.75 Y143.882
N15260G01 X107.627 Y143.862
N15270G01 X107.508 Y143.834
N15280G01 X107.389 Y143.798
N15290G01 X107.274 Y143.755
N15300G01 X107.162 Y143.704
N15310G01 X107.053 Y143.646
N15320G01 X106.948 Y143.58
N15330G01 X106.847 Y143.509
N15340G01 X106.751 Y143.43
N15350G01 X106.659 Y143.343
N15360G01 X106.573 Y143.251
N15370G01 X106.494 Y143.155
N15380G01 X106.422 Y143.054
N15390G01 X106.357 Y142.95
N15400G01 X106.299 Y142.841
N15410G01 X106.248 Y142.728
N15420G01 X106.204 Y142.613
N15430G01 X106.169 Y142.495
N15440G01 X106.14 Y142.375
N15450G01 X106.12 Y142.252
N15460G01 X106.108 Y142.129
N15470G01 X106.104 Y142
N15480G01 X106.108 Y141.87
N15490G01 X106.12 Y141.747
N15500G01 X106.141 Y141.625
N15510G01 X106.169 Y141.504
N15520G01 X106.204 Y141.387
N15530G01 X106.248 Y141.271
N15540G01 X106.299 Y141.158
N15550G01 X106.357 Y141.05
N15560G01 X106.422 Y140.945
N15570G01 X106.494 Y140.844
N15580G01 X106.572 Y140.748
N15590G01 X106.659 Y140.655
N15600G01 X106.751 Y140.569
N15610G01 X106.847 Y140.491
N15620G01 X106.026 Y139.418
N15630G01 X106.198 Y139.295
N15640G01 X106.378 Y139.183
N15650G01 X106.564 Y139.084
N15660G01 X106.757 Y138.997
N15670G01 X106.954 Y138.922
N15680G01 X107.156 Y138.861
N15690G01 X107.363 Y138.812
N15700G01 X107.572 Y138.778
N15710G01 X107.784 Y138.757
N15720G01 X108 Y138.75
N15730G01 X108.215 Y138.757
N15740G01 X108.427 Y138.778
N15750G01 X108.636 Y138.812
N15760G01 X108.842 Y138.861
N15770G01 X109.045 Y138.922
N15780G01 X109.242 Y138.996
N15790G01 X109.434 Y139.084
N15800G01 X109.621 Y139.183
N15810G01 X109.801 Y139.295
N15820G01 X109.974 Y139.419
N15830G01 X110.138 Y139.554
N15840G01 X110.295 Y139.701
N15850G01 X110.443 Y139.858
N15860G01 X110.578 Y140.023
N15870G01 X110.701 Y140.195
N15880G01 X110.813 Y140.375
N15890G01 X110.912 Y140.562
N15900G01 X110.999 Y140.754
N15910G01 X111.074 Y140.952
N15920G01 X111.135 Y141.154
N15930G01 X111.183 Y141.36
N15940G01 X111.218 Y141.57
N15950G01 X111.239 Y141.782
N15960G01 X111.246 Y142
N15970G01 X111.239 Y142.217
N15980G01 X111.218 Y142.429
N15990G01 X111.183 Y142.639
N16000G01 X111.135 Y142.845
N16010G01 X111.074 Y143.047
N16020G01 X110.999 Y143.245
N16030G01 X110.912 Y143.437
N16040G01 X110.813 Y143.624
N16050G01 X110.701 Y143.803
N16060G01 X110.577 Y143.976
N16070G01 X110.443 Y144.141
N16080G01 X110.295 Y144.298
N16090G01 X110.138 Y144.445
N16100G01 X109.974 Y144.581
N16110G01 X109.801 Y144.704
N16120G01 X109.621 Y144.816
N16130G01 X109.434 Y144.915
N16140G01 X109.242 Y145.002
N16150G01 X109.044 Y145.077
N16160G01 X108.843 Y145.138
N16170G01 X108.636 Y145.187
N16180G01 X108.427 Y145.221
N16190G01 X108.215 Y145.242
N16200G01 X108 Y145.25
N16210G01 X107.784 Y145.242
N16220G01 X107.572 Y145.221
N16230G01 X107.362 Y145.187
N16240G01 X107.157 Y145.139
N16250G01 X106.954 Y145.077
N16260G01 X106.757 Y145.003
N16270G01 X106.565 Y144.915
N16280G01 X106.378 Y144.816
N16290G01 X106.198 Y144.704
N16300G01 X106.026 Y144.581
N16310G01 X105.861 Y144.445
N16320G01 X105.704 Y144.298
N16330G01 X105.556 Y144.141
N16340G01 X105.422 Y143.976
N16350G01 X105.298 Y143.803
N16360G01 X105.186 Y143.624
N16370G01 X105.087 Y143.437
N16380G01 X105 Y143.244
N16390G01 X104.925 Y143.047
N16400G01 X104.864 Y142.845
N16410G01 X104.816 Y142.639
N16420G01 X104.781 Y142.429
N16430G01 X104.76 Y142.217
N16440G01 X104.753 Y142
N16450G01 X104.76 Y141.782
N16460G01 X104.781 Y141.57
N16470G01 X104.816 Y141.36
N16480G01 X104.864 Y141.154
N16490G01 X104.925 Y140.952
N16500G01 X105 Y140.754
N16510G01 X105.087 Y140.562
N16520G01 X105.186 Y140.375
N16530G01 X105.298 Y140.195
N16540G01 X105.421 Y140.023
N16550G01 X105.556 Y139.858
N16560G01 X105.704 Y139.701
N16570G01 X105.861 Y139.554
N16580G01 X106.026 Y139.418
N16590G01 X105.204 Y138.346
N16600G01 X105.449 Y138.171
N16610G01 X105.703 Y138.013
N16620G01 X105.967 Y137.872
N16630G01 X106.24 Y137.749
N16640G01 X106.52 Y137.643
N16650G01 X106.806 Y137.556
N16660G01 X107.098 Y137.488
N16670G01 X107.395 Y137.439
N16680G01 X107.695 Y137.409
N16690G01 X108 Y137.399
N16700G01 X108.304 Y137.409
N16710G01 X108.604 Y137.439
N16720G01 X108.901 Y137.488
N16730G01 X109.193 Y137.556
N16740G01 X109.479 Y137.643
N16750G01 X109.759 Y137.749
N16760G01 X110.031 Y137.872
N16770G01 X110.296 Y138.013
N16780G01 X110.55 Y138.171
N16790G01 X110.795 Y138.346
N16800G01 X111.029 Y138.538
N16810G01 X111.251 Y138.746
N16820G01 X111.459 Y138.968
N16830G01 X111.65 Y139.202
N16840G01 X111.825 Y139.446
N16850G01 X111.983 Y139.701
N16860G01 X112.124 Y139.965
N16870G01 X112.247 Y140.238
N16880G01 X112.353 Y140.518
N16890G01 X112.439 Y140.804
N16900G01 X112.508 Y141.096
N16910G01 X112.557 Y141.393
N16920G01 X112.587 Y141.693
N16930G01 X112.597 Y142
N16940G01 X112.587 Y142.306
N16950G01 X112.557 Y142.606
N16960G01 X112.508 Y142.903
N16970G01 X112.439 Y143.195
N16980G01 X112.353 Y143.481
N16990G01 X112.247 Y143.761
N17000G01 X112.124 Y144.034
N17010G01 X111.983 Y144.298
N17020G01 X111.825 Y144.553
N17030G01 X111.65 Y144.797
N17040G01 X111.459 Y145.031
N17050G01 X111.251 Y145.253
N17060G01 X111.029 Y145.461
N17070G01 X110.795 Y145.653
N17080G01 X110.55 Y145.828
N17090G01 X110.296 Y145.986
N17100G01 X110.032 Y146.127
N17110G01 X109.759 Y146.25
N17120G01 X109.479 Y146.356
N17130G01 X109.193 Y146.443
N17140G01 X108.901 Y146.511
N17150G01 X108.604 Y146.56
N17160G01 X108.304 Y146.59
N17170G01 X108 Y146.6
N17180G01 X107.695 Y146.59
N17190G01 X107.395 Y146.56
N17200G01 X107.098 Y146.511
N17210G01 X106.807 Y146.443
N17220G01 X106.519 Y146.356
N17230G01 X106.24 Y146.25
N17240G01 X105.967 Y146.127
N17250G01 X105.703 Y145.986
N17260G01 X105.449 Y145.828
N17270G01 X105.204 Y145.653
N17280G01 X104.971 Y145.461
N17290G01 X104.748 Y145.253
N17300G01 X104.54 Y145.031
N17310G01 X104.349 Y144.797
N17320G01 X104.174 Y144.553
N17330G01 X104.016 Y144.298
N17340G01 X103.875 Y144.034
N17350G01 X103.752 Y143.761
N17360G01 X103.647 Y143.481
N17370G01 X103.56 Y143.195
N17380G01 X103.491 Y142.903
N17390G01 X103.442 Y142.606
N17400G01 X103.412 Y142.306
N17410G01 X103.402 Y142
N17420G01 X103.412 Y141.693
N17430G01 X103.442 Y141.393
N17440G01 X103.491 Y141.096
N17450G01 X103.56 Y140.804
N17460G01 X103.646 Y140.518
N17470G01 X103.752 Y140.238
N17480G01 X103.875 Y139.965
N17490G01 X104.016 Y139.701
N17500G01 X104.174 Y139.446
N17510G01 X104.349 Y139.202
N17520G01 X104.54 Y138.968
N17530G01 X104.749 Y138.746
N17540G01 X104.97 Y138.538
N17550G01 X105.204 Y138.346
N17560G01 X104.383 Y137.274
N17570G01 X104.699 Y137.048
N17580G01 X105.029 Y136.843
N17590G01 X105.37 Y136.661
N17600G01 X105.723 Y136.501
N17610G01 X106.085 Y136.365
N17620G01 X106.455 Y136.252
N17630G01 X106.834 Y136.163
N17640G01 X107.217 Y136.1
N17650G01 X107.606 Y136.061
N17660G01 X108 Y136.048
N17670G01 X108.393 Y136.061
N17680G01 X108.782 Y136.1
N17690G01 X109.166 Y136.163
N17700G01 X109.544 Y136.252
N17710G01 X109.914 Y136.365
N17720G01 X110.276 Y136.501
N17730G01 X110.628 Y136.66
N17740G01 X110.97 Y136.843
N17750G01 X111.3 Y137.048
N17760G01 X111.617 Y137.274
N17770G01 X111.919 Y137.522
N17780G01 X112.206 Y137.791
N17790G01 X112.475 Y138.078
N17800G01 X112.722 Y138.38
N17810G01 X112.949 Y138.697
N17820G01 X113.153 Y139.027
N17830G01 X113.336 Y139.369
N17840G01 X113.495 Y139.721
N17850G01 X113.632 Y140.083
N17860G01 X113.744 Y140.454
N17870G01 X113.832 Y140.832
N17880G01 X113.896 Y141.216
N17890G01 X113.934 Y141.605
N17900G01 X113.947 Y142
N17910G01 X113.934 Y142.394
N17920G01 X113.896 Y142.783
N17930G01 X113.832 Y143.167
N17940G01 X113.744 Y143.545
N17950G01 X113.631 Y143.916
N17960G01 X113.495 Y144.278
N17970G01 X113.336 Y144.63
N17980G01 X113.153 Y144.972
N17990G01 X112.949 Y145.302
N18000G01 X112.723 Y145.619
N18010G01 X112.475 Y145.921
N18020G01 X112.206 Y146.208
N18030G01 X111.919 Y146.477
N18040G01 X111.616 Y146.725
N18050G01 X111.3 Y146.951
N18060G01 X110.97 Y147.156
N18070G01 X110.629 Y147.338
N18080G01 X110.276 Y147.498
N18090G01 X109.914 Y147.635
N18100G01 X109.544 Y147.747
N18110G01 X109.166 Y147.836
N18120G01 X108.782 Y147.899
N18130G01 X108.393 Y147.938
N18140G01 X108 Y147.951
N18150G01 X107.606 Y147.938
N18160G01 X107.217 Y147.899
N18170G01 X106.833 Y147.836
N18180G01 X106.456 Y147.747
N18190G01 X106.085 Y147.634
N18200G01 X105.723 Y147.498
N18210G01 X105.37 Y147.339
N18220G01 X105.029 Y147.156
N18230G01 X104.699 Y146.951
N18240G01 X104.383 Y146.725
N18250G01 X104.08 Y146.477
N18260G01 X103.793 Y146.208
N18270G01 X103.524 Y145.921
N18280G01 X103.277 Y145.619
N18290G01 X103.05 Y145.302
N18300G01 X102.846 Y144.972
N18310G01 X102.663 Y144.63
N18320G01 X102.504 Y144.278
N18330G01 X102.368 Y143.916
N18340G01 X102.255 Y143.545
N18350G01 X102.167 Y143.167
N18360G01 X102.103 Y142.783
N18370G01 X102.065 Y142.394
N18380G01 X102.052 Y142
N18390G01 X102.065 Y141.605
N18400G01 X102.103 Y141.216
N18410G01 X102.167 Y140.832
N18420G01 X102.255 Y140.454
N18430G01 X102.367 Y140.083
N18440G01 X102.504 Y139.721
N18450G01 X102.663 Y139.369
N18460G01 X102.846 Y139.027
N18470G01 X103.05 Y138.697
N18480G01 X103.277 Y138.38
N18490G01 X103.524 Y138.078
N18500G01 X103.793 Y137.791
N18510G01 X104.08 Y137.522
N18520G01 X104.383 Y137.274
N18530G01 X103.561 Y136.202
N18540G01 X103.949 Y135.924
N18550G01 X104.354 Y135.673
N18560G01 X104.773 Y135.449
N18570G01 X105.206 Y135.253
N18580G01 X105.65 Y135.086
N18590G01 X106.105 Y134.947
N18600G01 X106.569 Y134.839
N18610G01 X107.04 Y134.761
N18620G01 X107.517 Y134.713
N18630G01 X108 Y134.697
N18640G01 X108.482 Y134.713
N18650G01 X108.959 Y134.761
N18660G01 X109.43 Y134.839
N18670G01 X109.894 Y134.947
N18680G01 X110.349 Y135.086
N18690G01 X110.793 Y135.253
N18700G01 X111.225 Y135.449
N18710G01 X111.645 Y135.673
N18720G01 X112.05 Y135.924
N18730G01 X112.438 Y136.202
N18740G01 X112.809 Y136.506
N18750G01 X113.161 Y136.836
N18760G01 X113.491 Y137.189
N18770G01 X113.795 Y137.559
N18780G01 X114.073 Y137.948
N18790G01 X114.324 Y138.353
N18800G01 X114.547 Y138.772
N18810G01 X114.743 Y139.205
N18820G01 X114.911 Y139.649
N18830G01 X115.049 Y140.104
N18840G01 X115.157 Y140.567
N18850G01 X115.235 Y141.039
N18860G01 X115.282 Y141.516
N18870G01 X115.298 Y142
N18880G01 X115.282 Y142.483
N18890G01 X115.235 Y142.96
N18900G01 X115.157 Y143.432
N18910G01 X115.049 Y143.895
N18920G01 X114.91 Y144.35
N18930G01 X114.743 Y144.794
N18940G01 X114.547 Y145.227
N18950G01 X114.324 Y145.647
N18960G01 X114.073 Y146.051
N18970G01 X113.795 Y146.44
N18980G01 X113.491 Y146.811
N18990G01 X113.161 Y147.163
N19000G01 X112.809 Y147.493
N19010G01 X112.438 Y147.797
N19020G01 X112.049 Y148.075
N19030G01 X111.645 Y148.326
N19040G01 X111.226 Y148.55
N19050G01 X110.793 Y148.746
N19060G01 X110.349 Y148.913
N19070G01 X109.894 Y149.052
N19080G01 X109.43 Y149.16
N19090G01 X108.959 Y149.238
N19100G01 X108.482 Y149.286
N19110G01 X108 Y149.302
N19120G01 X107.517 Y149.286
N19130G01 X107.04 Y149.238
N19140G01 X106.569 Y149.16
N19150G01 X106.105 Y149.052
N19160G01 X105.65 Y148.913
N19170G01 X105.206 Y148.746
N19180G01 X104.773 Y148.55
N19190G01 X104.354 Y148.326
N19200G01 X103.95 Y148.075
N19210G01 X103.561 Y147.797
N19220G01 X103.19 Y147.493
N19230G01 X102.838 Y147.163
N19240G01 X102.508 Y146.811
N19250G01 X102.204 Y146.44
N19260G01 X101.926 Y146.051
N19270G01 X101.675 Y145.647
N19280G01 X101.452 Y145.227
N19290G01 X101.256 Y144.794
N19300G01 X101.089 Y144.35
N19310G01 X100.95 Y143.895
N19320G01 X100.842 Y143.432
N19330G01 X100.764 Y142.96
N19340G01 X100.717 Y142.483
N19350G01 X100.701 Y142
N19360G01 X100.717 Y141.516
N19370G01 X100.764 Y141.039
N19380G01 X100.842 Y140.568
N19390G01 X100.95 Y140.104
N19400G01 X101.088 Y139.649
N19410G01 X101.256 Y139.205
N19420G01 X101.452 Y138.772
N19430G01 X101.675 Y138.353
N19440G01 X101.926 Y137.948
N19450G01 X102.204 Y137.559
N19460G01 X102.508 Y137.189
N19470G01 X102.838 Y136.836
N19480G01 X103.19 Y136.506
N19490G01 X103.561 Y136.202
N19500G01 X102.74 Y135.13
N19510G01 X103.2 Y134.8
N19520G01 X103.679 Y134.503
N19530G01 X104.176 Y134.237
N19540G01 X104.689 Y134.005
N19550G01 X105.215 Y133.807
N19560G01 X105.754 Y133.643
N19570G01 X106.304 Y133.514
N19580G01 X106.862 Y133.422
N19590G01 X107.428 Y133.365
N19600G01 X108 Y133.347
N19610G01 X108.571 Y133.365
N19620G01 X109.137 Y133.422
N19630G01 X109.695 Y133.514
N19640G01 X110.245 Y133.643
N19650G01 X110.784 Y133.807
N19660G01 X111.31 Y134.005
N19670G01 X111.823 Y134.237
N19680G01 X112.32 Y134.503
N19690G01 X112.799 Y134.8
N19700G01 X113.26 Y135.13
N19710G01 X113.699 Y135.49
N19720G01 X114.117 Y135.881
N19730G01 X114.507 Y136.299
N19740G01 X114.868 Y136.738
N19750G01 X115.197 Y137.199
N19760G01 X115.494 Y137.678
N19770G01 X115.759 Y138.175
N19780G01 X115.991 Y138.688
N19790G01 X116.19 Y139.215
N19800G01 X116.353 Y139.754
N19810G01 X116.482 Y140.303
N19820G01 X116.574 Y140.862
N19830G01 X116.63 Y141.427
N19840G01 X116.649 Y142
N19850G01 X116.63 Y142.572
N19860G01 X116.574 Y143.137
N19870G01 X116.482 Y143.696
N19880G01 X116.353 Y144.245
N19890G01 X116.189 Y144.784
N19900G01 X115.991 Y145.311
N19910G01 X115.759 Y145.824
N19920G01 X115.494 Y146.321
N19930G01 X115.197 Y146.8
N19940G01 X114.868 Y147.261
N19950G01 X114.507 Y147.7
N19960G01 X114.117 Y148.118
N19970G01 X113.699 Y148.509
N19980G01 X113.26 Y148.869
N19990G01 X112.799 Y149.199
N20000G01 X112.32 Y149.496
N20010G01 X111.823 Y149.762
N20020G01 X111.31 Y149.994
N20030G01 X110.784 Y150.192
N20040G01 X110.245 Y150.356
N20050G01 X109.695 Y150.485
N20060G01 X109.137 Y150.577
N20070G01 X108.571 Y150.634
N20080G01 X108 Y150.653
N20090G01 X107.428 Y150.634
N20100G01 X106.862 Y150.577
N20110G01 X106.304 Y150.485
N20120G01 X105.754 Y150.356
N20130G01 X105.215 Y150.192
N20140G01 X104.689 Y149.994
N20150G01 X104.176 Y149.762
N20160G01 X103.679 Y149.496
N20170G01 X103.2 Y149.199
N20180G01 X102.74 Y148.869
N20190G01 X102.3 Y148.509
N20200G01 X101.882 Y148.118
N20210G01 X101.492 Y147.7
N20220G01 X101.131 Y147.261
N20230G01 X100.802 Y146.8
N20240G01 X100.505 Y146.321
N20250G01 X100.24 Y145.824
N20260G01 X100.008 Y145.311
N20270G01 X99.81 Y144.784
N20280G01 X99.646 Y144.245
N20290G01 X99.517 Y143.696
N20300G01 X99.425 Y143.137
N20310G01 X99.369 Y142.572
N20320G01 X99.35 Y142
N20330G01 X99.369 Y141.427
N20340G01 X99.425 Y140.862
N20350G01 X99.517 Y140.303
N20360G01 X99.646 Y139.754
N20370G01 X99.81 Y139.215
N20380G01 X100.008 Y138.688
N20390G01 X100.24 Y138.175
N20400G01 X100.505 Y137.678
N20410G01 X100.802 Y137.199
N20420G01 X101.131 Y136.738
N20430G01 X101.492 Y136.299
N20440G01 X101.882 Y135.881
N20450G01 X102.3 Y135.49
N20460G01 X102.74 Y135.13
N20470 G00 Z19.999
N20480 G00 X107.669 Y141.563
N20490G01 Z-4 F500
N20500G01 X107.697 Y141.542 F1000
N20510G01 X107.727 Y141.524
N20520G01 X107.758 Y141.507
N20530G01 X107.791 Y141.492
N20540G01 X107.824 Y141.48
N20550G01 X107.858 Y141.47
N20560G01 X107.893 Y141.461
N20570G01 X107.927 Y141.456
N20580G01 X107.962 Y141.452
N20590G01 X108 Y141.451
N20600G01 X108.037 Y141.452
N20610G01 X108.072 Y141.456
N20620G01 X108.107 Y141.461
N20630G01 X108.141 Y141.47
N20640G01 X108.175 Y141.48
N20650G01 X108.208 Y141.492
N20660G01 X108.24 Y141.507
N20670G01 X108.272 Y141.524
N20680G01 X108.301 Y141.542
N20690G01 X108.331 Y141.563
N20700G01 X108.358 Y141.585
N20710G01 X108.385 Y141.61
N20720G01 X108.41 Y141.638
N20730G01 X108.433 Y141.665
N20740G01 X108.453 Y141.694
N20750G01 X108.472 Y141.724
N20760G01 X108.489 Y141.755
N20770G01 X108.503 Y141.787
N20780G01 X108.516 Y141.821
N20790G01 X108.526 Y141.854
N20800G01 X108.534 Y141.889
N20810G01 X108.54 Y141.924
N20820G01 X108.543 Y141.959
N20830G01 X108.544 Y142
N20840G01 X108.543 Y142.04
N20850G01 X108.54 Y142.076
N20860G01 X108.534 Y142.11
N20870G01 X108.526 Y142.145
N20880G01 X108.516 Y142.178
N20890G01 X108.503 Y142.212
N20900G01 X108.488 Y142.244
N20910G01 X108.472 Y142.275
N20920G01 X108.453 Y142.305
N20930G01 X108.432 Y142.334
N20940G01 X108.41 Y142.361
N20950G01 X108.385 Y142.389
N20960G01 X108.358 Y142.414
N20970G01 X108.33 Y142.436
N20980G01 X108.301 Y142.457
N20990G01 X108.272 Y142.475
N21000G01 X108.241 Y142.492
N21010G01 X108.208 Y142.507
N21020G01 X108.175 Y142.519
N21030G01 X108.141 Y142.529
N21040G01 X108.106 Y142.538
N21050G01 X108.072 Y142.543
N21060G01 X108.037 Y142.547
N21070G01 X108 Y142.548
N21080G01 X107.962 Y142.547
N21090G01 X107.927 Y142.543
N21100G01 X107.892 Y142.538
N21110G01 X107.858 Y142.53
N21120G01 X107.824 Y142.519
N21130G01 X107.791 Y142.507
N21140G01 X107.759 Y142.492
N21150G01 X107.727 Y142.476
N21160G01 X107.697 Y142.457
N21170G01 X107.669 Y142.436
N21180G01 X107.641 Y142.414
N21190G01 X107.614 Y142.388
N21200G01 X107.589 Y142.361
N21210G01 X107.567 Y142.334
N21220G01 X107.546 Y142.305
N21230G01 X107.527 Y142.275
N21240G01 X107.511 Y142.244
N21250G01 X107.496 Y142.211
N21260G01 X107.483 Y142.179
N21270G01 X107.473 Y142.145
N21280G01 X107.465 Y142.11
N21290G01 X107.459 Y142.076
N21300G01 X107.456 Y142.04
N21310G01 X107.455 Y142
N21320G01 X107.456 Y141.959
N21330G01 X107.459 Y141.924
N21340G01 X107.465 Y141.889
N21350G01 X107.473 Y141.854
N21360G01 X107.483 Y141.821
N21370G01 X107.496 Y141.788
N21380G01 X107.511 Y141.755
N21390G01 X107.527 Y141.724
N21400G01 X107.546 Y141.694
N21410G01 X107.566 Y141.665
N21420G01 X107.589 Y141.638
N21430G01 X107.614 Y141.61
N21440G01 X107.641 Y141.585
N21450G01 X107.669 Y141.563
N21460G01 X106.847 Y140.491
N21470G01 X106.948 Y140.419
N21480G01 X107.053 Y140.353
N21490G01 X107.162 Y140.295
N21500G01 X107.274 Y140.244
N21510G01 X107.389 Y140.201
N21520G01 X107.507 Y140.165
N21530G01 X107.628 Y140.137
N21540G01 X107.75 Y140.117
N21550G01 X107.873 Y140.104
N21560G01 X108 Y140.1
N21570G01 X108.126 Y140.104
N21580G01 X108.249 Y140.117
N21590G01 X108.372 Y140.137
N21600G01 X108.492 Y140.165
N21610G01 X108.61 Y140.201
N21620G01 X108.725 Y140.244
N21630G01 X108.838 Y140.295
N21640G01 X108.946 Y140.353
N21650G01 X109.051 Y140.419
N21660G01 X109.152 Y140.491
N21670G01 X109.248 Y140.569
N21680G01 X109.34 Y140.655
N21690G01 X109.426 Y140.748
N21700G01 X109.505 Y140.844
N21710G01 X109.577 Y140.945
N21720G01 X109.642 Y141.049
N21730G01 X109.7 Y141.158
N21740G01 X109.751 Y141.271
N21750G01 X109.795 Y141.386
N21760G01 X109.83 Y141.504
N21770G01 X109.859 Y141.625
N21780G01 X109.879 Y141.747
N21790G01 X109.891 Y141.87
N21800G01 X109.895 Y142
N21810G01 X109.891 Y142.129
N21820G01 X109.879 Y142.253
N21830G01 X109.858 Y142.375
N21840G01 X109.83 Y142.495
N21850G01 X109.795 Y142.613
N21860G01 X109.751 Y142.728
N21870G01 X109.7 Y142.841
N21880G01 X109.642 Y142.95
N21890G01 X109.577 Y143.054
N21900G01 X109.505 Y143.155
N21910G01 X109.427 Y143.251
N21920G01 X109.34 Y143.344
N21930G01 X109.248 Y143.43
N21940G01 X109.152 Y143.508
N21950G01 X109.051 Y143.581
N21960G01 X108.946 Y143.646
N21970G01 X108.837 Y143.704
N21980G01 X108.725 Y143.755
N21990G01 X108.61 Y143.798
N22000G01 X108.492 Y143.834
N22010G01 X108.371 Y143.862
N22020G01 X108.25 Y143.882
N22030G01 X108.126 Y143.895
N22040G01 X108 Y143.899
N22050G01 X107.873 Y143.895
N22060G01 X107.75 Y143.882
N22070G01 X107.627 Y143.862
N22080G01 X107.508 Y143.834
N22090G01 X107.389 Y143.798
N22100G01 X107.274 Y143.755
N22110G01 X107.162 Y143.704
N22120G01 X107.053 Y143.646
N22130G01 X106.948 Y143.58
N22140G01 X106.847 Y143.509
N22150G01 X106.751 Y143.43
N22160G01 X106.659 Y143.343
N22170G01 X106.573 Y143.251
N22180G01 X106.494 Y143.155
N22190G01 X106.422 Y143.054
N22200G01 X106.357 Y142.95
N22210G01 X106.299 Y142.841
N22220G01 X106.248 Y142.728
N22230G01 X106.204 Y142.613
N22240G01 X106.169 Y142.495
N22250G01 X106.14 Y142.375
N22260G01 X106.12 Y142.252
N22270G01 X106.108 Y142.129
N22280G01 X106.104 Y142
N22290G01 X106.108 Y141.87
N22300G01 X106.12 Y141.747
N22310G01 X106.141 Y141.625
N22320G01 X106.169 Y141.504
N22330G01 X106.204 Y141.387
N22340G01 X106.248 Y141.271
N22350G01 X106.299 Y141.158
N22360G01 X106.357 Y141.05
N22370G01 X106.422 Y140.945
N22380G01 X106.494 Y140.844
N22390G01 X106.572 Y140.748
N22400G01 X106.659 Y140.655
N22410G01 X106.751 Y140.569
N22420G01 X106.847 Y140.491
N22430G01 X106.026 Y139.418
N22440G01 X106.198 Y139.295
N22450G01 X106.378 Y139.183
N22460G01 X106.564 Y139.084
N22470G01 X106.757 Y138.997
N22480G01 X106.954 Y138.922
N22490G01 X107.156 Y138.861
N22500G01 X107.363 Y138.812
N22510G01 X107.572 Y138.778
N22520G01 X107.784 Y138.757
N22530G01 X108 Y138.75
N22540G01 X108.215 Y138.757
N22550G01 X108.427 Y138.778
N22560G01 X108.636 Y138.812
N22570G01 X108.842 Y138.861
N22580G01 X109.045 Y138.922
N22590G01 X109.242 Y138.996
N22600G01 X109.434 Y139.084
N22610G01 X109.621 Y139.183
N22620G01 X109.801 Y139.295
N22630G01 X109.974 Y139.419
N22640G01 X110.138 Y139.554
N22650G01 X110.295 Y139.701
N22660G01 X110.443 Y139.858
N22670G01 X110.578 Y140.023
N22680G01 X110.701 Y140.195
N22690G01 X110.813 Y140.375
N22700G01 X110.912 Y140.562
N22710G01 X110.999 Y140.754
N22720G01 X111.074 Y140.952
N22730G01 X111.135 Y141.154
N22740G01 X111.183 Y141.36
N22750G01 X111.218 Y141.57
N22760G01 X111.239 Y141.782
N22770G01 X111.246 Y142
N22780G01 X111.239 Y142.217
N22790G01 X111.218 Y142.429
N22800G01 X111.183 Y142.639
N22810G01 X111.135 Y142.845
N22820G01 X111.074 Y143.047
N22830G01 X110.999 Y143.245
N22840G01 X110.912 Y143.437
N22850G01 X110.813 Y143.624
N22860G01 X110.701 Y143.803
N22870G01 X110.577 Y143.976
N22880G01 X110.443 Y144.141
N22890G01 X110.295 Y144.298
N22900G01 X110.138 Y144.445
N22910G01 X109.974 Y144.581
N22920G01 X109.801 Y144.704
N22930G01 X109.621 Y144.816
N22940G01 X109.434 Y144.915
N22950G01 X109.242 Y145.002
N22960G01 X109.044 Y145.077
N22970G01 X108.843 Y145.138
N22980G01 X108.636 Y145.187
N22990G01 X108.427 Y145.221
N23000G01 X108.215 Y145.242
N23010G01 X108 Y145.25
N23020G01 X107.784 Y145.242
N23030G01 X107.572 Y145.221
N23040G01 X107.362 Y145.187
N23050G01 X107.157 Y145.139
N23060G01 X106.954 Y145.077
N23070G01 X106.757 Y145.003
N23080G01 X106.565 Y144.915
N23090G01 X106.378 Y144.816
N23100G01 X106.198 Y144.704
N23110G01 X106.026 Y144.581
N23120G01 X105.861 Y144.445
N23130G01 X105.704 Y144.298
N23140G01 X105.556 Y144.141
N23150G01 X105.422 Y143.976
N23160G01 X105.298 Y143.803
N23170G01 X105.186 Y143.624
N23180G01 X105.087 Y143.437
N23190G01 X105 Y143.244
N23200G01 X104.925 Y143.047
N23210G01 X104.864 Y142.845
N23220G01 X104.816 Y142.639
N23230G01 X104.781 Y142.429
N23240G01 X104.76 Y142.217
N23250G01 X104.753 Y142
N23260G01 X104.76 Y141.782
N23270G01 X104.781 Y141.57
N23280G01 X104.816 Y141.36
N23290G01 X104.864 Y141.154
N23300G01 X104.925 Y140.952
N23310G01 X105 Y140.754
N23320G01 X105.087 Y140.562
N23330G01 X105.186 Y140.375
N23340G01 X105.298 Y140.195
N23350G01 X105.421 Y140.023
N23360G01 X105.556 Y139.858
N23370G01 X105.704 Y139.701
N23380G01 X105.861 Y139.554
N23390G01 X106.026 Y139.418
N23400G01 X105.204 Y138.346
N23410G01 X105.449 Y138.171
N23420G01 X105.703 Y138.013
N23430G01 X105.967 Y137.872
N23440G01 X106.24 Y137.749
N23450G01 X106.52 Y137.643
N23460G01 X106.806 Y137.556
N23470G01 X107.098 Y137.488
N23480G01 X107.395 Y137.439
N23490G01 X107.695 Y137.409
N23500G01 X108 Y137.399
N23510G01 X108.304 Y137.409
N23520G01 X108.604 Y137.439
N23530G01 X108.901 Y137.488
N23540G01 X109.193 Y137.556
N23550G01 X109.479 Y137.643
N23560G01 X109.759 Y137.749
N23570G01 X110.031 Y137.872
N23580G01 X110.296 Y138.013
N23590G01 X110.55 Y138.171
N23600G01 X110.795 Y138.346
N23610G01 X111.029 Y138.538
N23620G01 X111.251 Y138.746
N23630G01 X111.459 Y138.968
N23640G01 X111.65 Y139.202
N23650G01 X111.825 Y139.446
N23660G01 X111.983 Y139.701
N23670G01 X112.124 Y139.965
N23680G01 X112.247 Y140.238
N23690G01 X112.353 Y140.518
N23700G01 X112.439 Y140.804
N23710G01 X112.508 Y141.096
N23720G01 X112.557 Y141.393
N23730G01 X112.587 Y141.693
N23740G01 X112.597 Y142
N23750G01 X112.587 Y142.306
N23760G01 X112.557 Y142.606
N23770G01 X112.508 Y142.903
N23780G01 X112.439 Y143.195
N23790G01 X112.353 Y143.481
N23800G01 X112.247 Y143.761
N23810G01 X112.124 Y144.034
N23820G01 X111.983 Y144.298
N23830G01 X111.825 Y144.553
N23840G01 X111.65 Y144.797
N23850G01 X111.459 Y145.031
N23860G01 X111.251 Y145.253
N23870G01 X111.029 Y145.461
N23880G01 X110.795 Y145.653
N23890G01 X110.55 Y145.828
N23900G01 X110.296 Y145.986
N23910G01 X110.032 Y146.127
N23920G01 X109.759 Y146.25
N23930G01 X109.479 Y146.356
N23940G01 X109.193 Y146.443
N23950G01 X108.901 Y146.511
N23960G01 X108.604 Y146.56
N23970G01 X108.304 Y146.59
N23980G01 X108 Y146.6
N23990G01 X107.695 Y146.59
N24000G01 X107.395 Y146.56
N24010G01 X107.098 Y146.511
N24020G01 X106.807 Y146.443
N24030G01 X106.519 Y146.356
N24040G01 X106.24 Y146.25
N24050G01 X105.967 Y146.127
N24060G01 X105.703 Y145.986
N24070G01 X105.449 Y145.828
N24080G01 X105.204 Y145.653
N24090G01 X104.971 Y145.461
N24100G01 X104.748 Y145.253
N24110G01 X104.54 Y145.031
N24120G01 X104.349 Y144.797
N24130G01 X104.174 Y144.553
N24140G01 X104.016 Y144.298
N24150G01 X103.875 Y144.034
N24160G01 X103.752 Y143.761
N24170G01 X103.647 Y143.481
N24180G01 X103.56 Y143.195
N24190G01 X103.491 Y142.903
N24200G01 X103.442 Y142.606
N24210G01 X103.412 Y142.306
N24220G01 X103.402 Y142
N24230G01 X103.412 Y141.693
N24240G01 X103.442 Y141.393
N24250G01 X103.491 Y141.096
N24260G01 X103.56 Y140.804
N24270G01 X103.646 Y140.518
N24280G01 X103.752 Y140.238
N24290G01 X103.875 Y139.965
N24300G01 X104.016 Y139.701
N24310G01 X104.174 Y139.446
N24320G01 X104.349 Y139.202
N24330G01 X104.54 Y138.968
N24340G01 X104.749 Y138.746
N24350G01 X104.97 Y138.538
N24360G01 X105.204 Y138.346
N24370G01 X104.383 Y137.274
N24380G01 X104.699 Y137.048
N24390G01 X105.029 Y136.843
N24400G01 X105.37 Y136.661
N24410G01 X105.723 Y136.501
N24420G01 X106.085 Y136.365
N24430G01 X106.455 Y136.252
N24440G01 X106.834 Y136.163
N24450G01 X107.217 Y136.1
N24460G01 X107.606 Y136.061
N24470G01 X108 Y136.048
N24480G01 X108.393 Y136.061
N24490G01 X108.782 Y136.1
N24500G01 X109.166 Y136.163
N24510G01 X109.544 Y136.252
N24520G01 X109.914 Y136.365
N24530G01 X110.276 Y136.501
N24540G01 X110.628 Y136.66
N24550G01 X110.97 Y136.843
N24560G01 X111.3 Y137.048
N24570G01 X111.617 Y137.274
N24580G01 X111.919 Y137.522
N24590G01 X112.206 Y137.791
N24600G01 X112.475 Y138.078
N24610G01 X112.722 Y138.38
N24620G01 X112.949 Y138.697
N24630G01 X113.153 Y139.027
N24640G01 X113.336 Y139.369
N24650G01 X113.495 Y139.721
N24660G01 X113.632 Y140.083
N24670G01 X113.744 Y140.454
N24680G01 X113.832 Y140.832
N24690G01 X113.896 Y141.216
N24700G01 X113.934 Y141.605
N24710G01 X113.947 Y142
N24720G01 X113.934 Y142.394
N24730G01 X113.896 Y142.783
N24740G01 X113.832 Y143.167
N24750G01 X113.744 Y143.545
N24760G01 X113.631 Y143.916
N24770G01 X113.495 Y144.278
N24780G01 X113.336 Y144.63
N24790G01 X113.153 Y144.972
N24800G01 X112.949 Y145.302
N24810G01 X112.723 Y145.619
N24820G01 X112.475 Y145.921
N24830G01 X112.206 Y146.208
N24840G01 X111.919 Y146.477
N24850G01 X111.616 Y146.725
N24860G01 X111.3 Y146.951
N24870G01 X110.97 Y147.156
N24880G01 X110.629 Y147.338
N24890G01 X110.276 Y147.498
N24900G01 X109.914 Y147.635
N24910G01 X109.544 Y147.747
N24920G01 X109.166 Y147.836
N24930G01 X108.782 Y147.899
N24940G01 X108.393 Y147.938
N24950G01 X108 Y147.951
N24960G01 X107.606 Y147.938
N24970G01 X107.217 Y147.899
N24980G01 X106.833 Y147.836
N24990G01 X106.456 Y147.747
N25000G01 X106.085 Y147.634
N25010G01 X105.723 Y147.498
N25020G01 X105.37 Y147.339
N25030G01 X105.029 Y147.156
N25040G01 X104.699 Y146.951
N25050G01 X104.383 Y146.725
N25060G01 X104.08 Y146.477
N25070G01 X103.793 Y146.208
N25080G01 X103.524 Y145.921
N25090G01 X103.277 Y145.619
N25100G01 X103.05 Y145.302
N25110G01 X102.846 Y144.972
N25120G01 X102.663 Y144.63
N25130G01 X102.504 Y144.278
N25140G01 X102.368 Y143.916
N25150G01 X102.255 Y143.545
N25160G01 X102.167 Y143.167
N25170G01 X102.103 Y142.783
N25180G01 X102.065 Y142.394
N25190G01 X102.052 Y142
N25200G01 X102.065 Y141.605
N25210G01 X102.103 Y141.216
N25220G01 X102.167 Y140.832
N25230G01 X102.255 Y140.454
N25240G01 X102.367 Y140.083
N25250G01 X102.504 Y139.721
N25260G01 X102.663 Y139.369
N25270G01 X102.846 Y139.027
N25280G01 X103.05 Y138.697
N25290G01 X103.277 Y138.38
N25300G01 X103.524 Y138.078
N25310G01 X103.793 Y137.791
N25320G01 X104.08 Y137.522
N25330G01 X104.383 Y137.274
N25340G01 X103.561 Y136.202
N25350G01 X103.949 Y135.924
N25360G01 X104.354 Y135.673
N25370G01 X104.773 Y135.449
N25380G01 X105.206 Y135.253
N25390G01 X105.65 Y135.086
N25400G01 X106.105 Y134.947
N25410G01 X106.569 Y134.839
N25420G01 X107.04 Y134.761
N25430G01 X107.517 Y134.713
N25440G01 X108 Y134.697
N25450G01 X108.482 Y134.713
N25460G01 X108.959 Y134.761
N25470G01 X109.43 Y134.839
N25480G01 X109.894 Y134.947
N25490G01 X110.349 Y135.086
N25500G01 X110.793 Y135.253
N25510G01 X111.225 Y135.449
N25520G01 X111.645 Y135.673
N25530G01 X112.05 Y135.924
N25540G01 X112.438 Y136.202
N25550G01 X112.809 Y136.506
N25560G01 X113.161 Y136.836
N25570G01 X113.491 Y137.189
N25580G01 X113.795 Y137.559
N25590G01 X114.073 Y137.948
N25600G01 X114.324 Y138.353
N25610G01 X114.547 Y138.772
N25620G01 X114.743 Y139.205
N25630G01 X114.911 Y139.649
N25640G01 X115.049 Y140.104
N25650G01 X115.157 Y140.567
N25660G01 X115.235 Y141.039
N25670G01 X115.282 Y141.516
N25680G01 X115.298 Y142
N25690G01 X115.282 Y142.483
N25700G01 X115.235 Y142.96
N25710G01 X115.157 Y143.432
N25720G01 X115.049 Y143.895
N25730G01 X114.91 Y144.35
N25740G01 X114.743 Y144.794
N25750G01 X114.547 Y145.227
N25760G01 X114.324 Y145.647
N25770G01 X114.073 Y146.051
N25780G01 X113.795 Y146.44
N25790G01 X113.491 Y146.811
N25800G01 X113.161 Y147.163
N25810G01 X112.809 Y147.493
N25820G01 X112.438 Y147.797
N25830G01 X112.049 Y148.075
N25840G01 X111.645 Y148.326
N25850G01 X111.226 Y148.55
N25860G01 X110.793 Y148.746
N25870G01 X110.349 Y148.913
N25880G01 X109.894 Y149.052
N25890G01 X109.43 Y149.16
N25900G01 X108.959 Y149.238
N25910G01 X108.482 Y149.286
N25920G01 X108 Y149.302
N25930G01 X107.517 Y149.286
N25940G01 X107.04 Y149.238
N25950G01 X106.569 Y149.16
N25960G01 X106.105 Y149.052
N25970G01 X105.65 Y148.913
N25980G01 X105.206 Y148.746
N25990G01 X104.773 Y148.55
N26000G01 X104.354 Y148.326
N26010G01 X103.95 Y148.075
N26020G01 X103.561 Y147.797
N26030G01 X103.19 Y147.493
N26040G01 X102.838 Y147.163
N26050G01 X102.508 Y146.811
N26060G01 X102.204 Y146.44
N26070G01 X101.926 Y146.051
N26080G01 X101.675 Y145.647
N26090G01 X101.452 Y145.227
N26100G01 X101.256 Y144.794
N26110G01 X101.089 Y144.35
N26120G01 X100.95 Y143.895
N26130G01 X100.842 Y143.432
N26140G01 X100.764 Y142.96
N26150G01 X100.717 Y142.483
N26160G01 X100.701 Y142
N26170G01 X100.717 Y141.516
N26180G01 X100.764 Y141.039
N26190G01 X100.842 Y140.568
N26200G01 X100.95 Y140.104
N26210G01 X101.088 Y139.649
N26220G01 X101.256 Y139.205
N26230G01 X101.452 Y138.772
N26240G01 X101.675 Y138.353
N26250G01 X101.926 Y137.948
N26260G01 X102.204 Y137.559
N26270G01 X102.508 Y137.189
N26280G01 X102.838 Y136.836
N26290G01 X103.19 Y136.506
N26300G01 X103.561 Y136.202
N26310G01 X102.74 Y135.13
N26320G01 X103.2 Y134.8
N26330G01 X103.679 Y134.503
N26340G01 X104.176 Y134.237
N26350G01 X104.689 Y134.005
N26360G01 X105.215 Y133.807
N26370G01 X105.754 Y133.643
N26380G01 X106.304 Y133.514
N26390G01 X106.862 Y133.422
N26400G01 X107.428 Y133.365
N26410G01 X108 Y133.347
N26420G01 X108.571 Y133.365
N26430G01 X109.137 Y133.422
N26440G01 X109.695 Y133.514
N26450G01 X110.245 Y133.643
N26460G01 X110.784 Y133.807
N26470G01 X111.31 Y134.005
N26480G01 X111.823 Y134.237
N26490G01 X112.32 Y134.503
N26500G01 X112.799 Y134.8
N26510G01 X113.26 Y135.13
N26520G01 X113.699 Y135.49
N26530G01 X114.117 Y135.881
N26540G01 X114.507 Y136.299
N26550G01 X114.868 Y136.738
N26560G01 X115.197 Y137.199
N26570G01 X115.494 Y137.678
N26580G01 X115.759 Y138.175
N26590G01 X115.991 Y138.688
N26600G01 X116.19 Y139.215
N26610G01 X116.353 Y139.754
N26620G01 X116.482 Y140.303
N26630G01 X116.574 Y140.862
N26640G01 X116.63 Y141.427
N26650G01 X116.649 Y142
N26660G01 X116.63 Y142.572
N26670G01 X116.574 Y143.137
N26680G01 X116.482 Y143.696
N26690G01 X116.353 Y144.245
N26700G01 X116.189 Y144.784
N26710G01 X115.991 Y145.311
N26720G01 X115.759 Y145.824
N26730G01 X115.494 Y146.321
N26740G01 X115.197 Y146.8
N26750G01 X114.868 Y147.261
N26760G01 X114.507 Y147.7
N26770G01 X114.117 Y148.118
N26780G01 X113.699 Y148.509
N26790G01 X113.26 Y148.869
N26800G01 X112.799 Y149.199
N26810G01 X112.32 Y149.496
N26820G01 X111.823 Y149.762
N26830G01 X111.31 Y149.994
N26840G01 X110.784 Y150.192
N26850G01 X110.245 Y150.356
N26860G01 X109.695 Y150.485
N26870G01 X109.137 Y150.577
N26880G01 X108.571 Y150.634
N26890G01 X108 Y150.653
N26900G01 X107.428 Y150.634
N26910G01 X106.862 Y150.577
N26920G01 X106.304 Y150.485
N26930G01 X105.754 Y150.356
N26940G01 X105.215 Y150.192
N26950G01 X104.689 Y149.994
N26960G01 X104.176 Y149.762
N26970G01 X103.679 Y149.496
N26980G01 X103.2 Y149.199
N26990G01 X102.74 Y148.869
N27000G01 X102.3 Y148.509
N27010G01 X101.882 Y148.118
N27020G01 X101.492 Y147.7
N27030G01 X101.131 Y147.261
N27040G01 X100.802 Y146.8
N27050G01 X100.505 Y146.321
N27060G01 X100.24 Y145.824
N27070G01 X100.008 Y145.311
N27080G01 X99.81 Y144.784
N27090G01 X99.646 Y144.245
N27100G01 X99.517 Y143.696
N27110G01 X99.425 Y143.137
N27120G01 X99.369 Y142.572
N27130G01 X99.35 Y142
N27140G01 X99.369 Y141.427
N27150G01 X99.425 Y140.862
N27160G01 X99.517 Y140.303
N27170G01 X99.646 Y139.754
N27180G01 X99.81 Y139.215
N27190G01 X100.008 Y138.688
N27200G01 X100.24 Y138.175
N27210G01 X100.505 Y137.678
N27220G01 X100.802 Y137.199
N27230G01 X101.131 Y136.738
N27240G01 X101.492 Y136.299
N27250G01 X101.882 Y135.881
N27260G01 X102.3 Y135.49
N27270G01 X102.74 Y135.13
N27280 G00 Z19.999
N27290 G00 X107.669 Y141.563
N27300G01 Z-5 F500
N27310G01 X107.697 Y141.542 F1000
N27320G01 X107.727 Y141.524
N27330G01 X107.758 Y141.507
N27340G01 X107.791 Y141.492
N27350G01 X107.824 Y141.48
N27360G01 X107.858 Y141.47
N27370G01 X107.893 Y141.461
N27380G01 X107.927 Y141.456
N27390G01 X107.962 Y141.452
N27400G01 X108 Y141.451
N27410G01 X108.037 Y141.452
N27420G01 X108.072 Y141.456
N27430G01 X108.107 Y141.461
N27440G01 X108.141 Y141.47
N27450G01 X108.175 Y141.48
N27460G01 X108.208 Y141.492
N27470G01 X108.24 Y141.507
N27480G01 X108.272 Y141.524
N27490G01 X108.301 Y141.542
N27500G01 X108.331 Y141.563
N27510G01 X108.358 Y141.585
N27520G01 X108.385 Y141.61
N27530G01 X108.41 Y141.638
N27540G01 X108.433 Y141.665
N27550G01 X108.453 Y141.694
N27560G01 X108.472 Y141.724
N27570G01 X108.489 Y141.755
N27580G01 X108.503 Y141.787
N27590G01 X108.516 Y141.821
N27600G01 X108.526 Y141.854
N27610G01 X108.534 Y141.889
N27620G01 X108.54 Y141.924
N27630G01 X108.543 Y141.959
N27640G01 X108.544 Y142
N27650G01 X108.543 Y142.04
N27660G01 X108.54 Y142.076
N27670G01 X108.534 Y142.11
N27680G01 X108.526 Y142.145
N27690G01 X108.516 Y142.178
N27700G01 X108.503 Y142.212
N27710G01 X108.488 Y142.244
N27720G01 X108.472 Y142.275
N27730G01 X108.453 Y142.305
N27740G01 X108.432 Y142.334
N27750G01 X108.41 Y142.361
N27760G01 X108.385 Y142.389
N27770G01 X108.358 Y142.414
N27780G01 X108.33 Y142.436
N27790G01 X108.301 Y142.457
N27800G01 X108.272 Y142.475
N27810G01 X108.241 Y142.492
N27820G01 X108.208 Y142.507
N27830G01 X108.175 Y142.519
N27840G01 X108.141 Y142.529
N27850G01 X108.106 Y142.538
N27860G01 X108.072 Y142.543
N27870G01 X108.037 Y142.547
N27880G01 X108 Y142.548
N27890G01 X107.962 Y142.547
N27900G01 X107.927 Y142.543
N27910G01 X107.892 Y142.538
N27920G01 X107.858 Y142.53
N27930G01 X107.824 Y142.519
N27940G01 X107.791 Y142.507
N27950G01 X107.759 Y142.492
N27960G01 X107.727 Y142.476
N27970G01 X107.697 Y142.457
N27980G01 X107.669 Y142.436
N27990G01 X107.641 Y142.414
N28000G01 X107.614 Y142.388
N28010G01 X107.589 Y142.361
N28020G01 X107.567 Y142.334
N28030G01 X107.546 Y142.305
N28040G01 X107.527 Y142.275
N28050G01 X107.511 Y142.244
N28060G01 X107.496 Y142.211
N28070G01 X107.483 Y142.179
N28080G01 X107.473 Y142.145
N28090G01 X107.465 Y142.11
N28100G01 X107.459 Y142.076
N28110G01 X107.456 Y142.04
N28120G01 X107.455 Y142
N28130G01 X107.456 Y141.959
N28140G01 X107.459 Y141.924
N28150G01 X107.465 Y141.889
N28160G01 X107.473 Y141.854
N28170G01 X107.483 Y141.821
N28180G01 X107.496 Y141.788
N28190G01 X107.511 Y141.755
N28200G01 X107.527 Y141.724
N28210G01 X107.546 Y141.694
N28220G01 X107.566 Y141.665
N28230G01 X107.589 Y141.638
N28240G01 X107.614 Y141.61
N28250G01 X107.641 Y141.585
N28260G01 X107.669 Y141.563
N28270G01 X106.847 Y140.491
N28280G01 X106.948 Y140.419
N28290G01 X107.053 Y140.353
N28300G01 X107.162 Y140.295
N28310G01 X107.274 Y140.244
N28320G01 X107.389 Y140.201
N28330G01 X107.507 Y140.165
N28340G01 X107.628 Y140.137
N28350G01 X107.75 Y140.117
N28360G01 X107.873 Y140.104
N28370G01 X108 Y140.1
N28380G01 X108.126 Y140.104
N28390G01 X108.249 Y140.117
N28400G01 X108.372 Y140.137
N28410G01 X108.492 Y140.165
N28420G01 X108.61 Y140.201
N28430G01 X108.725 Y140.244
N28440G01 X108.838 Y140.295
N28450G01 X108.946 Y140.353
N28460G01 X109.051 Y140.419
N28470G01 X109.152 Y140.491
N28480G01 X109.248 Y140.569
N28490G01 X109.34 Y140.655
N28500G01 X109.426 Y140.748
N28510G01 X109.505 Y140.844
N28520G01 X109.577 Y140.945
N28530G01 X109.642 Y141.049
N28540G01 X109.7 Y141.158
N28550G01 X109.751 Y141.271
N28560G01 X109.795 Y141.386
N28570G01 X109.83 Y141.504
N28580G01 X109.859 Y141.625
N28590G01 X109.879 Y141.747
N28600G01 X109.891 Y141.87
N28610G01 X109.895 Y142
N28620G01 X109.891 Y142.129
N28630G01 X109.879 Y142.253
N28640G01 X109.858 Y142.375
N28650G01 X109.83 Y142.495
N28660G01 X109.795 Y142.613
N28670G01 X109.751 Y142.728
N28680G01 X109.7 Y142.841
N28690G01 X109.642 Y142.95
N28700G01 X109.577 Y143.054
N28710G01 X109.505 Y143.155
N28720G01 X109.427 Y143.251
N28730G01 X109.34 Y143.344
N28740G01 X109.248 Y143.43
N28750G01 X109.152 Y143.508
N28760G01 X109.051 Y143.581
N28770G01 X108.946 Y143.646
N28780G01 X108.837 Y143.704
N28790G01 X108.725 Y143.755
N28800G01 X108.61 Y143.798
N28810G01 X108.492 Y143.834
N28820G01 X108.371 Y143.862
N28830G01 X108.25 Y143.882
N28840G01 X108.126 Y143.895
N28850G01 X108 Y143.899
N28860G01 X107.873 Y143.895
N28870G01 X107.75 Y143.882
N28880G01 X107.627 Y143.862
N28890G01 X107.508 Y143.834
N28900G01 X107.389 Y143.798
N28910G01 X107.274 Y143.755
N28920G01 X107.162 Y143.704
N28930G01 X107.053 Y143.646
N28940G01 X106.948 Y143.58
N28950G01 X106.847 Y143.509
N28960G01 X106.751 Y143.43
N28970G01 X106.659 Y143.343
N28980G01 X106.573 Y143.251
N28990G01 X106.494 Y143.155
N29000G01 X106.422 Y143.054
N29010G01 X106.357 Y142.95
N29020G01 X106.299 Y142.841
N29030G01 X106.248 Y142.728
N29040G01 X106.204 Y142.613
N29050G01 X106.169 Y142.495
N29060G01 X106.14 Y142.375
N29070G01 X106.12 Y142.252
N29080G01 X106.108 Y142.129
N29090G01 X106.104 Y142
N29100G01 X106.108 Y141.87
N29110G01 X106.12 Y141.747
N29120G01 X106.141 Y141.625
N29130G01 X106.169 Y141.504
N29140G01 X106.204 Y141.387
N29150G01 X106.248 Y141.271
N29160G01 X106.299 Y141.158
N29170G01 X106.357 Y141.05
N29180G01 X106.422 Y140.945
N29190G01 X106.494 Y140.844
N29200G01 X106.572 Y140.748
N29210G01 X106.659 Y140.655
N29220G01 X106.751 Y140.569
N29230G01 X106.847 Y140.491
N29240G01 X106.026 Y139.418
N29250G01 X106.198 Y139.295
N29260G01 X106.378 Y139.183
N29270G01 X106.564 Y139.084
N29280G01 X106.757 Y138.997
N29290G01 X106.954 Y138.922
N29300G01 X107.156 Y138.861
N29310G01 X107.363 Y138.812
N29320G01 X107.572 Y138.778
N29330G01 X107.784 Y138.757
N29340G01 X108 Y138.75
N29350G01 X108.215 Y138.757
N29360G01 X108.427 Y138.778
N29370G01 X108.636 Y138.812
N29380G01 X108.842 Y138.861
N29390G01 X109.045 Y138.922
N29400G01 X109.242 Y138.996
N29410G01 X109.434 Y139.084
N29420G01 X109.621 Y139.183
N29430G01 X109.801 Y139.295
N29440G01 X109.974 Y139.419
N29450G01 X110.138 Y139.554
N29460G01 X110.295 Y139.701
N29470G01 X110.443 Y139.858
N29480G01 X110.578 Y140.023
N29490G01 X110.701 Y140.195
N29500G01 X110.813 Y140.375
N29510G01 X110.912 Y140.562
N29520G01 X110.999 Y140.754
N29530G01 X111.074 Y140.952
N29540G01 X111.135 Y141.154
N29550G01 X111.183 Y141.36
N29560G01 X111.218 Y141.57
N29570G01 X111.239 Y141.782
N29580G01 X111.246 Y142
N29590G01 X111.239 Y142.217
N29600G01 X111.218 Y142.429
N29610G01 X111.183 Y142.639
N29620G01 X111.135 Y142.845
N29630G01 X111.074 Y143.047
N29640G01 X110.999 Y143.245
N29650G01 X110.912 Y143.437
N29660G01 X110.813 Y143.624
N29670G01 X110.701 Y143.803
N29680G01 X110.577 Y143.976
N29690G01 X110.443 Y144.141
N29700G01 X110.295 Y144.298
N29710G01 X110.138 Y144.445
N29720G01 X109.974 Y144.581
N29730G01 X109.801 Y144.704
N29740G01 X109.621 Y144.816
N29750G01 X109.434 Y144.915
N29760G01 X109.242 Y145.002
N29770G01 X109.044 Y145.077
N29780G01 X108.843 Y145.138
N29790G01 X108.636 Y145.187
N29800G01 X108.427 Y145.221
N29810G01 X108.215 Y145.242
N29820G01 X108 Y145.25
N29830G01 X107.784 Y145.242
N29840G01 X107.572 Y145.221
N29850G01 X107.362 Y145.187
N29860G01 X107.157 Y145.139
N29870G01 X106.954 Y145.077
N29880G01 X106.757 Y145.003
N29890G01 X106.565 Y144.915
N29900G01 X106.378 Y144.816
N29910G01 X106.198 Y144.704
N29920G01 X106.026 Y144.581
N29930G01 X105.861 Y144.445
N29940G01 X105.704 Y144.298
N29950G01 X105.556 Y144.141
N29960G01 X105.422 Y143.976
N29970G01 X105.298 Y143.803
N29980G01 X105.186 Y143.624
N29990G01 X105.087 Y143.437
N30000G01 X105 Y143.244
N30010G01 X104.925 Y143.047
N30020G01 X104.864 Y142.845
N30030G01 X104.816 Y142.639
N30040G01 X104.781 Y142.429
N30050G01 X104.76 Y142.217
N30060G01 X104.753 Y142
N30070G01 X104.76 Y141.782
N30080G01 X104.781 Y141.57
N30090G01 X104.816 Y141.36
N30100G01 X104.864 Y141.154
N30110G01 X104.925 Y140.952
N30120G01 X105 Y140.754
N30130G01 X105.087 Y140.562
N30140G01 X105.186 Y140.375
N30150G01 X105.298 Y140.195
N30160G01 X105.421 Y140.023
N30170G01 X105.556 Y139.858
N30180G01 X105.704 Y139.701
N30190G01 X105.861 Y139.554
N30200G01 X106.026 Y139.418
N30210G01 X105.204 Y138.346
N30220G01 X105.449 Y138.171
N30230G01 X105.703 Y138.013
N30240G01 X105.967 Y137.872
N30250G01 X106.24 Y137.749
N30260G01 X106.52 Y137.643
N30270G01 X106.806 Y137.556
N30280G01 X107.098 Y137.488
N30290G01 X107.395 Y137.439
N30300G01 X107.695 Y137.409
N30310G01 X108 Y137.399
N30320G01 X108.304 Y137.409
N30330G01 X108.604 Y137.439
N30340G01 X108.901 Y137.488
N30350G01 X109.193 Y137.556
N30360G01 X109.479 Y137.643
N30370G01 X109.759 Y137.749
N30380G01 X110.031 Y137.872
N30390G01 X110.296 Y138.013
N30400G01 X110.55 Y138.171
N30410G01 X110.795 Y138.346
N30420G01 X111.029 Y138.538
N30430G01 X111.251 Y138.746
N30440G01 X111.459 Y138.968
N30450G01 X111.65 Y139.202
N30460G01 X111.825 Y139.446
N30470G01 X111.983 Y139.701
N30480G01 X112.124 Y139.965
N30490G01 X112.247 Y140.238
N30500G01 X112.353 Y140.518
N30510G01 X112.439 Y140.804
N30520G01 X112.508 Y141.096
N30530G01 X112.557 Y141.393
N30540G01 X112.587 Y141.693
N30550G01 X112.597 Y142
N30560G01 X112.587 Y142.306
N30570G01 X112.557 Y142.606
N30580G01 X112.508 Y142.903
N30590G01 X112.439 Y143.195
N30600G01 X112.353 Y143.481
N30610G01 X112.247 Y143.761
N30620G01 X112.124 Y144.034
N30630G01 X111.983 Y144.298
N30640G01 X111.825 Y144.553
N30650G01 X111.65 Y144.797
N30660G01 X111.459 Y145.031
N30670G01 X111.251 Y145.253
N30680G01 X111.029 Y145.461
N30690G01 X110.795 Y145.653
N30700G01 X110.55 Y145.828
N30710G01 X110.296 Y145.986
N30720G01 X110.032 Y146.127
N30730G01 X109.759 Y146.25
N30740G01 X109.479 Y146.356
N30750G01 X109.193 Y146.443
N30760G01 X108.901 Y146.511
N30770G01 X108.604 Y146.56
N30780G01 X108.304 Y146.59
N30790G01 X108 Y146.6
N30800G01 X107.695 Y146.59
N30810G01 X107.395 Y146.56
N30820G01 X107.098 Y146.511
N30830G01 X106.807 Y146.443
N30840G01 X106.519 Y146.356
N30850G01 X106.24 Y146.25
N30860G01 X105.967 Y146.127
N30870G01 X105.703 Y145.986
N30880G01 X105.449 Y145.828
N30890G01 X105.204 Y145.653
N30900G01 X104.971 Y145.461
N30910G01 X104.748 Y145.253
N30920G01 X104.54 Y145.031
N30930G01 X104.349 Y144.797
N30940G01 X104.174 Y144.553
N30950G01 X104.016 Y144.298
N30960G01 X103.875 Y144.034
N30970G01 X103.752 Y143.761
N30980G01 X103.647 Y143.481
N30990G01 X103.56 Y143.195
N31000G01 X103.491 Y142.903
N31010G01 X103.442 Y142.606
N31020G01 X103.412 Y142.306
N31030G01 X103.402 Y142
N31040G01 X103.412 Y141.693
N31050G01 X103.442 Y141.393
N31060G01 X103.491 Y141.096
N31070G01 X103.56 Y140.804
N31080G01 X103.646 Y140.518
N31090G01 X103.752 Y140.238
N31100G01 X103.875 Y139.965
N31110G01 X104.016 Y139.701
N31120G01 X104.174 Y139.446
N31130G01 X104.349 Y139.202
N31140G01 X104.54 Y138.968
N31150G01 X104.749 Y138.746
N31160G01 X104.97 Y138.538
N31170G01 X105.204 Y138.346
N31180G01 X104.383 Y137.274
N31190G01 X104.699 Y137.048
N31200G01 X105.029 Y136.843
N31210G01 X105.37 Y136.661
N31220G01 X105.723 Y136.501
N31230G01 X106.085 Y136.365
N31240G01 X106.455 Y136.252
N31250G01 X106.834 Y136.163
N31260G01 X107.217 Y136.1
N31270G01 X107.606 Y136.061
N31280G01 X108 Y136.048
N31290G01 X108.393 Y136.061
N31300G01 X108.782 Y136.1
N31310G01 X109.166 Y136.163
N31320G01 X109.544 Y136.252
N31330G01 X109.914 Y136.365
N31340G01 X110.276 Y136.501
N31350G01 X110.628 Y136.66
N31360G01 X110.97 Y136.843
N31370G01 X111.3 Y137.048
N31380G01 X111.617 Y137.274
N31390G01 X111.919 Y137.522
N31400G01 X112.206 Y137.791
N31410G01 X112.475 Y138.078
N31420G01 X112.722 Y138.38
N31430G01 X112.949 Y138.697
N31440G01 X113.153 Y139.027
N31450G01 X113.336 Y139.369
N31460G01 X113.495 Y139.721
N31470G01 X113.632 Y140.083
N31480G01 X113.744 Y140.454
N31490G01 X113.832 Y140.832
N31500G01 X113.896 Y141.216
N31510G01 X113.934 Y141.605
N31520G01 X113.947 Y142
N31530G01 X113.934 Y142.394
N31540G01 X113.896 Y142.783
N31550G01 X113.832 Y143.167
N31560G01 X113.744 Y143.545
N31570G01 X113.631 Y143.916
N31580G01 X113.495 Y144.278
N31590G01 X113.336 Y144.63
N31600G01 X113.153 Y144.972
N31610G01 X112.949 Y145.302
N31620G01 X112.723 Y145.619
N31630G01 X112.475 Y145.921
N31640G01 X112.206 Y146.208
N31650G01 X111.919 Y146.477
N31660G01 X111.616 Y146.725
N31670G01 X111.3 Y146.951
N31680G01 X110.97 Y147.156
N31690G01 X110.629 Y147.338
N31700G01 X110.276 Y147.498
N31710G01 X109.914 Y147.635
N31720G01 X109.544 Y147.747
N31730G01 X109.166 Y147.836
N31740G01 X108.782 Y147.899
N31750G01 X108.393 Y147.938
N31760G01 X108 Y147.951
N31770G01 X107.606 Y147.938
N31780G01 X107.217 Y147.899
N31790G01 X106.833 Y147.836
N31800G01 X106.456 Y147.747
N31810G01 X106.085 Y147.634
N31820G01 X105.723 Y147.498
N31830G01 X105.37 Y147.339
N31840G01 X105.029 Y147.156
N31850G01 X104.699 Y146.951
N31860G01 X104.383 Y146.725
N31870G01 X104.08 Y146.477
N31880G01 X103.793 Y146.208
N31890G01 X103.524 Y145.921
N31900G01 X103.277 Y145.619
N31910G01 X103.05 Y145.302
N31920G01 X102.846 Y144.972
N31930G01 X102.663 Y144.63
N31940G01 X102.504 Y144.278
N31950G01 X102.368 Y143.916
N31960G01 X102.255 Y143.545
N31970G01 X102.167 Y143.167
N31980G01 X102.103 Y142.783
N31990G01 X102.065 Y142.394
N32000G01 X102.052 Y142
N32010G01 X102.065 Y141.605
N32020G01 X102.103 Y141.216
N32030G01 X102.167 Y140.832
N32040G01 X102.255 Y140.454
N32050G01 X102.367 Y140.083
N32060G01 X102.504 Y139.721
N32070G01 X102.663 Y139.369
N32080G01 X102.846 Y139.027
N32090G01 X103.05 Y138.697
N32100G01 X103.277 Y138.38
N32110G01 X103.524 Y138.078
N32120G01 X103.793 Y137.791
N32130G01 X104.08 Y137.522
N32140G01 X104.383 Y137.274
N32150G01 X103.561 Y136.202
N32160G01 X103.949 Y135.924
N32170G01 X104.354 Y135.673
N32180G01 X104.773 Y135.449
N32190G01 X105.206 Y135.253
N32200G01 X105.65 Y135.086
N32210G01 X106.105 Y134.947
N32220G01 X106.569 Y134.839
N32230G01 X107.04 Y134.761
N32240G01 X107.517 Y134.713
N32250G01 X108 Y134.697
N32260G01 X108.482 Y134.713
N32270G01 X108.959 Y134.761
N32280G01 X109.43 Y134.839
N32290G01 X109.894 Y134.947
N32300G01 X110.349 Y135.086
N32310G01 X110.793 Y135.253
N32320G01 X111.225 Y135.449
N32330G01 X111.645 Y135.673
N32340G01 X112.05 Y135.924
N32350G01 X112.438 Y136.202
N32360G01 X112.809 Y136.506
N32370G01 X113.161 Y136.836
N32380G01 X113.491 Y137.189
N32390G01 X113.795 Y137.559
N32400G01 X114.073 Y137.948
N32410G01 X114.324 Y138.353
N32420G01 X114.547 Y138.772
N32430G01 X114.743 Y139.205
N32440G01 X114.911 Y139.649
N32450G01 X115.049 Y140.104
N32460G01 X115.157 Y140.567
N32470G01 X115.235 Y141.039
N32480G01 X115.282 Y141.516
N32490G01 X115.298 Y142
N32500G01 X115.282 Y142.483
N32510G01 X115.235 Y142.96
N32520G01 X115.157 Y143.432
N32530G01 X115.049 Y143.895
N32540G01 X114.91 Y144.35
N32550G01 X114.743 Y144.794
N32560G01 X114.547 Y145.227
N32570G01 X114.324 Y145.647
N32580G01 X114.073 Y146.051
N32590G01 X113.795 Y146.44
N32600G01 X113.491 Y146.811
N32610G01 X113.161 Y147.163
N32620G01 X112.809 Y147.493
N32630G01 X112.438 Y147.797
N32640G01 X112.049 Y148.075
N32650G01 X111.645 Y148.326
N32660G01 X111.226 Y148.55
N32670G01 X110.793 Y148.746
N32680G01 X110.349 Y148.913
N32690G01 X109.894 Y149.052
N32700G01 X109.43 Y149.16
N32710G01 X108.959 Y149.238
N32720G01 X108.482 Y149.286
N32730G01 X108 Y149.302
N32740G01 X107.517 Y149.286
N32750G01 X107.04 Y149.238
N32760G01 X106.569 Y149.16
N32770G01 X106.105 Y149.052
N32780G01 X105.65 Y148.913
N32790G01 X105.206 Y148.746
N32800G01 X104.773 Y148.55
N32810G01 X104.354 Y148.326
N32820G01 X103.95 Y148.075
N32830G01 X103.561 Y147.797
N32840G01 X103.19 Y147.493
N32850G01 X102.838 Y147.163
N32860G01 X102.508 Y146.811
N32870G01 X102.204 Y146.44
N32880G01 X101.926 Y146.051
N32890G01 X101.675 Y145.647
N32900G01 X101.452 Y145.227
N32910G01 X101.256 Y144.794
N32920G01 X101.089 Y144.35
N32930G01 X100.95 Y143.895
N32940G01 X100.842 Y143.432
N32950G01 X100.764 Y142.96
N32960G01 X100.717 Y142.483
N32970G01 X100.701 Y142
N32980G01 X100.717 Y141.516
N32990G01 X100.764 Y141.039
N33000G01 X100.842 Y140.568
N33010G01 X100.95 Y140.104
N33020G01 X101.088 Y139.649
N33030G01 X101.256 Y139.205
N33040G01 X101.452 Y138.772
N33050G01 X101.675 Y138.353
N33060G01 X101.926 Y137.948
N33070G01 X102.204 Y137.559
N33080G01 X102.508 Y137.189
N33090G01 X102.838 Y136.836
N33100G01 X103.19 Y136.506
N33110G01 X103.561 Y136.202
N33120G01 X102.74 Y135.13
N33130G01 X103.2 Y134.8
N33140G01 X103.679 Y134.503
N33150G01 X104.176 Y134.237
N33160G01 X104.689 Y134.005
N33170G01 X105.215 Y133.807
N33180G01 X105.754 Y133.643
N33190G01 X106.304 Y133.514
N33200G01 X106.862 Y133.422
N33210G01 X107.428 Y133.365
N33220G01 X108 Y133.347
N33230G01 X108.571 Y133.365
N33240G01 X109.137 Y133.422
N33250G01 X109.695 Y133.514
N33260G01 X110.245 Y133.643
N33270G01 X110.784 Y133.807
N33280G01 X111.31 Y134.005
N33290G01 X111.823 Y134.237
N33300G01 X112.32 Y134.503
N33310G01 X112.799 Y134.8
N33320G01 X113.26 Y135.13
N33330G01 X113.699 Y135.49
N33340G01 X114.117 Y135.881
N33350G01 X114.507 Y136.299
N33360G01 X114.868 Y136.738
N33370G01 X115.197 Y137.199
N33380G01 X115.494 Y137.678
N33390G01 X115.759 Y138.175
N33400G01 X115.991 Y138.688
N33410G01 X116.19 Y139.215
N33420G01 X116.353 Y139.754
N33430G01 X116.482 Y140.303
N33440G01 X116.574 Y140.862
N33450G01 X116.63 Y141.427
N33460G01 X116.649 Y142
N33470G01 X116.63 Y142.572
N33480G01 X116.574 Y143.137
N33490G01 X116.482 Y143.696
N33500G01 X116.353 Y144.245
N33510G01 X116.189 Y144.784
N33520G01 X115.991 Y145.311
N33530G01 X115.759 Y145.824
N33540G01 X115.494 Y146.321
N33550G01 X115.197 Y146.8
N33560G01 X114.868 Y147.261
N33570G01 X114.507 Y147.7
N33580G01 X114.117 Y148.118
N33590G01 X113.699 Y148.509
N33600G01 X113.26 Y148.869
N33610G01 X112.799 Y149.199
N33620G01 X112.32 Y149.496
N33630G01 X111.823 Y149.762
N33640G01 X111.31 Y149.994
N33650G01 X110.784 Y150.192
N33660G01 X110.245 Y150.356
N33670G01 X109.695 Y150.485
N33680G01 X109.137 Y150.577
N33690G01 X108.571 Y150.634
N33700G01 X108 Y150.653
N33710G01 X107.428 Y150.634
N33720G01 X106.862 Y150.577
N33730G01 X106.304 Y150.485
N33740G01 X105.754 Y150.356
N33750G01 X105.215 Y150.192
N33760G01 X104.689 Y149.994
N33770G01 X104.176 Y149.762
N33780G01 X103.679 Y149.496
N33790G01 X103.2 Y149.199
N33800G01 X102.74 Y148.869
N33810G01 X102.3 Y148.509
N33820G01 X101.882 Y148.118
N33830G01 X101.492 Y147.7
N33840G01 X101.131 Y147.261
N33850G01 X100.802 Y146.8
N33860G01 X100.505 Y146.321
N33870G01 X100.24 Y145.824
N33880G01 X100.008 Y145.311
N33890G01 X99.81 Y144.784
N33900G01 X99.646 Y144.245
N33910G01 X99.517 Y143.696
N33920G01 X99.425 Y143.137
N33930G01 X99.369 Y142.572
N33940G01 X99.35 Y142
N33950G01 X99.369 Y141.427
N33960G01 X99.425 Y140.862
N33970G01 X99.517 Y140.303
N33980G01 X99.646 Y139.754
N33990G01 X99.81 Y139.215
N34000G01 X100.008 Y138.688
N34010G01 X100.24 Y138.175
N34020G01 X100.505 Y137.678
N34030G01 X100.802 Y137.199
N34040G01 X101.131 Y136.738
N34050G01 X101.492 Y136.299
N34060G01 X101.882 Y135.881
N34070G01 X102.3 Y135.49
N34080G01 X102.74 Y135.13
N34090 G00 Z19.999
N34100 G00 X107.669 Y141.563
N34110G01 Z-6 F500
N34120G01 X107.697 Y141.542 F1000
N34130G01 X107.727 Y141.524
N34140G01 X107.758 Y141.507
N34150G01 X107.791 Y141.492
N34160G01 X107.824 Y141.48
N34170G01 X107.858 Y141.47
N34180G01 X107.893 Y141.461
N34190G01 X107.927 Y141.456
N34200G01 X107.962 Y141.452
N34210G01 X108 Y141.451
N34220G01 X108.037 Y141.452
N34230G01 X108.072 Y141.456
N34240G01 X108.107 Y141.461
N34250G01 X108.141 Y141.47
N34260G01 X108.175 Y141.48
N34270G01 X108.208 Y141.492
N34280G01 X108.24 Y141.507
N34290G01 X108.272 Y141.524
N34300G01 X108.301 Y141.542
N34310G01 X108.331 Y141.563
N34320G01 X108.358 Y141.585
N34330G01 X108.385 Y141.61
N34340G01 X108.41 Y141.638
N34350G01 X108.433 Y141.665
N34360G01 X108.453 Y141.694
N34370G01 X108.472 Y141.724
N34380G01 X108.489 Y141.755
N34390G01 X108.503 Y141.787
N34400G01 X108.516 Y141.821
N34410G01 X108.526 Y141.854
N34420G01 X108.534 Y141.889
N34430G01 X108.54 Y141.924
N34440G01 X108.543 Y141.959
N34450G01 X108.544 Y142
N34460G01 X108.543 Y142.04
N34470G01 X108.54 Y142.076
N34480G01 X108.534 Y142.11
N34490G01 X108.526 Y142.145
N34500G01 X108.516 Y142.178
N34510G01 X108.503 Y142.212
N34520G01 X108.488 Y142.244
N34530G01 X108.472 Y142.275
N34540G01 X108.453 Y142.305
N34550G01 X108.432 Y142.334
N34560G01 X108.41 Y142.361
N34570G01 X108.385 Y142.389
N34580G01 X108.358 Y142.414
N34590G01 X108.33 Y142.436
N34600G01 X108.301 Y142.457
N34610G01 X108.272 Y142.475
N34620G01 X108.241 Y142.492
N34630G01 X108.208 Y142.507
N34640G01 X108.175 Y142.519
N34650G01 X108.141 Y142.529
N34660G01 X108.106 Y142.538
N34670G01 X108.072 Y142.543
N34680G01 X108.037 Y142.547
N34690G01 X108 Y142.548
N34700G01 X107.962 Y142.547
N34710G01 X107.927 Y142.543
N34720G01 X107.892 Y142.538
N34730G01 X107.858 Y142.53
N34740G01 X107.824 Y142.519
N34750G01 X107.791 Y142.507
N34760G01 X107.759 Y142.492
N34770G01 X107.727 Y142.476
N34780G01 X107.697 Y142.457
N34790G01 X107.669 Y142.436
N34800G01 X107.641 Y142.414
N34810G01 X107.614 Y142.388
N34820G01 X107.589 Y142.361
N34830G01 X107.567 Y142.334
N34840G01 X107.546 Y142.305
N34850G01 X107.527 Y142.275
N34860G01 X107.511 Y142.244
N34870G01 X107.496 Y142.211
N34880G01 X107.483 Y142.179
N34890G01 X107.473 Y142.145
N34900G01 X107.465 Y142.11
N34910G01 X107.459 Y142.076
N34920G01 X107.456 Y142.04
N34930G01 X107.455 Y142
N34940G01 X107.456 Y141.959
N34950G01 X107.459 Y141.924
N34960G01 X107.465 Y141.889
N34970G01 X107.473 Y141.854
N34980G01 X107.483 Y141.821
N34990G01 X107.496 Y141.788
N35000G01 X107.511 Y141.755
N35010G01 X107.527 Y141.724
N35020G01 X107.546 Y141.694
N35030G01 X107.566 Y141.665
N35040G01 X107.589 Y141.638
N35050G01 X107.614 Y141.61
N35060G01 X107.641 Y141.585
N35070G01 X107.669 Y141.563
N35080G01 X106.847 Y140.491
N35090G01 X106.948 Y140.419
N35100G01 X107.053 Y140.353
N35110G01 X107.162 Y140.295
N35120G01 X107.274 Y140.244
N35130G01 X107.389 Y140.201
N35140G01 X107.507 Y140.165
N35150G01 X107.628 Y140.137
N35160G01 X107.75 Y140.117
N35170G01 X107.873 Y140.104
N35180G01 X108 Y140.1
N35190G01 X108.126 Y140.104
N35200G01 X108.249 Y140.117
N35210G01 X108.372 Y140.137
N35220G01 X108.492 Y140.165
N35230G01 X108.61 Y140.201
N35240G01 X108.725 Y140.244
N35250G01 X108.838 Y140.295
N35260G01 X108.946 Y140.353
N35270G01 X109.051 Y140.419
N35280G01 X109.152 Y140.491
N35290G01 X109.248 Y140.569
N35300G01 X109.34 Y140.655
N35310G01 X109.426 Y140.748
N35320G01 X109.505 Y140.844
N35330G01 X109.577 Y140.945
N35340G01 X109.642 Y141.049
N35350G01 X109.7 Y141.158
N35360G01 X109.751 Y141.271
N35370G01 X109.795 Y141.386
N35380G01 X109.83 Y141.504
N35390G01 X109.859 Y141.625
N35400G01 X109.879 Y141.747
N35410G01 X109.891 Y141.87
N35420G01 X109.895 Y142
N35430G01 X109.891 Y142.129
N35440G01 X109.879 Y142.253
N35450G01 X109.858 Y142.375
N35460G01 X109.83 Y142.495
N35470G01 X109.795 Y142.613
N35480G01 X109.751 Y142.728
N35490G01 X109.7 Y142.841
N35500G01 X109.642 Y142.95
N35510G01 X109.577 Y143.054
N35520G01 X109.505 Y143.155
N35530G01 X109.427 Y143.251
N35540G01 X109.34 Y143.344
N35550G01 X109.248 Y143.43
N35560G01 X109.152 Y143.508
N35570G01 X109.051 Y143.581
N35580G01 X108.946 Y143.646
N35590G01 X108.837 Y143.704
N35600G01 X108.725 Y143.755
N35610G01 X108.61 Y143.798
N35620G01 X108.492 Y143.834
N35630G01 X108.371 Y143.862
N35640G01 X108.25 Y143.882
N35650G01 X108.126 Y143.895
N35660G01 X108 Y143.899
N35670G01 X107.873 Y143.895
N35680G01 X107.75 Y143.882
N35690G01 X107.627 Y143.862
N35700G01 X107.508 Y143.834
N35710G01 X107.389 Y143.798
N35720G01 X107.274 Y143.755
N35730G01 X107.162 Y143.704
N35740G01 X107.053 Y143.646
N35750G01 X106.948 Y143.58
N35760G01 X106.847 Y143.509
N35770G01 X106.751 Y143.43
N35780G01 X106.659 Y143.343
N35790G01 X106.573 Y143.251
N35800G01 X106.494 Y143.155
N35810G01 X106.422 Y143.054
N35820G01 X106.357 Y142.95
N35830G01 X106.299 Y142.841
N35840G01 X106.248 Y142.728
N35850G01 X106.204 Y142.613
N35860G01 X106.169 Y142.495
N35870G01 X106.14 Y142.375
N35880G01 X106.12 Y142.252
N35890G01 X106.108 Y142.129
N35900G01 X106.104 Y142
N35910G01 X106.108 Y141.87
N35920G01 X106.12 Y141.747
N35930G01 X106.141 Y141.625
N35940G01 X106.169 Y141.504
N35950G01 X106.204 Y141.387
N35960G01 X106.248 Y141.271
N35970G01 X106.299 Y141.158
N35980G01 X106.357 Y141.05
N35990G01 X106.422 Y140.945
N36000G01 X106.494 Y140.844
N36010G01 X106.572 Y140.748
N36020G01 X106.659 Y140.655
N36030G01 X106.751 Y140.569
N36040G01 X106.847 Y140.491
N36050G01 X106.026 Y139.418
N36060G01 X106.198 Y139.295
N36070G01 X106.378 Y139.183
N36080G01 X106.564 Y139.084
N36090G01 X106.757 Y138.997
N36100G01 X106.954 Y138.922
N36110G01 X107.156 Y138.861
N36120G01 X107.363 Y138.812
N36130G01 X107.572 Y138.778
N36140G01 X107.784 Y138.757
N36150G01 X108 Y138.75
N36160G01 X108.215 Y138.757
N36170G01 X108.427 Y138.778
N36180G01 X108.636 Y138.812
N36190G01 X108.842 Y138.861
N36200G01 X109.045 Y138.922
N36210G01 X109.242 Y138.996
N36220G01 X109.434 Y139.084
N36230G01 X109.621 Y139.183
N36240G01 X109.801 Y139.295
N36250G01 X109.974 Y139.419
N36260G01 X110.138 Y139.554
N36270G01 X110.295 Y139.701
N36280G01 X110.443 Y139.858
N36290G01 X110.578 Y140.023
N36300G01 X110.701 Y140.195
N36310G01 X110.813 Y140.375
N36320G01 X110.912 Y140.562
N36330G01 X110.999 Y140.754
N36340G01 X111.074 Y140.952
N36350G01 X111.135 Y141.154
N36360G01 X111.183 Y141.36
N36370G01 X111.218 Y141.57
N36380G01 X111.239 Y141.782
N36390G01 X111.246 Y142
N36400G01 X111.239 Y142.217
N36410G01 X111.218 Y142.429
N36420G01 X111.183 Y142.639
N36430G01 X111.135 Y142.845
N36440G01 X111.074 Y143.047
N36450G01 X110.999 Y143.245
N36460G01 X110.912 Y143.437
N36470G01 X110.813 Y143.624
N36480G01 X110.701 Y143.803
N36490G01 X110.577 Y143.976
N36500G01 X110.443 Y144.141
N36510G01 X110.295 Y144.298
N36520G01 X110.138 Y144.445
N36530G01 X109.974 Y144.581
N36540G01 X109.801 Y144.704
N36550G01 X109.621 Y144.816
N36560G01 X109.434 Y144.915
N36570G01 X109.242 Y145.002
N36580G01 X109.044 Y145.077
N36590G01 X108.843 Y145.138
N36600G01 X108.636 Y145.187
