(GCode created using the HeeksCNC Mach3 post processor)
(/home/user/git-repos/donation-box/designs/3D/blender/left-side panel/outline-file.tap)
(G-code generated with BlenderCAM and NC library)
N10 G17 G21 G90
(Tool change)
N20G43H1
N30T1 M06
N40 G00 X0 Y0 Z9.999 S12000 M03
N50 G00 X31.45 Y51.347
N60G01 Z-1 F500
N70G01 X168.547 F1000
N80G01 Y338.648
N90G01 X31.45 Y338.648
N100G01 X31.45 Y51.347
N110 G00 Z9.999
N120 G00 X-1.349 Y0
N130G01 Z-1 F500
N140G01 X-1.349 Y340.044 F1000
N150G01 X-1.293 Y341.692
N160G01 X-1.291 Y341.692
N170G01 X-1.287 Y341.778
N180G01 X-1.123 Y343.414
N190G01 X-1.11 Y343.501
N200G01 X-1.111 Y343.501
N210G01 X-0.841 Y345.115
N220G01 X-0.84 Y345.115
N230G01 X-0.834 Y345.156
N240G01 X-0.823 Y345.201
N250G01 X-0.824 Y345.201
N260G01 X-0.451 Y346.79
N270G01 X-0.45 Y346.79
N280G01 X-0.429 Y346.873
N290G01 X0.045 Y348.433
N300G01 X0.074 Y348.515
N310G01 X0.073 Y348.516
N320G01 X0.663 Y350.081
N330G01 X1.351 Y351.604
N340G01 X1.352 Y351.603
N350G01 X1.391 Y351.684
N360G01 X2.157 Y353.122
N370G01 X2.201 Y353.195
N380G01 X2.199 Y353.196
N390G01 X3.058 Y354.584
N400G01 X3.059 Y354.583
N410G01 X3.084 Y354.623
N420G01 X3.108 Y354.656
N430G01 X3.107 Y354.657
N440G01 X4.057 Y355.989
N450G01 X4.058 Y355.988
N460G01 X4.111 Y356.059
N470G01 X5.151 Y357.332
N480G01 X5.209 Y357.396
N490G01 X5.208 Y357.397
N500G01 X6.365 Y358.636
N510G01 X156.398 Y508.658
N520G01 X157.603 Y509.787
N530G01 X157.604 Y509.786
N540G01 X157.669 Y509.846
N550G01 X158.94 Y510.887
N560G01 X159.011 Y510.94
N570G01 X159.011 Y510.941
N580G01 X160.376 Y511.918
N590G01 X161.8 Y512.802
N600G01 X161.801 Y512.801
N610G01 X161.876 Y512.846
N620G01 X163.312 Y513.613
N630G01 X163.391 Y513.65
N640G01 X163.391 Y513.652
N650G01 X164.913 Y514.341
N660G01 X166.475 Y514.93
N670G01 X166.475 Y514.929
N680G01 X166.559 Y514.959
N690G01 X168.117 Y515.433
N700G01 X168.2 Y515.454
N710G01 X168.2 Y515.456
N720G01 X169.833 Y515.838
N730G01 X171.488 Y516.114
N740G01 X171.488 Y516.113
N750G01 X171.576 Y516.126
N760G01 X173.21 Y516.29
N770G01 X173.299 Y516.294
N780G01 X173.299 Y516.295
N790G01 X174.995 Y516.352
N800G01 X175.085 Y516.348
N810G01 X175.086 Y516.349
N820G01 X178.478 Y516.121
N830G01 X178.478 Y516.119
N840G01 X178.52 Y516.117
N850G01 X178.651 Y516.098
N860G01 X181.911 Y515.432
N870G01 X182.033 Y515.401
N880G01 X182.084 Y515.383
N890G01 X182.084 Y515.384
N900G01 X185.17 Y514.312
N910G01 X185.169 Y514.311
N920G01 X185.243 Y514.284
N930G01 X185.331 Y514.242
N940G01 X185.332 Y514.244
N950G01 X188.219 Y512.795
N960G01 X188.219 Y512.793
N970G01 X188.25 Y512.779
N980G01 X188.369 Y512.707
N990G01 X191.028 Y510.911
N1000G01 X191.129 Y510.835
N1010G01 X193.566 Y508.692
N1020G01 X193.565 Y508.69
N1030G01 X193.629 Y508.633
N1040G01 X193.686 Y508.569
N1050G01 X193.687 Y508.57
N1060G01 X195.801 Y506.169
N1070G01 X195.8 Y506.168
N1080G01 X195.831 Y506.133
N1090G01 X195.906 Y506.033
N1100G01 X197.703 Y503.373
N1110G01 X197.775 Y503.254
N1120G01 X197.789 Y503.223
N1130G01 X197.791 Y503.223
N1140G01 X199.24 Y500.336
N1150G01 X199.238 Y500.336
N1160G01 X199.28 Y500.247
N1170G01 X199.307 Y500.173
N1180G01 X199.308 Y500.174
N1190G01 X200.38 Y497.088
N1200G01 X200.379 Y497.088
N1210G01 X200.397 Y497.037
N1220G01 X200.427 Y496.916
N1230G01 X201.092 Y493.662
N1240G01 X201.113 Y493.524
N1250G01 X201.115 Y493.482
N1260G01 X201.117 Y493.482
N1270G01 X201.345 Y490.09
N1280G01 X201.344 Y490.09
N1290G01 X201.348 Y489.999
N1300G01 X201.29 Y-0.391
N1310G01 X201.245 Y-0.516
N1320G01 X201.189 Y-0.636
N1330G01 X201.121 Y-0.75
N1340G01 X201.042 Y-0.856
N1350G01 X200.953 Y-0.954
N1360G01 X200.854 Y-1.043
N1370G01 X200.748 Y-1.122
N1380G01 X200.634 Y-1.19
N1390G01 X200.515 Y-1.247
N1400G01 X200.39 Y-1.291
N1410G01 X200.261 Y-1.324
N1420G01 X200.13 Y-1.343
N1430G01 X199.998 Y-1.349
N1440G01 X0
N1450G01 X-0.132 Y-1.343
N1460G01 X-0.263 Y-1.324
N1470G01 X-0.391 Y-1.291
N1480G01 X-0.516 Y-1.247
N1490G01 X-0.636 Y-1.19
N1500G01 X-0.75 Y-1.122
N1510G01 X-0.856 Y-1.043
N1520G01 X-0.954 Y-0.954
N1530G01 X-1.043 Y-0.856
N1540G01 X-1.122 Y-0.75
N1550G01 X-1.19 Y-0.636
N1560G01 X-1.247 Y-0.516
N1570G01 X-1.291 Y-0.391
N1580G01 X-1.324 Y-0.263
N1590G01 X-1.343 Y-0.132
N1600G01 X-1.349 Y0
N1610 G00 Z9.999
N1620 G00 X31.45 Y51.347
N1630G01 Z-2 F500
N1640G01 X168.547 F1000
N1650G01 Y338.648
N1660G01 X31.45 Y338.648
N1670G01 X31.45 Y51.347
N1680 G00 Z9.999
N1690 G00 X-1.349 Y0
N1700G01 Z-2 F500
N1710G01 X-1.349 Y340.044 F1000
N1720G01 X-1.293 Y341.692
N1730G01 X-1.291 Y341.692
N1740G01 X-1.287 Y341.778
N1750G01 X-1.123 Y343.414
N1760G01 X-1.11 Y343.501
N1770G01 X-1.111 Y343.501
N1780G01 X-0.841 Y345.115
N1790G01 X-0.84 Y345.115
N1800G01 X-0.834 Y345.156
N1810G01 X-0.823 Y345.201
N1820G01 X-0.824 Y345.201
N1830G01 X-0.451 Y346.79
N1840G01 X-0.45 Y346.79
N1850G01 X-0.429 Y346.873
N1860G01 X0.045 Y348.433
N1870G01 X0.074 Y348.515
N1880G01 X0.073 Y348.516
N1890G01 X0.663 Y350.081
N1900G01 X1.351 Y351.604
N1910G01 X1.352 Y351.603
N1920G01 X1.391 Y351.684
N1930G01 X2.157 Y353.122
N1940G01 X2.201 Y353.195
N1950G01 X2.199 Y353.196
N1960G01 X3.058 Y354.584
N1970G01 X3.059 Y354.583
N1980G01 X3.084 Y354.623
N1990G01 X3.108 Y354.656
N2000G01 X3.107 Y354.657
N2010G01 X4.057 Y355.989
N2020G01 X4.058 Y355.988
N2030G01 X4.111 Y356.059
N2040G01 X5.151 Y357.332
N2050G01 X5.209 Y357.396
N2060G01 X5.208 Y357.397
N2070G01 X6.365 Y358.636
N2080G01 X156.398 Y508.658
N2090G01 X157.603 Y509.787
N2100G01 X157.604 Y509.786
N2110G01 X157.669 Y509.846
N2120G01 X158.94 Y510.887
N2130G01 X159.011 Y510.94
N2140G01 X159.011 Y510.941
N2150G01 X160.376 Y511.918
N2160G01 X161.8 Y512.802
N2170G01 X161.801 Y512.801
N2180G01 X161.876 Y512.846
N2190G01 X163.312 Y513.613
N2200G01 X163.391 Y513.65
N2210G01 X163.391 Y513.652
N2220G01 X164.913 Y514.341
N2230G01 X166.475 Y514.93
N2240G01 X166.475 Y514.929
N2250G01 X166.559 Y514.959
N2260G01 X168.117 Y515.433
N2270G01 X168.2 Y515.454
N2280G01 X168.2 Y515.456
N2290G01 X169.833 Y515.838
N2300G01 X171.488 Y516.114
N2310G01 X171.488 Y516.113
N2320G01 X171.576 Y516.126
N2330G01 X173.21 Y516.29
N2340G01 X173.299 Y516.294
N2350G01 X173.299 Y516.295
N2360G01 X174.995 Y516.352
N2370G01 X175.085 Y516.348
N2380G01 X175.086 Y516.349
N2390G01 X178.478 Y516.121
N2400G01 X178.478 Y516.119
N2410G01 X178.52 Y516.117
N2420G01 X178.651 Y516.098
N2430G01 X181.911 Y515.432
N2440G01 X182.033 Y515.401
N2450G01 X182.084 Y515.383
N2460G01 X182.084 Y515.384
N2470G01 X185.17 Y514.312
N2480G01 X185.169 Y514.311
N2490G01 X185.243 Y514.284
N2500G01 X185.331 Y514.242
N2510G01 X185.332 Y514.244
N2520G01 X188.219 Y512.795
N2530G01 X188.219 Y512.793
N2540G01 X188.25 Y512.779
N2550G01 X188.369 Y512.707
N2560G01 X191.028 Y510.911
N2570G01 X191.129 Y510.835
N2580G01 X193.566 Y508.692
N2590G01 X193.565 Y508.69
N2600G01 X193.629 Y508.633
N2610G01 X193.686 Y508.569
N2620G01 X193.687 Y508.57
N2630G01 X195.801 Y506.169
N2640G01 X195.8 Y506.168
N2650G01 X195.831 Y506.133
N2660G01 X195.906 Y506.033
N2670G01 X197.703 Y503.373
N2680G01 X197.775 Y503.254
N2690G01 X197.789 Y503.223
N2700G01 X197.791 Y503.223
N2710G01 X199.24 Y500.336
N2720G01 X199.238 Y500.336
N2730G01 X199.28 Y500.247
N2740G01 X199.307 Y500.173
N2750G01 X199.308 Y500.174
N2760G01 X200.38 Y497.088
N2770G01 X200.379 Y497.088
N2780G01 X200.397 Y497.037
N2790G01 X200.427 Y496.916
N2800G01 X201.092 Y493.662
N2810G01 X201.113 Y493.524
N2820G01 X201.115 Y493.482
N2830G01 X201.117 Y493.482
N2840G01 X201.345 Y490.09
N2850G01 X201.344 Y490.09
N2860G01 X201.348 Y489.999
N2870G01 X201.29 Y-0.391
N2880G01 X201.245 Y-0.516
N2890G01 X201.189 Y-0.636
N2900G01 X201.121 Y-0.75
N2910G01 X201.042 Y-0.856
N2920G01 X200.953 Y-0.954
N2930G01 X200.854 Y-1.043
N2940G01 X200.748 Y-1.122
N2950G01 X200.634 Y-1.19
N2960G01 X200.515 Y-1.247
N2970G01 X200.39 Y-1.291
N2980G01 X200.261 Y-1.324
N2990G01 X200.13 Y-1.343
N3000G01 X199.998 Y-1.349
N3010G01 X0
N3020G01 X-0.132 Y-1.343
N3030G01 X-0.263 Y-1.324
N3040G01 X-0.391 Y-1.291
N3050G01 X-0.516 Y-1.247
N3060G01 X-0.636 Y-1.19
N3070G01 X-0.75 Y-1.122
N3080G01 X-0.856 Y-1.043
N3090G01 X-0.954 Y-0.954
N3100G01 X-1.043 Y-0.856
N3110G01 X-1.122 Y-0.75
N3120G01 X-1.19 Y-0.636
N3130G01 X-1.247 Y-0.516
N3140G01 X-1.291 Y-0.391
N3150G01 X-1.324 Y-0.263
N3160G01 X-1.343 Y-0.132
N3170G01 X-1.349 Y0
N3180 G00 Z9.999
N3190 G00 X31.45 Y51.347
N3200G01 Z-3 F500
N3210G01 X168.547 F1000
N3220G01 Y338.648
N3230G01 X31.45 Y338.648
N3240G01 X31.45 Y51.347
N3250 G00 Z9.999
N3260 G00 X-1.349 Y0
N3270G01 Z-3 F500
N3280G01 X-1.349 Y340.044 F1000
N3290G01 X-1.293 Y341.692
N3300G01 X-1.291 Y341.692
N3310G01 X-1.287 Y341.778
N3320G01 X-1.123 Y343.414
N3330G01 X-1.11 Y343.501
N3340G01 X-1.111 Y343.501
N3350G01 X-0.841 Y345.115
N3360G01 X-0.84 Y345.115
N3370G01 X-0.834 Y345.156
N3380G01 X-0.823 Y345.201
N3390G01 X-0.824 Y345.201
N3400G01 X-0.451 Y346.79
N3410G01 X-0.45 Y346.79
N3420G01 X-0.429 Y346.873
N3430G01 X0.045 Y348.433
N3440G01 X0.074 Y348.515
N3450G01 X0.073 Y348.516
N3460G01 X0.663 Y350.081
N3470G01 X1.351 Y351.604
N3480G01 X1.352 Y351.603
N3490G01 X1.391 Y351.684
N3500G01 X2.157 Y353.122
N3510G01 X2.201 Y353.195
N3520G01 X2.199 Y353.196
N3530G01 X3.058 Y354.584
N3540G01 X3.059 Y354.583
N3550G01 X3.084 Y354.623
N3560G01 X3.108 Y354.656
N3570G01 X3.107 Y354.657
N3580G01 X4.057 Y355.989
N3590G01 X4.058 Y355.988
N3600G01 X4.111 Y356.059
N3610G01 X5.151 Y357.332
N3620G01 X5.209 Y357.396
N3630G01 X5.208 Y357.397
N3640G01 X6.365 Y358.636
N3650G01 X156.398 Y508.658
N3660G01 X157.603 Y509.787
N3670G01 X157.604 Y509.786
N3680G01 X157.669 Y509.846
N3690G01 X158.94 Y510.887
N3700G01 X159.011 Y510.94
N3710G01 X159.011 Y510.941
N3720G01 X160.376 Y511.918
N3730G01 X161.8 Y512.802
N3740G01 X161.801 Y512.801
N3750G01 X161.876 Y512.846
N3760G01 X163.312 Y513.613
N3770G01 X163.391 Y513.65
N3780G01 X163.391 Y513.652
N3790G01 X164.913 Y514.341
N3800G01 X166.475 Y514.93
N3810G01 X166.475 Y514.929
N3820G01 X166.559 Y514.959
N3830G01 X168.117 Y515.433
N3840G01 X168.2 Y515.454
N3850G01 X168.2 Y515.456
N3860G01 X169.833 Y515.838
N3870G01 X171.488 Y516.114
N3880G01 X171.488 Y516.113
N3890G01 X171.576 Y516.126
N3900G01 X173.21 Y516.29
N3910G01 X173.299 Y516.294
N3920G01 X173.299 Y516.295
N3930G01 X174.995 Y516.352
N3940G01 X175.085 Y516.348
N3950G01 X175.086 Y516.349
N3960G01 X178.478 Y516.121
N3970G01 X178.478 Y516.119
N3980G01 X178.52 Y516.117
N3990G01 X178.651 Y516.098
N4000G01 X181.911 Y515.432
N4010G01 X182.033 Y515.401
N4020G01 X182.084 Y515.383
N4030G01 X182.084 Y515.384
N4040G01 X185.17 Y514.312
N4050G01 X185.169 Y514.311
N4060G01 X185.243 Y514.284
N4070G01 X185.331 Y514.242
N4080G01 X185.332 Y514.244
N4090G01 X188.219 Y512.795
N4100G01 X188.219 Y512.793
N4110G01 X188.25 Y512.779
N4120G01 X188.369 Y512.707
N4130G01 X191.028 Y510.911
N4140G01 X191.129 Y510.835
N4150G01 X193.566 Y508.692
N4160G01 X193.565 Y508.69
N4170G01 X193.629 Y508.633
N4180G01 X193.686 Y508.569
N4190G01 X193.687 Y508.57
N4200G01 X195.801 Y506.169
N4210G01 X195.8 Y506.168
N4220G01 X195.831 Y506.133
N4230G01 X195.906 Y506.033
N4240G01 X197.703 Y503.373
N4250G01 X197.775 Y503.254
N4260G01 X197.789 Y503.223
N4270G01 X197.791 Y503.223
N4280G01 X199.24 Y500.336
N4290G01 X199.238 Y500.336
N4300G01 X199.28 Y500.247
N4310G01 X199.307 Y500.173
N4320G01 X199.308 Y500.174
N4330G01 X200.38 Y497.088
N4340G01 X200.379 Y497.088
N4350G01 X200.397 Y497.037
N4360G01 X200.427 Y496.916
N4370G01 X201.092 Y493.662
N4380G01 X201.113 Y493.524
N4390G01 X201.115 Y493.482
N4400G01 X201.117 Y493.482
N4410G01 X201.345 Y490.09
N4420G01 X201.344 Y490.09
N4430G01 X201.348 Y489.999
N4440G01 X201.29 Y-0.391
N4450G01 X201.245 Y-0.516
N4460G01 X201.189 Y-0.636
N4470G01 X201.121 Y-0.75
N4480G01 X201.042 Y-0.856
N4490G01 X200.953 Y-0.954
N4500G01 X200.854 Y-1.043
N4510G01 X200.748 Y-1.122
N4520G01 X200.634 Y-1.19
N4530G01 X200.515 Y-1.247
N4540G01 X200.39 Y-1.291
N4550G01 X200.261 Y-1.324
N4560G01 X200.13 Y-1.343
N4570G01 X199.998 Y-1.349
N4580G01 X0
N4590G01 X-0.132 Y-1.343
N4600G01 X-0.263 Y-1.324
N4610G01 X-0.391 Y-1.291
N4620G01 X-0.516 Y-1.247
N4630G01 X-0.636 Y-1.19
N4640G01 X-0.75 Y-1.122
N4650G01 X-0.856 Y-1.043
N4660G01 X-0.954 Y-0.954
N4670G01 X-1.043 Y-0.856
N4680G01 X-1.122 Y-0.75
N4690G01 X-1.19 Y-0.636
N4700G01 X-1.247 Y-0.516
N4710G01 X-1.291 Y-0.391
N4720G01 X-1.324 Y-0.263
N4730G01 X-1.343 Y-0.132
N4740G01 X-1.349 Y0
N4750 G00 Z9.999
N4760 G00 X31.45 Y51.347
N4770G01 Z-4 F500
N4780G01 X168.547 F1000
N4790G01 Y338.648
N4800G01 X31.45 Y338.648
N4810G01 X31.45 Y51.347
N4820 G00 Z9.999
N4830 G00 X-1.349 Y0
N4840G01 Z-4 F500
N4850G01 X-1.349 Y340.044 F1000
N4860G01 X-1.293 Y341.692
N4870G01 X-1.291 Y341.692
N4880G01 X-1.287 Y341.778
N4890G01 X-1.123 Y343.414
N4900G01 X-1.11 Y343.501
N4910G01 X-1.111 Y343.501
N4920G01 X-0.841 Y345.115
N4930G01 X-0.84 Y345.115
N4940G01 X-0.834 Y345.156
N4950G01 X-0.823 Y345.201
N4960G01 X-0.824 Y345.201
N4970G01 X-0.451 Y346.79
N4980G01 X-0.45 Y346.79
N4990G01 X-0.429 Y346.873
N5000G01 X0.045 Y348.433
N5010G01 X0.074 Y348.515
N5020G01 X0.073 Y348.516
N5030G01 X0.663 Y350.081
N5040G01 X1.351 Y351.604
N5050G01 X1.352 Y351.603
N5060G01 X1.391 Y351.684
N5070G01 X2.157 Y353.122
N5080G01 X2.201 Y353.195
N5090G01 X2.199 Y353.196
N5100G01 X3.058 Y354.584
N5110G01 X3.059 Y354.583
N5120G01 X3.084 Y354.623
N5130G01 X3.108 Y354.656
N5140G01 X3.107 Y354.657
N5150G01 X4.057 Y355.989
N5160G01 X4.058 Y355.988
N5170G01 X4.111 Y356.059
N5180G01 X5.151 Y357.332
N5190G01 X5.209 Y357.396
N5200G01 X5.208 Y357.397
N5210G01 X6.365 Y358.636
N5220G01 X156.398 Y508.658
N5230G01 X157.603 Y509.787
N5240G01 X157.604 Y509.786
N5250G01 X157.669 Y509.846
N5260G01 X158.94 Y510.887
N5270G01 X159.011 Y510.94
N5280G01 X159.011 Y510.941
N5290G01 X160.376 Y511.918
N5300G01 X161.8 Y512.802
N5310G01 X161.801 Y512.801
N5320G01 X161.876 Y512.846
N5330G01 X163.312 Y513.613
N5340G01 X163.391 Y513.65
N5350G01 X163.391 Y513.652
N5360G01 X164.913 Y514.341
N5370G01 X166.475 Y514.93
N5380G01 X166.475 Y514.929
N5390G01 X166.559 Y514.959
N5400G01 X168.117 Y515.433
N5410G01 X168.2 Y515.454
N5420G01 X168.2 Y515.456
N5430G01 X169.833 Y515.838
N5440G01 X171.488 Y516.114
N5450G01 X171.488 Y516.113
N5460G01 X171.576 Y516.126
N5470G01 X173.21 Y516.29
N5480G01 X173.299 Y516.294
N5490G01 X173.299 Y516.295
N5500G01 X174.995 Y516.352
N5510G01 X175.085 Y516.348
N5520G01 X175.086 Y516.349
N5530G01 X178.478 Y516.121
N5540G01 X178.478 Y516.119
N5550G01 X178.52 Y516.117
N5560G01 X178.651 Y516.098
N5570G01 X181.911 Y515.432
N5580G01 X182.033 Y515.401
N5590G01 X182.084 Y515.383
N5600G01 X182.084 Y515.384
N5610G01 X185.17 Y514.312
N5620G01 X185.169 Y514.311
N5630G01 X185.243 Y514.284
N5640G01 X185.331 Y514.242
N5650G01 X185.332 Y514.244
N5660G01 X188.219 Y512.795
N5670G01 X188.219 Y512.793
N5680G01 X188.25 Y512.779
N5690G01 X188.369 Y512.707
N5700G01 X191.028 Y510.911
N5710G01 X191.129 Y510.835
N5720G01 X193.566 Y508.692
N5730G01 X193.565 Y508.69
N5740G01 X193.629 Y508.633
N5750G01 X193.686 Y508.569
N5760G01 X193.687 Y508.57
N5770G01 X195.801 Y506.169
N5780G01 X195.8 Y506.168
N5790G01 X195.831 Y506.133
N5800G01 X195.906 Y506.033
N5810G01 X197.703 Y503.373
N5820G01 X197.775 Y503.254
N5830G01 X197.789 Y503.223
N5840G01 X197.791 Y503.223
N5850G01 X199.24 Y500.336
N5860G01 X199.238 Y500.336
N5870G01 X199.28 Y500.247
N5880G01 X199.307 Y500.173
N5890G01 X199.308 Y500.174
N5900G01 X200.38 Y497.088
N5910G01 X200.379 Y497.088
N5920G01 X200.397 Y497.037
N5930G01 X200.427 Y496.916
N5940G01 X201.092 Y493.662
N5950G01 X201.113 Y493.524
N5960G01 X201.115 Y493.482
N5970G01 X201.117 Y493.482
N5980G01 X201.345 Y490.09
N5990G01 X201.344 Y490.09
N6000G01 X201.348 Y489.999
N6010G01 X201.29 Y-0.391
N6020G01 X201.245 Y-0.516
N6030G01 X201.189 Y-0.636
N6040G01 X201.121 Y-0.75
N6050G01 X201.042 Y-0.856
N6060G01 X200.953 Y-0.954
N6070G01 X200.854 Y-1.043
N6080G01 X200.748 Y-1.122
N6090G01 X200.634 Y-1.19
N6100G01 X200.515 Y-1.247
N6110G01 X200.39 Y-1.291
N6120G01 X200.261 Y-1.324
N6130G01 X200.13 Y-1.343
N6140G01 X199.998 Y-1.349
N6150G01 X0
N6160G01 X-0.132 Y-1.343
N6170G01 X-0.263 Y-1.324
N6180G01 X-0.391 Y-1.291
N6190G01 X-0.516 Y-1.247
N6200G01 X-0.636 Y-1.19
N6210G01 X-0.75 Y-1.122
N6220G01 X-0.856 Y-1.043
N6230G01 X-0.954 Y-0.954
N6240G01 X-1.043 Y-0.856
N6250G01 X-1.122 Y-0.75
N6260G01 X-1.19 Y-0.636
N6270G01 X-1.247 Y-0.516
N6280G01 X-1.291 Y-0.391
N6290G01 X-1.324 Y-0.263
N6300G01 X-1.343 Y-0.132
N6310G01 X-1.349 Y0
N6320 G00 Z9.999
N6330 G00 X31.45 Y51.347
N6340G01 Z-5 F500
N6350G01 X168.547 F1000
N6360G01 Y338.648
N6370G01 X31.45 Y338.648
N6380G01 X31.45 Y51.347
N6390 G00 Z9.999
N6400 G00 X-1.349 Y0
N6410G01 Z-5 F500
N6420G01 X-1.349 Y340.044 F1000
N6430G01 X-1.293 Y341.692
N6440G01 X-1.291 Y341.692
N6450G01 X-1.287 Y341.778
N6460G01 X-1.123 Y343.414
N6470G01 X-1.11 Y343.501
N6480G01 X-1.111 Y343.501
N6490G01 X-0.841 Y345.115
N6500G01 X-0.84 Y345.115
N6510G01 X-0.834 Y345.156
N6520G01 X-0.823 Y345.201
N6530G01 X-0.824 Y345.201
N6540G01 X-0.451 Y346.79
N6550G01 X-0.45 Y346.79
N6560G01 X-0.429 Y346.873
N6570G01 X0.045 Y348.433
N6580G01 X0.074 Y348.515
N6590G01 X0.073 Y348.516
N6600G01 X0.663 Y350.081
N6610G01 X1.351 Y351.604
N6620G01 X1.352 Y351.603
N6630G01 X1.391 Y351.684
N6640G01 X2.157 Y353.122
N6650G01 X2.201 Y353.195
N6660G01 X2.199 Y353.196
N6670G01 X3.058 Y354.584
N6680G01 X3.059 Y354.583
N6690G01 X3.084 Y354.623
N6700G01 X3.108 Y354.656
N6710G01 X3.107 Y354.657
N6720G01 X4.057 Y355.989
N6730G01 X4.058 Y355.988
N6740G01 X4.111 Y356.059
N6750G01 X5.151 Y357.332
N6760G01 X5.209 Y357.396
N6770G01 X5.208 Y357.397
N6780G01 X6.365 Y358.636
N6790G01 X156.398 Y508.658
N6800G01 X157.603 Y509.787
N6810G01 X157.604 Y509.786
N6820G01 X157.669 Y509.846
N6830G01 X158.94 Y510.887
N6840G01 X159.011 Y510.94
N6850G01 X159.011 Y510.941
N6860G01 X160.376 Y511.918
N6870G01 X161.8 Y512.802
N6880G01 X161.801 Y512.801
N6890G01 X161.876 Y512.846
N6900G01 X163.312 Y513.613
N6910G01 X163.391 Y513.65
N6920G01 X163.391 Y513.652
N6930G01 X164.913 Y514.341
N6940G01 X166.475 Y514.93
N6950G01 X166.475 Y514.929
N6960G01 X166.559 Y514.959
N6970G01 X168.117 Y515.433
N6980G01 X168.2 Y515.454
N6990G01 X168.2 Y515.456
N7000G01 X169.833 Y515.838
N7010G01 X171.488 Y516.114
N7020G01 X171.488 Y516.113
N7030G01 X171.576 Y516.126
N7040G01 X173.21 Y516.29
N7050G01 X173.299 Y516.294
N7060G01 X173.299 Y516.295
N7070G01 X174.995 Y516.352
N7080G01 X175.085 Y516.348
N7090G01 X175.086 Y516.349
N7100G01 X178.478 Y516.121
N7110G01 X178.478 Y516.119
N7120G01 X178.52 Y516.117
N7130G01 X178.651 Y516.098
N7140G01 X181.911 Y515.432
N7150G01 X182.033 Y515.401
N7160G01 X182.084 Y515.383
N7170G01 X182.084 Y515.384
N7180G01 X185.17 Y514.312
N7190G01 X185.169 Y514.311
N7200G01 X185.243 Y514.284
N7210G01 X185.331 Y514.242
N7220G01 X185.332 Y514.244
N7230G01 X188.219 Y512.795
N7240G01 X188.219 Y512.793
N7250G01 X188.25 Y512.779
N7260G01 X188.369 Y512.707
N7270G01 X191.028 Y510.911
N7280G01 X191.129 Y510.835
N7290G01 X193.566 Y508.692
N7300G01 X193.565 Y508.69
N7310G01 X193.629 Y508.633
N7320G01 X193.686 Y508.569
N7330G01 X193.687 Y508.57
N7340G01 X195.801 Y506.169
N7350G01 X195.8 Y506.168
N7360G01 X195.831 Y506.133
N7370G01 X195.906 Y506.033
N7380G01 X197.703 Y503.373
N7390G01 X197.775 Y503.254
N7400G01 X197.789 Y503.223
N7410G01 X197.791 Y503.223
N7420G01 X199.24 Y500.336
N7430G01 X199.238 Y500.336
N7440G01 X199.28 Y500.247
N7450G01 X199.307 Y500.173
N7460G01 X199.308 Y500.174
N7470G01 X200.38 Y497.088
N7480G01 X200.379 Y497.088
N7490G01 X200.397 Y497.037
N7500G01 X200.427 Y496.916
N7510G01 X201.092 Y493.662
N7520G01 X201.113 Y493.524
N7530G01 X201.115 Y493.482
N7540G01 X201.117 Y493.482
N7550G01 X201.345 Y490.09
N7560G01 X201.344 Y490.09
N7570G01 X201.348 Y489.999
N7580G01 X201.29 Y-0.391
N7590G01 X201.245 Y-0.516
N7600G01 X201.189 Y-0.636
N7610G01 X201.121 Y-0.75
N7620G01 X201.042 Y-0.856
N7630G01 X200.953 Y-0.954
N7640G01 X200.854 Y-1.043
N7650G01 X200.748 Y-1.122
N7660G01 X200.634 Y-1.19
N7670G01 X200.515 Y-1.247
N7680G01 X200.39 Y-1.291
N7690G01 X200.261 Y-1.324
N7700G01 X200.13 Y-1.343
N7710G01 X199.998 Y-1.349
N7720G01 X0
N7730G01 X-0.132 Y-1.343
N7740G01 X-0.263 Y-1.324
N7750G01 X-0.391 Y-1.291
N7760G01 X-0.516 Y-1.247
N7770G01 X-0.636 Y-1.19
N7780G01 X-0.75 Y-1.122
N7790G01 X-0.856 Y-1.043
N7800G01 X-0.954 Y-0.954
N7810G01 X-1.043 Y-0.856
N7820G01 X-1.122 Y-0.75
N7830G01 X-1.19 Y-0.636
N7840G01 X-1.247 Y-0.516
N7850G01 X-1.291 Y-0.391
N7860G01 X-1.324 Y-0.263
N7870G01 X-1.343 Y-0.132
N7880G01 X-1.349 Y0
N7890 G00 Z9.999
N7900 G00 X31.45 Y51.347
N7910G01 Z-6 F500
N7920G01 X168.547 F1000
N7930G01 Y338.648
N7940G01 X31.45 Y338.648
N7950G01 X31.45 Y51.347
N7960 G00 Z9.999
N7970 G00 X-1.349 Y0
N7980G01 Z-6 F500
N7990G01 X-1.349 Y340.044 F1000
N8000G01 X-1.293 Y341.692
N8010G01 X-1.291 Y341.692
N8020G01 X-1.287 Y341.778
N8030G01 X-1.123 Y343.414
N8040G01 X-1.11 Y343.501
N8050G01 X-1.111 Y343.501
N8060G01 X-0.841 Y345.115
N8070G01 X-0.84 Y345.115
N8080G01 X-0.834 Y345.156
N8090G01 X-0.823 Y345.201
N8100G01 X-0.824 Y345.201
N8110G01 X-0.451 Y346.79
N8120G01 X-0.45 Y346.79
N8130G01 X-0.429 Y346.873
N8140G01 X0.045 Y348.433
N8150G01 X0.074 Y348.515
N8160G01 X0.073 Y348.516
N8170G01 X0.663 Y350.081
N8180G01 X1.351 Y351.604
N8190G01 X1.352 Y351.603
N8200G01 X1.391 Y351.684
N8210G01 X2.157 Y353.122
N8220G01 X2.201 Y353.195
N8230G01 X2.199 Y353.196
N8240G01 X3.058 Y354.584
N8250G01 X3.059 Y354.583
N8260G01 X3.084 Y354.623
N8270G01 X3.108 Y354.656
N8280G01 X3.107 Y354.657
N8290G01 X4.057 Y355.989
N8300G01 X4.058 Y355.988
N8310G01 X4.111 Y356.059
N8320G01 X5.151 Y357.332
N8330G01 X5.209 Y357.396
N8340G01 X5.208 Y357.397
N8350G01 X6.365 Y358.636
N8360G01 X156.398 Y508.658
N8370G01 X157.603 Y509.787
N8380G01 X157.604 Y509.786
N8390G01 X157.669 Y509.846
N8400G01 X158.94 Y510.887
N8410G01 X159.011 Y510.94
N8420G01 X159.011 Y510.941
N8430G01 X160.376 Y511.918
N8440G01 X161.8 Y512.802
N8450G01 X161.801 Y512.801
N8460G01 X161.876 Y512.846
N8470G01 X163.312 Y513.613
N8480G01 X163.391 Y513.65
N8490G01 X163.391 Y513.652
N8500G01 X164.913 Y514.341
N8510G01 X166.475 Y514.93
N8520G01 X166.475 Y514.929
N8530G01 X166.559 Y514.959
N8540G01 X168.117 Y515.433
N8550G01 X168.2 Y515.454
N8560G01 X168.2 Y515.456
N8570G01 X169.833 Y515.838
N8580G01 X171.488 Y516.114
N8590G01 X171.488 Y516.113
N8600G01 X171.576 Y516.126
N8610G01 X173.21 Y516.29
N8620G01 X173.299 Y516.294
N8630G01 X173.299 Y516.295
N8640G01 X174.995 Y516.352
N8650G01 X175.085 Y516.348
N8660G01 X175.086 Y516.349
N8670G01 X178.478 Y516.121
N8680G01 X178.478 Y516.119
N8690G01 X178.52 Y516.117
N8700G01 X178.651 Y516.098
N8710G01 X181.911 Y515.432
N8720G01 X182.033 Y515.401
N8730G01 X182.084 Y515.383
N8740G01 X182.084 Y515.384
N8750G01 X185.17 Y514.312
N8760G01 X185.169 Y514.311
N8770G01 X185.243 Y514.284
N8780G01 X185.331 Y514.242
N8790G01 X185.332 Y514.244
N8800G01 X188.219 Y512.795
N8810G01 X188.219 Y512.793
N8820G01 X188.25 Y512.779
N8830G01 X188.369 Y512.707
N8840G01 X191.028 Y510.911
N8850G01 X191.129 Y510.835
N8860G01 X193.566 Y508.692
N8870G01 X193.565 Y508.69
N8880G01 X193.629 Y508.633
N8890G01 X193.686 Y508.569
N8900G01 X193.687 Y508.57
N8910G01 X195.801 Y506.169
N8920G01 X195.8 Y506.168
N8930G01 X195.831 Y506.133
N8940G01 X195.906 Y506.033
N8950G01 X197.703 Y503.373
N8960G01 X197.775 Y503.254
N8970G01 X197.789 Y503.223
N8980G01 X197.791 Y503.223
N8990G01 X199.24 Y500.336
N9000G01 X199.238 Y500.336
N9010G01 X199.28 Y500.247
N9020G01 X199.307 Y500.173
N9030G01 X199.308 Y500.174
N9040G01 X200.38 Y497.088
N9050G01 X200.379 Y497.088
N9060G01 X200.397 Y497.037
N9070G01 X200.427 Y496.916
N9080G01 X201.092 Y493.662
N9090G01 X201.113 Y493.524
N9100G01 X201.115 Y493.482
N9110G01 X201.117 Y493.482
N9120G01 X201.345 Y490.09
N9130G01 X201.344 Y490.09
N9140G01 X201.348 Y489.999
N9150G01 X201.29 Y-0.391
N9160G01 X201.245 Y-0.516
N9170G01 X201.189 Y-0.636
N9180G01 X201.121 Y-0.75
N9190G01 X201.042 Y-0.856
N9200G01 X200.953 Y-0.954
N9210G01 X200.854 Y-1.043
N9220G01 X200.748 Y-1.122
N9230G01 X200.634 Y-1.19
N9240G01 X200.515 Y-1.247
N9250G01 X200.39 Y-1.291
N9260G01 X200.261 Y-1.324
N9270G01 X200.13 Y-1.343
N9280G01 X199.998 Y-1.349
N9290G01 X0
N9300G01 X-0.132 Y-1.343
N9310G01 X-0.263 Y-1.324
N9320G01 X-0.391 Y-1.291
N9330G01 X-0.516 Y-1.247
N9340G01 X-0.636 Y-1.19
N9350G01 X-0.75 Y-1.122
N9360G01 X-0.856 Y-1.043
N9370G01 X-0.954 Y-0.954
N9380G01 X-1.043 Y-0.856
N9390G01 X-1.122 Y-0.75
N9400G01 X-1.19 Y-0.636
N9410G01 X-1.247 Y-0.516
N9420G01 X-1.291 Y-0.391
N9430G01 X-1.324 Y-0.263
N9440G01 X-1.343 Y-0.132
N9450G01 X-1.349 Y0
N9460 G00 Z9.999
N9470 G00 X31.45 Y51.347
N9480G01 Z-7 F500
N9490G01 X168.547 F1000
N9500G01 Y338.648
N9510G01 X31.45 Y338.648
N9520G01 X31.45 Y51.347
N9530 G00 Z9.999
N9540 G00 X-1.349 Y0
N9550G01 Z-7 F500
N9560G01 X-1.349 Y340.044 F1000
N9570G01 X-1.293 Y341.692
N9580G01 X-1.291 Y341.692
N9590G01 X-1.287 Y341.778
N9600G01 X-1.123 Y343.414
N9610G01 X-1.11 Y343.501
N9620G01 X-1.111 Y343.501
N9630G01 X-0.841 Y345.115
N9640G01 X-0.84 Y345.115
N9650G01 X-0.834 Y345.156
N9660G01 X-0.823 Y345.201
N9670G01 X-0.824 Y345.201
N9680G01 X-0.451 Y346.79
N9690G01 X-0.45 Y346.79
N9700G01 X-0.429 Y346.873
N9710G01 X0.045 Y348.433
N9720G01 X0.074 Y348.515
N9730G01 X0.073 Y348.516
N9740G01 X0.663 Y350.081
N9750G01 X1.351 Y351.604
N9760G01 X1.352 Y351.603
N9770G01 X1.391 Y351.684
N9780G01 X2.157 Y353.122
N9790G01 X2.201 Y353.195
N9800G01 X2.199 Y353.196
N9810G01 X3.058 Y354.584
N9820G01 X3.059 Y354.583
N9830G01 X3.084 Y354.623
N9840G01 X3.108 Y354.656
N9850G01 X3.107 Y354.657
N9860G01 X4.057 Y355.989
N9870G01 X4.058 Y355.988
N9880G01 X4.111 Y356.059
N9890G01 X5.151 Y357.332
N9900G01 X5.209 Y357.396
N9910G01 X5.208 Y357.397
N9920G01 X6.365 Y358.636
N9930G01 X156.398 Y508.658
N9940G01 X157.603 Y509.787
N9950G01 X157.604 Y509.786
N9960G01 X157.669 Y509.846
N9970G01 X158.94 Y510.887
N9980G01 X159.011 Y510.94
N9990G01 X159.011 Y510.941
N10000G01 X160.376 Y511.918
N10010G01 X161.8 Y512.802
N10020G01 X161.801 Y512.801
N10030G01 X161.876 Y512.846
N10040G01 X163.312 Y513.613
N10050G01 X163.391 Y513.65
N10060G01 X163.391 Y513.652
N10070G01 X164.913 Y514.341
N10080G01 X166.475 Y514.93
N10090G01 X166.475 Y514.929
N10100G01 X166.559 Y514.959
N10110G01 X168.117 Y515.433
N10120G01 X168.2 Y515.454
N10130G01 X168.2 Y515.456
N10140G01 X169.833 Y515.838
N10150G01 X171.488 Y516.114
N10160G01 X171.488 Y516.113
N10170G01 X171.576 Y516.126
N10180G01 X173.21 Y516.29
N10190G01 X173.299 Y516.294
N10200G01 X173.299 Y516.295
N10210G01 X174.995 Y516.352
N10220G01 X175.085 Y516.348
N10230G01 X175.086 Y516.349
N10240G01 X178.478 Y516.121
N10250G01 X178.478 Y516.119
N10260G01 X178.52 Y516.117
N10270G01 X178.651 Y516.098
N10280G01 X181.911 Y515.432
N10290G01 X182.033 Y515.401
N10300G01 X182.084 Y515.383
N10310G01 X182.084 Y515.384
N10320G01 X185.17 Y514.312
N10330G01 X185.169 Y514.311
N10340G01 X185.243 Y514.284
N10350G01 X185.331 Y514.242
N10360G01 X185.332 Y514.244
N10370G01 X188.219 Y512.795
N10380G01 X188.219 Y512.793
N10390G01 X188.25 Y512.779
N10400G01 X188.369 Y512.707
N10410G01 X191.028 Y510.911
N10420G01 X191.129 Y510.835
N10430G01 X193.566 Y508.692
N10440G01 X193.565 Y508.69
N10450G01 X193.629 Y508.633
N10460G01 X193.686 Y508.569
N10470G01 X193.687 Y508.57
N10480G01 X195.801 Y506.169
N10490G01 X195.8 Y506.168
N10500G01 X195.831 Y506.133
N10510G01 X195.906 Y506.033
N10520G01 X197.703 Y503.373
N10530G01 X197.775 Y503.254
N10540G01 X197.789 Y503.223
N10550G01 X197.791 Y503.223
N10560G01 X199.24 Y500.336
N10570G01 X199.238 Y500.336
N10580G01 X199.28 Y500.247
N10590G01 X199.307 Y500.173
N10600G01 X199.308 Y500.174
N10610G01 X200.38 Y497.088
N10620G01 X200.379 Y497.088
N10630G01 X200.397 Y497.037
N10640G01 X200.427 Y496.916
N10650G01 X201.092 Y493.662
N10660G01 X201.113 Y493.524
N10670G01 X201.115 Y493.482
N10680G01 X201.117 Y493.482
N10690G01 X201.345 Y490.09
N10700G01 X201.344 Y490.09
N10710G01 X201.348 Y489.999
N10720G01 X201.29 Y-0.391
N10730G01 X201.245 Y-0.516
N10740G01 X201.189 Y-0.636
N10750G01 X201.121 Y-0.75
N10760G01 X201.042 Y-0.856
N10770G01 X200.953 Y-0.954
N10780G01 X200.854 Y-1.043
N10790G01 X200.748 Y-1.122
N10800G01 X200.634 Y-1.19
N10810G01 X200.515 Y-1.247
N10820G01 X200.39 Y-1.291
N10830G01 X200.261 Y-1.324
N10840G01 X200.13 Y-1.343
N10850G01 X199.998 Y-1.349
N10860G01 X0
N10870G01 X-0.132 Y-1.343
N10880G01 X-0.263 Y-1.324
N10890G01 X-0.391 Y-1.291
N10900G01 X-0.516 Y-1.247
N10910G01 X-0.636 Y-1.19
N10920G01 X-0.75 Y-1.122
N10930G01 X-0.856 Y-1.043
N10940G01 X-0.954 Y-0.954
N10950G01 X-1.043 Y-0.856
N10960G01 X-1.122 Y-0.75
N10970G01 X-1.19 Y-0.636
N10980G01 X-1.247 Y-0.516
N10990G01 X-1.291 Y-0.391
N11000G01 X-1.324 Y-0.263
N11010G01 X-1.343 Y-0.132
N11020G01 X-1.349 Y0
N11030 G00 Z9.999
N11040 G00 X31.45 Y51.347
N11050G01 Z-8 F500
N11060G01 X168.547 F1000
N11070G01 Y338.648
N11080G01 X31.45 Y338.648
N11090G01 X31.45 Y51.347
N11100 G00 Z9.999
N11110 G00 X-1.349 Y0
N11120G01 Z-8 F500
N11130G01 X-1.349 Y340.044 F1000
N11140G01 X-1.293 Y341.692
N11150G01 X-1.291 Y341.692
N11160G01 X-1.287 Y341.778
N11170G01 X-1.123 Y343.414
N11180G01 X-1.11 Y343.501
N11190G01 X-1.111 Y343.501
N11200G01 X-0.841 Y345.115
N11210G01 X-0.84 Y345.115
N11220G01 X-0.834 Y345.156
N11230G01 X-0.823 Y345.201
N11240G01 X-0.824 Y345.201
N11250G01 X-0.451 Y346.79
N11260G01 X-0.45 Y346.79
N11270G01 X-0.429 Y346.873
N11280G01 X0.045 Y348.433
N11290G01 X0.074 Y348.515
N11300G01 X0.073 Y348.516
N11310G01 X0.663 Y350.081
N11320G01 X1.351 Y351.604
N11330G01 X1.352 Y351.603
N11340G01 X1.391 Y351.684
N11350G01 X2.157 Y353.122
N11360G01 X2.201 Y353.195
N11370G01 X2.199 Y353.196
N11380G01 X3.058 Y354.584
N11390G01 X3.059 Y354.583
N11400G01 X3.084 Y354.623
N11410G01 X3.108 Y354.656
N11420G01 X3.107 Y354.657
N11430G01 X4.057 Y355.989
N11440G01 X4.058 Y355.988
N11450G01 X4.111 Y356.059
N11460G01 X5.151 Y357.332
N11470G01 X5.209 Y357.396
N11480G01 X5.208 Y357.397
N11490G01 X6.365 Y358.636
N11500G01 X156.398 Y508.658
N11510G01 X157.603 Y509.787
N11520G01 X157.604 Y509.786
N11530G01 X157.669 Y509.846
N11540G01 X158.94 Y510.887
N11550G01 X159.011 Y510.94
N11560G01 X159.011 Y510.941
N11570G01 X160.376 Y511.918
N11580G01 X161.8 Y512.802
N11590G01 X161.801 Y512.801
N11600G01 X161.876 Y512.846
N11610G01 X163.312 Y513.613
N11620G01 X163.391 Y513.65
N11630G01 X163.391 Y513.652
N11640G01 X164.913 Y514.341
N11650G01 X166.475 Y514.93
N11660G01 X166.475 Y514.929
N11670G01 X166.559 Y514.959
N11680G01 X168.117 Y515.433
N11690G01 X168.2 Y515.454
N11700G01 X168.2 Y515.456
N11710G01 X169.833 Y515.838
N11720G01 X171.488 Y516.114
N11730G01 X171.488 Y516.113
N11740G01 X171.576 Y516.126
N11750G01 X173.21 Y516.29
N11760G01 X173.299 Y516.294
N11770G01 X173.299 Y516.295
N11780G01 X174.995 Y516.352
N11790G01 X175.085 Y516.348
N11800G01 X175.086 Y516.349
N11810G01 X178.478 Y516.121
N11820G01 X178.478 Y516.119
N11830G01 X178.52 Y516.117
N11840G01 X178.651 Y516.098
N11850G01 X181.911 Y515.432
N11860G01 X182.033 Y515.401
N11870G01 X182.084 Y515.383
N11880G01 X182.084 Y515.384
N11890G01 X185.17 Y514.312
N11900G01 X185.169 Y514.311
N11910G01 X185.243 Y514.284
N11920G01 X185.331 Y514.242
N11930G01 X185.332 Y514.244
N11940G01 X188.219 Y512.795
N11950G01 X188.219 Y512.793
N11960G01 X188.25 Y512.779
N11970G01 X188.369 Y512.707
N11980G01 X191.028 Y510.911
N11990G01 X191.129 Y510.835
N12000G01 X193.566 Y508.692
N12010G01 X193.565 Y508.69
N12020G01 X193.629 Y508.633
N12030G01 X193.686 Y508.569
N12040G01 X193.687 Y508.57
N12050G01 X195.801 Y506.169
N12060G01 X195.8 Y506.168
N12070G01 X195.831 Y506.133
N12080G01 X195.906 Y506.033
N12090G01 X197.703 Y503.373
N12100G01 X197.775 Y503.254
N12110G01 X197.789 Y503.223
N12120G01 X197.791 Y503.223
N12130G01 X199.24 Y500.336
N12140G01 X199.238 Y500.336
N12150G01 X199.28 Y500.247
N12160G01 X199.307 Y500.173
N12170G01 X199.308 Y500.174
N12180G01 X200.38 Y497.088
N12190G01 X200.379 Y497.088
N12200G01 X200.397 Y497.037
N12210G01 X200.427 Y496.916
N12220G01 X201.092 Y493.662
N12230G01 X201.113 Y493.524
N12240G01 X201.115 Y493.482
N12250G01 X201.117 Y493.482
N12260G01 X201.345 Y490.09
N12270G01 X201.344 Y490.09
N12280G01 X201.348 Y489.999
N12290G01 X201.29 Y-0.391
N12300G01 X201.245 Y-0.516
N12310G01 X201.189 Y-0.636
N12320G01 X201.121 Y-0.75
N12330G01 X201.042 Y-0.856
N12340G01 X200.953 Y-0.954
N12350G01 X200.854 Y-1.043
N12360G01 X200.748 Y-1.122
N12370G01 X200.634 Y-1.19
N12380G01 X200.515 Y-1.247
N12390G01 X200.39 Y-1.291
N12400G01 X200.261 Y-1.324
N12410G01 X200.13 Y-1.343
N12420G01 X199.998 Y-1.349
N12430G01 X0
N12440G01 X-0.132 Y-1.343
N12450G01 X-0.263 Y-1.324
N12460G01 X-0.391 Y-1.291
N12470G01 X-0.516 Y-1.247
N12480G01 X-0.636 Y-1.19
N12490G01 X-0.75 Y-1.122
N12500G01 X-0.856 Y-1.043
N12510G01 X-0.954 Y-0.954
N12520G01 X-1.043 Y-0.856
N12530G01 X-1.122 Y-0.75
N12540G01 X-1.19 Y-0.636
N12550G01 X-1.247 Y-0.516
N12560G01 X-1.291 Y-0.391
N12570G01 X-1.324 Y-0.263
N12580G01 X-1.343 Y-0.132
N12590G01 X-1.349 Y0
N12600 G00 Z9.999
N12610 G00 X31.45 Y51.347
N12620G01 Z-9 F500
N12630G01 X168.547 F1000
N12640G01 Y338.648
N12650G01 X31.45 Y338.648
N12660G01 X31.45 Y51.347
N12670 G00 Z9.999
N12680 G00 X-1.349 Y0
N12690G01 Z-9 F500
N12700G01 X-1.349 Y340.044 F1000
N12710G01 X-1.293 Y341.692
N12720G01 X-1.291 Y341.692
N12730G01 X-1.287 Y341.778
N12740G01 X-1.123 Y343.414
N12750G01 X-1.11 Y343.501
N12760G01 X-1.111 Y343.501
N12770G01 X-0.841 Y345.115
N12780G01 X-0.84 Y345.115
N12790G01 X-0.834 Y345.156
N12800G01 X-0.823 Y345.201
N12810G01 X-0.824 Y345.201
N12820G01 X-0.451 Y346.79
N12830G01 X-0.45 Y346.79
N12840G01 X-0.429 Y346.873
N12850G01 X0.045 Y348.433
N12860G01 X0.074 Y348.515
N12870G01 X0.073 Y348.516
N12880G01 X0.663 Y350.081
N12890G01 X1.351 Y351.604
N12900G01 X1.352 Y351.603
N12910G01 X1.391 Y351.684
N12920G01 X2.157 Y353.122
N12930G01 X2.201 Y353.195
N12940G01 X2.199 Y353.196
N12950G01 X3.058 Y354.584
N12960G01 X3.059 Y354.583
N12970G01 X3.084 Y354.623
N12980G01 X3.108 Y354.656
N12990G01 X3.107 Y354.657
N13000G01 X4.057 Y355.989
N13010G01 X4.058 Y355.988
N13020G01 X4.111 Y356.059
N13030G01 X5.151 Y357.332
N13040G01 X5.209 Y357.396
N13050G01 X5.208 Y357.397
N13060G01 X6.365 Y358.636
N13070G01 X156.398 Y508.658
N13080G01 X157.603 Y509.787
N13090G01 X157.604 Y509.786
N13100G01 X157.669 Y509.846
N13110G01 X158.94 Y510.887
N13120G01 X159.011 Y510.94
N13130G01 X159.011 Y510.941
N13140G01 X160.376 Y511.918
N13150G01 X161.8 Y512.802
N13160G01 X161.801 Y512.801
N13170G01 X161.876 Y512.846
N13180G01 X163.312 Y513.613
N13190G01 X163.391 Y513.65
N13200G01 X163.391 Y513.652
N13210G01 X164.913 Y514.341
N13220G01 X166.475 Y514.93
N13230G01 X166.475 Y514.929
N13240G01 X166.559 Y514.959
N13250G01 X168.117 Y515.433
N13260G01 X168.2 Y515.454
N13270G01 X168.2 Y515.456
N13280G01 X169.833 Y515.838
N13290G01 X171.488 Y516.114
N13300G01 X171.488 Y516.113
N13310G01 X171.576 Y516.126
N13320G01 X173.21 Y516.29
N13330G01 X173.299 Y516.294
N13340G01 X173.299 Y516.295
N13350G01 X174.995 Y516.352
N13360G01 X175.085 Y516.348
N13370G01 X175.086 Y516.349
N13380G01 X178.478 Y516.121
N13390G01 X178.478 Y516.119
N13400G01 X178.52 Y516.117
N13410G01 X178.651 Y516.098
N13420G01 X181.911 Y515.432
N13430G01 X182.033 Y515.401
N13440G01 X182.084 Y515.383
N13450G01 X182.084 Y515.384
N13460G01 X185.17 Y514.312
N13470G01 X185.169 Y514.311
N13480G01 X185.243 Y514.284
N13490G01 X185.331 Y514.242
N13500G01 X185.332 Y514.244
N13510G01 X188.219 Y512.795
N13520G01 X188.219 Y512.793
N13530G01 X188.25 Y512.779
N13540G01 X188.369 Y512.707
N13550G01 X191.028 Y510.911
N13560G01 X191.129 Y510.835
N13570G01 X193.566 Y508.692
N13580G01 X193.565 Y508.69
N13590G01 X193.629 Y508.633
N13600G01 X193.686 Y508.569
N13610G01 X193.687 Y508.57
N13620G01 X195.801 Y506.169
N13630G01 X195.8 Y506.168
N13640G01 X195.831 Y506.133
N13650G01 X195.906 Y506.033
N13660G01 X197.703 Y503.373
N13670G01 X197.775 Y503.254
N13680G01 X197.789 Y503.223
N13690G01 X197.791 Y503.223
N13700G01 X199.24 Y500.336
N13710G01 X199.238 Y500.336
N13720G01 X199.28 Y500.247
N13730G01 X199.307 Y500.173
N13740G01 X199.308 Y500.174
N13750G01 X200.38 Y497.088
N13760G01 X200.379 Y497.088
N13770G01 X200.397 Y497.037
N13780G01 X200.427 Y496.916
N13790G01 X201.092 Y493.662
N13800G01 X201.113 Y493.524
N13810G01 X201.115 Y493.482
N13820G01 X201.117 Y493.482
N13830G01 X201.345 Y490.09
N13840G01 X201.344 Y490.09
N13850G01 X201.348 Y489.999
N13860G01 X201.29 Y-0.391
N13870G01 X201.245 Y-0.516
N13880G01 X201.189 Y-0.636
N13890G01 X201.121 Y-0.75
N13900G01 X201.042 Y-0.856
N13910G01 X200.953 Y-0.954
N13920G01 X200.854 Y-1.043
N13930G01 X200.748 Y-1.122
N13940G01 X200.634 Y-1.19
N13950G01 X200.515 Y-1.247
N13960G01 X200.39 Y-1.291
N13970G01 X200.261 Y-1.324
N13980G01 X200.13 Y-1.343
N13990G01 X199.998 Y-1.349
N14000G01 X0
N14010G01 X-0.132 Y-1.343
N14020G01 X-0.263 Y-1.324
N14030G01 X-0.391 Y-1.291
N14040G01 X-0.516 Y-1.247
N14050G01 X-0.636 Y-1.19
N14060G01 X-0.75 Y-1.122
N14070G01 X-0.856 Y-1.043
N14080G01 X-0.954 Y-0.954
N14090G01 X-1.043 Y-0.856
N14100G01 X-1.122 Y-0.75
N14110G01 X-1.19 Y-0.636
N14120G01 X-1.247 Y-0.516
N14130G01 X-1.291 Y-0.391
N14140G01 X-1.324 Y-0.263
N14150G01 X-1.343 Y-0.132
N14160G01 X-1.349 Y0
N14170 G00 Z9.999
N14180 G00 X31.45 Y51.347
N14190G01 Z-10 F500
N14200G01 X168.547 F1000
N14210G01 Y338.648
N14220G01 X31.45 Y338.648
N14230G01 X31.45 Y51.347
N14240 G00 Z9.999
N14250 G00 X-1.349 Y0
N14260G01 Z-10 F500
N14270G01 X-1.349 Y340.044 F1000
N14280G01 X-1.293 Y341.692
N14290G01 X-1.291 Y341.692
N14300G01 X-1.287 Y341.778
N14310G01 X-1.123 Y343.414
N14320G01 X-1.11 Y343.501
N14330G01 X-1.111 Y343.501
N14340G01 X-0.841 Y345.115
N14350G01 X-0.84 Y345.115
N14360G01 X-0.834 Y345.156
N14370G01 X-0.823 Y345.201
N14380G01 X-0.824 Y345.201
N14390G01 X-0.451 Y346.79
N14400G01 X-0.45 Y346.79
N14410G01 X-0.429 Y346.873
N14420G01 X0.045 Y348.433
N14430G01 X0.074 Y348.515
N14440G01 X0.073 Y348.516
N14450G01 X0.663 Y350.081
N14460G01 X1.351 Y351.604
N14470G01 X1.352 Y351.603
N14480G01 X1.391 Y351.684
N14490G01 X2.157 Y353.122
N14500G01 X2.201 Y353.195
N14510G01 X2.199 Y353.196
N14520G01 X3.058 Y354.584
N14530G01 X3.059 Y354.583
N14540G01 X3.084 Y354.623
N14550G01 X3.108 Y354.656
N14560G01 X3.107 Y354.657
N14570G01 X4.057 Y355.989
N14580G01 X4.058 Y355.988
N14590G01 X4.111 Y356.059
N14600G01 X5.151 Y357.332
N14610G01 X5.209 Y357.396
N14620G01 X5.208 Y357.397
N14630G01 X6.365 Y358.636
N14640G01 X156.398 Y508.658
N14650G01 X157.603 Y509.787
N14660G01 X157.604 Y509.786
N14670G01 X157.669 Y509.846
N14680G01 X158.94 Y510.887
N14690G01 X159.011 Y510.94
N14700G01 X159.011 Y510.941
N14710G01 X160.376 Y511.918
N14720G01 X161.8 Y512.802
N14730G01 X161.801 Y512.801
N14740G01 X161.876 Y512.846
N14750G01 X163.312 Y513.613
N14760G01 X163.391 Y513.65
N14770G01 X163.391 Y513.652
N14780G01 X164.913 Y514.341
N14790G01 X166.475 Y514.93
N14800G01 X166.475 Y514.929
N14810G01 X166.559 Y514.959
N14820G01 X168.117 Y515.433
N14830G01 X168.2 Y515.454
N14840G01 X168.2 Y515.456
N14850G01 X169.833 Y515.838
N14860G01 X171.488 Y516.114
N14870G01 X171.488 Y516.113
N14880G01 X171.576 Y516.126
N14890G01 X173.21 Y516.29
N14900G01 X173.299 Y516.294
N14910G01 X173.299 Y516.295
N14920G01 X174.995 Y516.352
N14930G01 X175.085 Y516.348
N14940G01 X175.086 Y516.349
N14950G01 X178.478 Y516.121
N14960G01 X178.478 Y516.119
N14970G01 X178.52 Y516.117
N14980G01 X178.651 Y516.098
N14990G01 X181.911 Y515.432
N15000G01 X182.033 Y515.401
N15010G01 X182.084 Y515.383
N15020G01 X182.084 Y515.384
N15030G01 X185.17 Y514.312
N15040G01 X185.169 Y514.311
N15050G01 X185.243 Y514.284
N15060G01 X185.331 Y514.242
N15070G01 X185.332 Y514.244
N15080G01 X188.219 Y512.795
N15090G01 X188.219 Y512.793
N15100G01 X188.25 Y512.779
N15110G01 X188.369 Y512.707
N15120G01 X191.028 Y510.911
N15130G01 X191.129 Y510.835
N15140G01 X193.566 Y508.692
N15150G01 X193.565 Y508.69
N15160G01 X193.629 Y508.633
N15170G01 X193.686 Y508.569
N15180G01 X193.687 Y508.57
N15190G01 X195.801 Y506.169
N15200G01 X195.8 Y506.168
N15210G01 X195.831 Y506.133
N15220G01 X195.906 Y506.033
N15230G01 X197.703 Y503.373
N15240G01 X197.775 Y503.254
N15250G01 X197.789 Y503.223
N15260G01 X197.791 Y503.223
N15270G01 X199.24 Y500.336
N15280G01 X199.238 Y500.336
N15290G01 X199.28 Y500.247
N15300G01 X199.307 Y500.173
N15310G01 X199.308 Y500.174
N15320G01 X200.38 Y497.088
N15330G01 X200.379 Y497.088
N15340G01 X200.397 Y497.037
N15350G01 X200.427 Y496.916
N15360G01 X201.092 Y493.662
N15370G01 X201.113 Y493.524
N15380G01 X201.115 Y493.482
N15390G01 X201.117 Y493.482
N15400G01 X201.345 Y490.09
N15410G01 X201.344 Y490.09
N15420G01 X201.348 Y489.999
N15430G01 X201.29 Y-0.391
N15440G01 X201.245 Y-0.516
N15450G01 X201.189 Y-0.636
N15460G01 X201.121 Y-0.75
N15470G01 X201.042 Y-0.856
N15480G01 X200.953 Y-0.954
N15490G01 X200.854 Y-1.043
N15500G01 X200.748 Y-1.122
N15510G01 X200.634 Y-1.19
N15520G01 X200.515 Y-1.247
N15530G01 X200.39 Y-1.291
N15540G01 X200.261 Y-1.324
N15550G01 X200.13 Y-1.343
N15560G01 X199.998 Y-1.349
N15570G01 X0
N15580G01 X-0.132 Y-1.343
N15590G01 X-0.263 Y-1.324
N15600G01 X-0.391 Y-1.291
N15610G01 X-0.516 Y-1.247
N15620G01 X-0.636 Y-1.19
N15630G01 X-0.75 Y-1.122
N15640G01 X-0.856 Y-1.043
N15650G01 X-0.954 Y-0.954
N15660G01 X-1.043 Y-0.856
N15670G01 X-1.122 Y-0.75
N15680G01 X-1.19 Y-0.636
N15690G01 X-1.247 Y-0.516
N15700G01 X-1.291 Y-0.391
N15710G01 X-1.324 Y-0.263
N15720G01 X-1.343 Y-0.132
N15730G01 X-1.349 Y0
N15740 G00 Z9.999
N15750 G00 X31.45 Y51.347
N15760G01 Z-11 F500
N15770G01 X168.547 F1000
N15780G01 Y338.648
N15790G01 X31.45 Y338.648
N15800G01 X31.45 Y51.347
N15810 G00 Z9.999
N15820 G00 X-1.349 Y0
N15830G01 Z-11 F500
N15840G01 X-1.349 Y340.044 F1000
N15850G01 X-1.293 Y341.692
N15860G01 X-1.291 Y341.692
N15870G01 X-1.287 Y341.778
N15880G01 X-1.123 Y343.414
N15890G01 X-1.11 Y343.501
N15900G01 X-1.111 Y343.501
N15910G01 X-0.841 Y345.115
N15920G01 X-0.84 Y345.115
N15930G01 X-0.834 Y345.156
N15940G01 X-0.823 Y345.201
N15950G01 X-0.824 Y345.201
N15960G01 X-0.451 Y346.79
N15970G01 X-0.45 Y346.79
N15980G01 X-0.429 Y346.873
N15990G01 X0.045 Y348.433
N16000G01 X0.074 Y348.515
N16010G01 X0.073 Y348.516
N16020G01 X0.663 Y350.081
N16030G01 X1.351 Y351.604
N16040G01 X1.352 Y351.603
N16050G01 X1.391 Y351.684
N16060G01 X2.157 Y353.122
N16070G01 X2.201 Y353.195
N16080G01 X2.199 Y353.196
N16090G01 X3.058 Y354.584
N16100G01 X3.059 Y354.583
N16110G01 X3.084 Y354.623
N16120G01 X3.108 Y354.656
N16130G01 X3.107 Y354.657
N16140G01 X4.057 Y355.989
N16150G01 X4.058 Y355.988
N16160G01 X4.111 Y356.059
N16170G01 X5.151 Y357.332
N16180G01 X5.209 Y357.396
N16190G01 X5.208 Y357.397
N16200G01 X6.365 Y358.636
N16210G01 X156.398 Y508.658
N16220G01 X157.603 Y509.787
N16230G01 X157.604 Y509.786
N16240G01 X157.669 Y509.846
N16250G01 X158.94 Y510.887
N16260G01 X159.011 Y510.94
N16270G01 X159.011 Y510.941
N16280G01 X160.376 Y511.918
N16290G01 X161.8 Y512.802
N16300G01 X161.801 Y512.801
N16310G01 X161.876 Y512.846
N16320G01 X163.312 Y513.613
N16330G01 X163.391 Y513.65
N16340G01 X163.391 Y513.652
N16350G01 X164.913 Y514.341
N16360G01 X166.475 Y514.93
N16370G01 X166.475 Y514.929
N16380G01 X166.559 Y514.959
N16390G01 X168.117 Y515.433
N16400G01 X168.2 Y515.454
N16410G01 X168.2 Y515.456
N16420G01 X169.833 Y515.838
N16430G01 X171.488 Y516.114
N16440G01 X171.488 Y516.113
N16450G01 X171.576 Y516.126
N16460G01 X173.21 Y516.29
N16470G01 X173.299 Y516.294
N16480G01 X173.299 Y516.295
N16490G01 X174.995 Y516.352
N16500G01 X175.085 Y516.348
N16510G01 X175.086 Y516.349
N16520G01 X178.478 Y516.121
N16530G01 X178.478 Y516.119
N16540G01 X178.52 Y516.117
N16550G01 X178.651 Y516.098
N16560G01 X181.911 Y515.432
N16570G01 X182.033 Y515.401
N16580G01 X182.084 Y515.383
N16590G01 X182.084 Y515.384
N16600G01 X185.17 Y514.312
N16610G01 X185.169 Y514.311
N16620G01 X185.243 Y514.284
N16630G01 X185.331 Y514.242
N16640G01 X185.332 Y514.244
N16650G01 X188.219 Y512.795
N16660G01 X188.219 Y512.793
N16670G01 X188.25 Y512.779
N16680G01 X188.369 Y512.707
N16690G01 X191.028 Y510.911
N16700G01 X191.129 Y510.835
N16710G01 X193.566 Y508.692
N16720G01 X193.565 Y508.69
N16730G01 X193.629 Y508.633
N16740G01 X193.686 Y508.569
N16750G01 X193.687 Y508.57
N16760G01 X195.801 Y506.169
N16770G01 X195.8 Y506.168
N16780G01 X195.831 Y506.133
N16790G01 X195.906 Y506.033
N16800G01 X197.703 Y503.373
N16810G01 X197.775 Y503.254
N16820G01 X197.789 Y503.223
N16830G01 X197.791 Y503.223
N16840G01 X199.24 Y500.336
N16850G01 X199.238 Y500.336
N16860G01 X199.28 Y500.247
N16870G01 X199.307 Y500.173
N16880G01 X199.308 Y500.174
N16890G01 X200.38 Y497.088
N16900G01 X200.379 Y497.088
N16910G01 X200.397 Y497.037
N16920G01 X200.427 Y496.916
N16930G01 X201.092 Y493.662
N16940G01 X201.113 Y493.524
N16950G01 X201.115 Y493.482
N16960G01 X201.117 Y493.482
N16970G01 X201.345 Y490.09
N16980G01 X201.344 Y490.09
N16990G01 X201.348 Y489.999
N17000G01 X201.29 Y-0.391
N17010G01 X201.245 Y-0.516
N17020G01 X201.189 Y-0.636
N17030G01 X201.121 Y-0.75
N17040G01 X201.042 Y-0.856
N17050G01 X200.953 Y-0.954
N17060G01 X200.854 Y-1.043
N17070G01 X200.748 Y-1.122
N17080G01 X200.634 Y-1.19
N17090G01 X200.515 Y-1.247
N17100G01 X200.39 Y-1.291
N17110G01 X200.261 Y-1.324
N17120G01 X200.13 Y-1.343
N17130G01 X199.998 Y-1.349
N17140G01 X0
N17150G01 X-0.132 Y-1.343
N17160G01 X-0.263 Y-1.324
N17170G01 X-0.391 Y-1.291
N17180G01 X-0.516 Y-1.247
N17190G01 X-0.636 Y-1.19
N17200G01 X-0.75 Y-1.122
N17210G01 X-0.856 Y-1.043
N17220G01 X-0.954 Y-0.954
N17230G01 X-1.043 Y-0.856
N17240G01 X-1.122 Y-0.75
N17250G01 X-1.19 Y-0.636
N17260G01 X-1.247 Y-0.516
N17270G01 X-1.291 Y-0.391
N17280G01 X-1.324 Y-0.263
N17290G01 X-1.343 Y-0.132
N17300G01 X-1.349 Y0
N17310 G00 Z9.999
N17320 G00 X31.45 Y51.347
N17330G01 Z-12 F500
N17340G01 X168.547 F1000
N17350G01 Y338.648
N17360G01 X31.45 Y338.648
N17370G01 X31.45 Y51.347
N17380 G00 Z9.999
N17390 G00 X-1.349 Y0
N17400G01 Z-12 F500
N17410G01 X-1.349 Y340.044 F1000
N17420G01 X-1.293 Y341.692
N17430G01 X-1.291 Y341.692
N17440G01 X-1.287 Y341.778
N17450G01 X-1.123 Y343.414
N17460G01 X-1.11 Y343.501
N17470G01 X-1.111 Y343.501
N17480G01 X-0.841 Y345.115
N17490G01 X-0.84 Y345.115
N17500G01 X-0.834 Y345.156
N17510G01 X-0.823 Y345.201
N17520G01 X-0.824 Y345.201
N17530G01 X-0.451 Y346.79
N17540G01 X-0.45 Y346.79
N17550G01 X-0.429 Y346.873
N17560G01 X0.045 Y348.433
N17570G01 X0.074 Y348.515
N17580G01 X0.073 Y348.516
N17590G01 X0.663 Y350.081
N17600G01 X1.351 Y351.604
N17610G01 X1.352 Y351.603
N17620G01 X1.391 Y351.684
N17630G01 X2.157 Y353.122
N17640G01 X2.201 Y353.195
N17650G01 X2.199 Y353.196
N17660G01 X3.058 Y354.584
N17670G01 X3.059 Y354.583
N17680G01 X3.084 Y354.623
N17690G01 X3.108 Y354.656
N17700G01 X3.107 Y354.657
N17710G01 X4.057 Y355.989
N17720G01 X4.058 Y355.988
N17730G01 X4.111 Y356.059
N17740G01 X5.151 Y357.332
N17750G01 X5.209 Y357.396
N17760G01 X5.208 Y357.397
N17770G01 X6.365 Y358.636
N17780G01 X156.398 Y508.658
N17790G01 X157.603 Y509.787
N17800G01 X157.604 Y509.786
N17810G01 X157.669 Y509.846
N17820G01 X158.94 Y510.887
N17830G01 X159.011 Y510.94
N17840G01 X159.011 Y510.941
N17850G01 X160.376 Y511.918
N17860G01 X161.8 Y512.802
N17870G01 X161.801 Y512.801
N17880G01 X161.876 Y512.846
N17890G01 X163.312 Y513.613
N17900G01 X163.391 Y513.65
N17910G01 X163.391 Y513.652
N17920G01 X164.913 Y514.341
N17930G01 X166.475 Y514.93
N17940G01 X166.475 Y514.929
N17950G01 X166.559 Y514.959
N17960G01 X168.117 Y515.433
N17970G01 X168.2 Y515.454
N17980G01 X168.2 Y515.456
N17990G01 X169.833 Y515.838
N18000G01 X171.488 Y516.114
N18010G01 X171.488 Y516.113
N18020G01 X171.576 Y516.126
N18030G01 X173.21 Y516.29
N18040G01 X173.299 Y516.294
N18050G01 X173.299 Y516.295
N18060G01 X174.995 Y516.352
N18070G01 X175.085 Y516.348
N18080G01 X175.086 Y516.349
N18090G01 X178.478 Y516.121
N18100G01 X178.478 Y516.119
N18110G01 X178.52 Y516.117
N18120G01 X178.651 Y516.098
N18130G01 X181.911 Y515.432
N18140G01 X182.033 Y515.401
N18150G01 X182.084 Y515.383
N18160G01 X182.084 Y515.384
N18170G01 X185.17 Y514.312
N18180G01 X185.169 Y514.311
N18190G01 X185.243 Y514.284
N18200G01 X185.331 Y514.242
N18210G01 X185.332 Y514.244
N18220G01 X188.219 Y512.795
N18230G01 X188.219 Y512.793
N18240G01 X188.25 Y512.779
N18250G01 X188.369 Y512.707
N18260G01 X191.028 Y510.911
N18270G01 X191.129 Y510.835
N18280G01 X193.566 Y508.692
N18290G01 X193.565 Y508.69
N18300G01 X193.629 Y508.633
N18310G01 X193.686 Y508.569
N18320G01 X193.687 Y508.57
N18330G01 X195.801 Y506.169
N18340G01 X195.8 Y506.168
N18350G01 X195.831 Y506.133
N18360G01 X195.906 Y506.033
N18370G01 X197.703 Y503.373
N18380G01 X197.775 Y503.254
N18390G01 X197.789 Y503.223
N18400G01 X197.791 Y503.223
N18410G01 X199.24 Y500.336
N18420G01 X199.238 Y500.336
N18430G01 X199.28 Y500.247
N18440G01 X199.307 Y500.173
N18450G01 X199.308 Y500.174
N18460G01 X200.38 Y497.088
N18470G01 X200.379 Y497.088
N18480G01 X200.397 Y497.037
N18490G01 X200.427 Y496.916
N18500G01 X201.092 Y493.662
N18510G01 X201.113 Y493.524
N18520G01 X201.115 Y493.482
N18530G01 X201.117 Y493.482
N18540G01 X201.345 Y490.09
N18550G01 X201.344 Y490.09
N18560G01 X201.348 Y489.999
N18570G01 X201.29 Y-0.391
N18580G01 X201.245 Y-0.516
N18590G01 X201.189 Y-0.636
N18600G01 X201.121 Y-0.75
N18610G01 X201.042 Y-0.856
N18620G01 X200.953 Y-0.954
N18630G01 X200.854 Y-1.043
N18640G01 X200.748 Y-1.122
N18650G01 X200.634 Y-1.19
N18660G01 X200.515 Y-1.247
N18670G01 X200.39 Y-1.291
N18680G01 X200.261 Y-1.324
N18690G01 X200.13 Y-1.343
N18700G01 X199.998 Y-1.349
N18710G01 X0
N18720G01 X-0.132 Y-1.343
N18730G01 X-0.263 Y-1.324
N18740G01 X-0.391 Y-1.291
N18750G01 X-0.516 Y-1.247
N18760G01 X-0.636 Y-1.19
N18770G01 X-0.75 Y-1.122
N18780G01 X-0.856 Y-1.043
N18790G01 X-0.954 Y-0.954
N18800G01 X-1.043 Y-0.856
N18810G01 X-1.122 Y-0.75
N18820G01 X-1.19 Y-0.636
N18830G01 X-1.247 Y-0.516
N18840G01 X-1.291 Y-0.391
N18850G01 X-1.324 Y-0.263
N18860G01 X-1.343 Y-0.132
N18870G01 X-1.349 Y0
N18880 G00 Z9.999
N18890 G00 X31.45 Y51.347
N18900G01 Z-13 F500
N18910G01 X168.547 F1000
N18920G01 Y338.648
N18930G01 X31.45 Y338.648
N18940G01 X31.45 Y51.347
N18950 G00 Z9.999
N18960 G00 X-1.349 Y0
N18970G01 Z-13 F500
N18980G01 X-1.349 Y340.044 F1000
N18990G01 X-1.293 Y341.692
N19000G01 X-1.291 Y341.692
N19010G01 X-1.287 Y341.778
N19020G01 X-1.123 Y343.414
N19030G01 X-1.11 Y343.501
N19040G01 X-1.111 Y343.501
N19050G01 X-0.841 Y345.115
N19060G01 X-0.84 Y345.115
N19070G01 X-0.834 Y345.156
N19080G01 X-0.823 Y345.201
N19090G01 X-0.824 Y345.201
N19100G01 X-0.451 Y346.79
N19110G01 X-0.45 Y346.79
N19120G01 X-0.429 Y346.873
N19130G01 X0.045 Y348.433
N19140G01 X0.074 Y348.515
N19150G01 X0.073 Y348.516
N19160G01 X0.663 Y350.081
N19170G01 X1.351 Y351.604
N19180G01 X1.352 Y351.603
N19190G01 X1.391 Y351.684
N19200G01 X2.157 Y353.122
N19210G01 X2.201 Y353.195
N19220G01 X2.199 Y353.196
N19230G01 X3.058 Y354.584
N19240G01 X3.059 Y354.583
N19250G01 X3.084 Y354.623
N19260G01 X3.108 Y354.656
N19270G01 X3.107 Y354.657
N19280G01 X4.057 Y355.989
N19290G01 X4.058 Y355.988
N19300G01 X4.111 Y356.059
N19310G01 X5.151 Y357.332
N19320G01 X5.209 Y357.396
N19330G01 X5.208 Y357.397
N19340G01 X6.365 Y358.636
N19350G01 X156.398 Y508.658
N19360G01 X157.603 Y509.787
N19370G01 X157.604 Y509.786
N19380G01 X157.669 Y509.846
N19390G01 X158.94 Y510.887
N19400G01 X159.011 Y510.94
N19410G01 X159.011 Y510.941
N19420G01 X160.376 Y511.918
N19430G01 X161.8 Y512.802
N19440G01 X161.801 Y512.801
N19450G01 X161.876 Y512.846
N19460G01 X163.312 Y513.613
N19470G01 X163.391 Y513.65
N19480G01 X163.391 Y513.652
N19490G01 X164.913 Y514.341
N19500G01 X166.475 Y514.93
N19510G01 X166.475 Y514.929
N19520G01 X166.559 Y514.959
N19530G01 X168.117 Y515.433
N19540G01 X168.2 Y515.454
N19550G01 X168.2 Y515.456
N19560G01 X169.833 Y515.838
N19570G01 X171.488 Y516.114
N19580G01 X171.488 Y516.113
N19590G01 X171.576 Y516.126
N19600G01 X173.21 Y516.29
N19610G01 X173.299 Y516.294
N19620G01 X173.299 Y516.295
N19630G01 X174.995 Y516.352
N19640G01 X175.085 Y516.348
N19650G01 X175.086 Y516.349
N19660G01 X178.478 Y516.121
N19670G01 X178.478 Y516.119
N19680G01 X178.52 Y516.117
N19690G01 X178.651 Y516.098
N19700G01 X181.911 Y515.432
N19710G01 X182.033 Y515.401
N19720G01 X182.084 Y515.383
N19730G01 X182.084 Y515.384
N19740G01 X185.17 Y514.312
N19750G01 X185.169 Y514.311
N19760G01 X185.243 Y514.284
N19770G01 X185.331 Y514.242
N19780G01 X185.332 Y514.244
N19790G01 X188.219 Y512.795
N19800G01 X188.219 Y512.793
N19810G01 X188.25 Y512.779
N19820G01 X188.369 Y512.707
N19830G01 X191.028 Y510.911
N19840G01 X191.129 Y510.835
N19850G01 X193.566 Y508.692
N19860G01 X193.565 Y508.69
N19870G01 X193.629 Y508.633
N19880G01 X193.686 Y508.569
N19890G01 X193.687 Y508.57
N19900G01 X195.801 Y506.169
N19910G01 X195.8 Y506.168
N19920G01 X195.831 Y506.133
N19930G01 X195.906 Y506.033
N19940G01 X197.703 Y503.373
N19950G01 X197.775 Y503.254
N19960G01 X197.789 Y503.223
N19970G01 X197.791 Y503.223
N19980G01 X199.24 Y500.336
N19990G01 X199.238 Y500.336
N20000G01 X199.28 Y500.247
N20010G01 X199.307 Y500.173
N20020G01 X199.308 Y500.174
N20030G01 X200.38 Y497.088
N20040G01 X200.379 Y497.088
N20050G01 X200.397 Y497.037
N20060G01 X200.427 Y496.916
N20070G01 X201.092 Y493.662
N20080G01 X201.113 Y493.524
N20090G01 X201.115 Y493.482
N20100G01 X201.117 Y493.482
N20110G01 X201.345 Y490.09
N20120G01 X201.344 Y490.09
N20130G01 X201.348 Y489.999
N20140G01 X201.29 Y-0.391
N20150G01 X201.245 Y-0.516
N20160G01 X201.189 Y-0.636
N20170G01 X201.121 Y-0.75
N20180G01 X201.042 Y-0.856
N20190G01 X200.953 Y-0.954
N20200G01 X200.854 Y-1.043
N20210G01 X200.748 Y-1.122
N20220G01 X200.634 Y-1.19
N20230G01 X200.515 Y-1.247
N20240G01 X200.39 Y-1.291
N20250G01 X200.261 Y-1.324
N20260G01 X200.13 Y-1.343
N20270G01 X199.998 Y-1.349
N20280G01 X0
N20290G01 X-0.132 Y-1.343
N20300G01 X-0.263 Y-1.324
N20310G01 X-0.391 Y-1.291
N20320G01 X-0.516 Y-1.247
N20330G01 X-0.636 Y-1.19
N20340G01 X-0.75 Y-1.122
N20350G01 X-0.856 Y-1.043
N20360G01 X-0.954 Y-0.954
N20370G01 X-1.043 Y-0.856
N20380G01 X-1.122 Y-0.75
N20390G01 X-1.19 Y-0.636
N20400G01 X-1.247 Y-0.516
N20410G01 X-1.291 Y-0.391
N20420G01 X-1.324 Y-0.263
N20430G01 X-1.343 Y-0.132
N20440G01 X-1.349 Y0
N20450 G00 Z9.999
N20460 G00 X31.45 Y51.347
N20470G01 Z-14 F500
N20480G01 X168.547 F1000
N20490G01 Y338.648
N20500G01 X31.45 Y338.648
N20510G01 X31.45 Y51.347
N20520 G00 Z9.999
N20530 G00 X-1.349 Y0
N20540G01 Z-14 F500
N20550G01 X-1.349 Y340.044 F1000
N20560G01 X-1.293 Y341.692
N20570G01 X-1.291 Y341.692
N20580G01 X-1.287 Y341.778
N20590G01 X-1.123 Y343.414
N20600G01 X-1.11 Y343.501
N20610G01 X-1.111 Y343.501
N20620G01 X-0.841 Y345.115
N20630G01 X-0.84 Y345.115
N20640G01 X-0.834 Y345.156
N20650G01 X-0.823 Y345.201
N20660G01 X-0.824 Y345.201
N20670G01 X-0.451 Y346.79
N20680G01 X-0.45 Y346.79
N20690G01 X-0.429 Y346.873
N20700G01 X0.045 Y348.433
N20710G01 X0.074 Y348.515
N20720G01 X0.073 Y348.516
N20730G01 X0.663 Y350.081
N20740G01 X1.351 Y351.604
N20750G01 X1.352 Y351.603
N20760G01 X1.391 Y351.684
N20770G01 X2.157 Y353.122
N20780G01 X2.201 Y353.195
N20790G01 X2.199 Y353.196
N20800G01 X3.058 Y354.584
N20810G01 X3.059 Y354.583
N20820G01 X3.084 Y354.623
N20830G01 X3.108 Y354.656
N20840G01 X3.107 Y354.657
N20850G01 X4.057 Y355.989
N20860G01 X4.058 Y355.988
N20870G01 X4.111 Y356.059
N20880G01 X5.151 Y357.332
N20890G01 X5.209 Y357.396
N20900G01 X5.208 Y357.397
N20910G01 X6.365 Y358.636
N20920G01 X156.398 Y508.658
N20930G01 X157.603 Y509.787
N20940G01 X157.604 Y509.786
N20950G01 X157.669 Y509.846
N20960G01 X158.94 Y510.887
N20970G01 X159.011 Y510.94
N20980G01 X159.011 Y510.941
N20990G01 X160.376 Y511.918
N21000G01 X161.8 Y512.802
N21010G01 X161.801 Y512.801
N21020G01 X161.876 Y512.846
N21030G01 X163.312 Y513.613
N21040G01 X163.391 Y513.65
N21050G01 X163.391 Y513.652
N21060G01 X164.913 Y514.341
N21070G01 X166.475 Y514.93
N21080G01 X166.475 Y514.929
N21090G01 X166.559 Y514.959
N21100G01 X168.117 Y515.433
N21110G01 X168.2 Y515.454
N21120G01 X168.2 Y515.456
N21130G01 X169.833 Y515.838
N21140G01 X171.488 Y516.114
N21150G01 X171.488 Y516.113
N21160G01 X171.576 Y516.126
N21170G01 X173.21 Y516.29
N21180G01 X173.299 Y516.294
N21190G01 X173.299 Y516.295
N21200G01 X174.995 Y516.352
N21210G01 X175.085 Y516.348
N21220G01 X175.086 Y516.349
N21230G01 X178.478 Y516.121
N21240G01 X178.478 Y516.119
N21250G01 X178.52 Y516.117
N21260G01 X178.651 Y516.098
N21270G01 X181.911 Y515.432
N21280G01 X182.033 Y515.401
N21290G01 X182.084 Y515.383
N21300G01 X182.084 Y515.384
N21310G01 X185.17 Y514.312
N21320G01 X185.169 Y514.311
N21330G01 X185.243 Y514.284
N21340G01 X185.331 Y514.242
N21350G01 X185.332 Y514.244
N21360G01 X188.219 Y512.795
N21370G01 X188.219 Y512.793
N21380G01 X188.25 Y512.779
N21390G01 X188.369 Y512.707
N21400G01 X191.028 Y510.911
N21410G01 X191.129 Y510.835
N21420G01 X193.566 Y508.692
N21430G01 X193.565 Y508.69
N21440G01 X193.629 Y508.633
N21450G01 X193.686 Y508.569
N21460G01 X193.687 Y508.57
N21470G01 X195.801 Y506.169
N21480G01 X195.8 Y506.168
N21490G01 X195.831 Y506.133
N21500G01 X195.906 Y506.033
N21510G01 X197.703 Y503.373
N21520G01 X197.775 Y503.254
N21530G01 X197.789 Y503.223
N21540G01 X197.791 Y503.223
N21550G01 X199.24 Y500.336
N21560G01 X199.238 Y500.336
N21570G01 X199.28 Y500.247
N21580G01 X199.307 Y500.173
N21590G01 X199.308 Y500.174
N21600G01 X200.38 Y497.088
N21610G01 X200.379 Y497.088
N21620G01 X200.397 Y497.037
N21630G01 X200.427 Y496.916
N21640G01 X201.092 Y493.662
N21650G01 X201.113 Y493.524
N21660G01 X201.115 Y493.482
N21670G01 X201.117 Y493.482
N21680G01 X201.345 Y490.09
N21690G01 X201.344 Y490.09
N21700G01 X201.348 Y489.999
N21710G01 X201.29 Y-0.391
N21720G01 X201.245 Y-0.516
N21730G01 X201.189 Y-0.636
N21740G01 X201.121 Y-0.75
N21750G01 X201.042 Y-0.856
N21760G01 X200.953 Y-0.954
N21770G01 X200.854 Y-1.043
N21780G01 X200.748 Y-1.122
N21790G01 X200.634 Y-1.19
N21800G01 X200.515 Y-1.247
N21810G01 X200.39 Y-1.291
N21820G01 X200.261 Y-1.324
N21830G01 X200.13 Y-1.343
N21840G01 X199.998 Y-1.349
N21850G01 X0
N21860G01 X-0.132 Y-1.343
N21870G01 X-0.263 Y-1.324
N21880G01 X-0.391 Y-1.291
N21890G01 X-0.516 Y-1.247
N21900G01 X-0.636 Y-1.19
N21910G01 X-0.75 Y-1.122
N21920G01 X-0.856 Y-1.043
N21930G01 X-0.954 Y-0.954
N21940G01 X-1.043 Y-0.856
N21950G01 X-1.122 Y-0.75
N21960G01 X-1.19 Y-0.636
N21970G01 X-1.247 Y-0.516
N21980G01 X-1.291 Y-0.391
N21990G01 X-1.324 Y-0.263
N22000G01 X-1.343 Y-0.132
N22010G01 X-1.349 Y0
N22020 G00 Z9.999
N22030 G00 X31.45 Y51.347
N22040G01 Z-15 F500
N22050G01 X168.547 F1000
N22060G01 Y338.648
N22070G01 X31.45 Y338.648
N22080G01 X31.45 Y51.347
N22090 G00 Z9.999
N22100 G00 X-1.349 Y0
N22110G01 Z-15 F500
N22120G01 X-1.349 Y340.044 F1000
N22130G01 X-1.293 Y341.692
N22140G01 X-1.291 Y341.692
N22150G01 X-1.287 Y341.778
N22160G01 X-1.123 Y343.414
N22170G01 X-1.11 Y343.501
N22180G01 X-1.111 Y343.501
N22190G01 X-0.841 Y345.115
N22200G01 X-0.84 Y345.115
N22210G01 X-0.834 Y345.156
N22220G01 X-0.823 Y345.201
N22230G01 X-0.824 Y345.201
N22240G01 X-0.451 Y346.79
N22250G01 X-0.45 Y346.79
N22260G01 X-0.429 Y346.873
N22270G01 X0.045 Y348.433
N22280G01 X0.074 Y348.515
N22290G01 X0.073 Y348.516
N22300G01 X0.663 Y350.081
N22310G01 X1.351 Y351.604
N22320G01 X1.352 Y351.603
N22330G01 X1.391 Y351.684
N22340G01 X2.157 Y353.122
N22350G01 X2.201 Y353.195
N22360G01 X2.199 Y353.196
N22370G01 X3.058 Y354.584
N22380G01 X3.059 Y354.583
N22390G01 X3.084 Y354.623
N22400G01 X3.108 Y354.656
N22410G01 X3.107 Y354.657
N22420G01 X4.057 Y355.989
N22430G01 X4.058 Y355.988
N22440G01 X4.111 Y356.059
N22450G01 X5.151 Y357.332
N22460G01 X5.209 Y357.396
N22470G01 X5.208 Y357.397
N22480G01 X6.365 Y358.636
N22490G01 X156.398 Y508.658
N22500G01 X157.603 Y509.787
N22510G01 X157.604 Y509.786
N22520G01 X157.669 Y509.846
N22530G01 X158.94 Y510.887
N22540G01 X159.011 Y510.94
N22550G01 X159.011 Y510.941
N22560G01 X160.376 Y511.918
N22570G01 X161.8 Y512.802
N22580G01 X161.801 Y512.801
N22590G01 X161.876 Y512.846
N22600G01 X163.312 Y513.613
N22610G01 X163.391 Y513.65
N22620G01 X163.391 Y513.652
N22630G01 X164.913 Y514.341
N22640G01 X166.475 Y514.93
N22650G01 X166.475 Y514.929
N22660G01 X166.559 Y514.959
N22670G01 X168.117 Y515.433
N22680G01 X168.2 Y515.454
N22690G01 X168.2 Y515.456
N22700G01 X169.833 Y515.838
N22710G01 X171.488 Y516.114
N22720G01 X171.488 Y516.113
N22730G01 X171.576 Y516.126
N22740G01 X173.21 Y516.29
N22750G01 X173.299 Y516.294
N22760G01 X173.299 Y516.295
N22770G01 X174.995 Y516.352
N22780G01 X175.085 Y516.348
N22790G01 X175.086 Y516.349
N22800G01 X178.478 Y516.121
N22810G01 X178.478 Y516.119
N22820G01 X178.52 Y516.117
N22830G01 X178.651 Y516.098
N22840G01 X181.911 Y515.432
N22850G01 X182.033 Y515.401
N22860G01 X182.084 Y515.383
N22870G01 X182.084 Y515.384
N22880G01 X185.17 Y514.312
N22890G01 X185.169 Y514.311
N22900G01 X185.243 Y514.284
N22910G01 X185.331 Y514.242
N22920G01 X185.332 Y514.244
N22930G01 X188.219 Y512.795
N22940G01 X188.219 Y512.793
N22950G01 X188.25 Y512.779
N22960G01 X188.369 Y512.707
N22970G01 X191.028 Y510.911
N22980G01 X191.129 Y510.835
N22990G01 X193.566 Y508.692
N23000G01 X193.565 Y508.69
N23010G01 X193.629 Y508.633
N23020G01 X193.686 Y508.569
N23030G01 X193.687 Y508.57
N23040G01 X195.801 Y506.169
N23050G01 X195.8 Y506.168
N23060G01 X195.831 Y506.133
N23070G01 X195.906 Y506.033
N23080G01 X197.703 Y503.373
N23090G01 X197.775 Y503.254
N23100G01 X197.789 Y503.223
N23110G01 X197.791 Y503.223
N23120G01 X199.24 Y500.336
N23130G01 X199.238 Y500.336
N23140G01 X199.28 Y500.247
N23150G01 X199.307 Y500.173
N23160G01 X199.308 Y500.174
N23170G01 X200.38 Y497.088
N23180G01 X200.379 Y497.088
N23190G01 X200.397 Y497.037
N23200G01 X200.427 Y496.916
N23210G01 X201.092 Y493.662
N23220G01 X201.113 Y493.524
N23230G01 X201.115 Y493.482
N23240G01 X201.117 Y493.482
N23250G01 X201.345 Y490.09
N23260G01 X201.344 Y490.09
N23270G01 X201.348 Y489.999
N23280G01 X201.29 Y-0.391
N23290G01 X201.245 Y-0.516
N23300G01 X201.189 Y-0.636
N23310G01 X201.121 Y-0.75
N23320G01 X201.042 Y-0.856
N23330G01 X200.953 Y-0.954
N23340G01 X200.854 Y-1.043
N23350G01 X200.748 Y-1.122
N23360G01 X200.634 Y-1.19
N23370G01 X200.515 Y-1.247
N23380G01 X200.39 Y-1.291
N23390G01 X200.261 Y-1.324
N23400G01 X200.13 Y-1.343
N23410G01 X199.998 Y-1.349
N23420G01 X0
N23430G01 X-0.132 Y-1.343
N23440G01 X-0.263 Y-1.324
N23450G01 X-0.391 Y-1.291
N23460G01 X-0.516 Y-1.247
N23470G01 X-0.636 Y-1.19
N23480G01 X-0.75 Y-1.122
N23490G01 X-0.856 Y-1.043
N23500G01 X-0.954 Y-0.954
N23510G01 X-1.043 Y-0.856
N23520G01 X-1.122 Y-0.75
N23530G01 X-1.19 Y-0.636
N23540G01 X-1.247 Y-0.516
N23550G01 X-1.291 Y-0.391
N23560G01 X-1.324 Y-0.263
N23570G01 X-1.343 Y-0.132
N23580G01 X-1.349 Y0
N23590 G00 Z9.999
N23600 G00 X31.45 Y51.347
N23610G01 Z-16 F500
N23620G01 X116.34 F1000
N23630G01 Z-15.399
N23640G01 X122.04
N23650G01 Z-16 F500
N23660G01 X168.547 F1000
N23670G01 Y168.899
N23680G01 Z-15.399
N23690G01 Y174.599
N23700G01 Z-16 F500
N23710G01 Y338.648 F1000
N23720G01 X168.537
N23730G01 Z-15.399
N23740G01 X162.837
N23750G01 Z-16 F500
N23760G01 X31.45 Y338.648 F1000
N23770G01 Y305.976
N23780G01 Z-15.399
N23790G01 Y300.276
N23800G01 Z-16 F500
N23810G01 X31.45 Y136.217 F1000
N23820G01 Z-15.399
N23830G01 Y130.517
N23840G01 Z-16 F500
N23850G01 X31.45 Y51.347 F1000
N23860 G00 Z9.999
N23870 G00 X-1.349 Y0
N23880G01 Z-16 F500
N23890G01 X-1.349 Y83.082 F1000
N23900G01 Z-15.399
N23910G01 X-1.349 Y88.782
N23920G01 Z-16 F500
N23930G01 X-1.349 Y249.227 F1000
N23940G01 Z-15.399
N23950G01 X-1.349 Y254.927
N23960G01 Z-16 F500
N23970G01 X-1.349 Y340.044 F1000
N23980G01 X-1.293 Y341.692
N23990G01 X-1.291 Y341.692
N24000G01 X-1.287 Y341.778
N24010G01 X-1.123 Y343.414
N24020G01 X-1.11 Y343.501
N24030G01 X-1.111 Y343.501
N24040G01 X-0.841 Y345.115
N24050G01 X-0.84 Y345.115
N24060G01 X-0.834 Y345.156
N24070G01 X-0.823 Y345.201
N24080G01 X-0.824 Y345.201
N24090G01 X-0.451 Y346.79
N24100G01 X-0.45 Y346.79
N24110G01 X-0.429 Y346.873
N24120G01 X0.045 Y348.433
N24130G01 X0.074 Y348.515
N24140G01 X0.073 Y348.516
N24150G01 X0.663 Y350.081
N24160G01 X1.351 Y351.604
N24170G01 X1.352 Y351.603
N24180G01 X1.391 Y351.684
N24190G01 X2.157 Y353.122
N24200G01 X2.201 Y353.195
N24210G01 X2.199 Y353.196
N24220G01 X3.058 Y354.584
N24230G01 X3.059 Y354.583
N24240G01 X3.084 Y354.623
N24250G01 X3.108 Y354.656
N24260G01 X3.107 Y354.657
N24270G01 X4.057 Y355.989
N24280G01 X4.058 Y355.988
N24290G01 X4.111 Y356.059
N24300G01 X5.151 Y357.332
N24310G01 X5.209 Y357.396
N24320G01 X5.208 Y357.397
N24330G01 X6.365 Y358.636
N24340G01 X45.021 Y397.289
N24350G01 Z-15.399
N24360G01 X49.051 Y401.319
N24370G01 Z-16 F500
N24380G01 X156.398 Y508.658 F1000
N24390G01 X157.603 Y509.787
N24400G01 X157.604 Y509.786
N24410G01 X157.669 Y509.846
N24420G01 X158.94 Y510.887
N24430G01 X159.011 Y510.94
N24440G01 X159.011 Y510.941
N24450G01 X160.376 Y511.918
N24460G01 X161.8 Y512.802
N24470G01 X161.801 Y512.801
N24480G01 X161.876 Y512.846
N24490G01 X163.312 Y513.613
N24500G01 X163.391 Y513.65
N24510G01 X163.391 Y513.652
N24520G01 X163.394 Y513.653
N24530G01 Z-15.399
N24540G01 X164.913 Y514.341
N24550G01 X166.475 Y514.93
N24560G01 X166.475 Y514.929
N24570G01 X166.559 Y514.959
N24580G01 X168.117 Y515.433
N24590G01 X168.2 Y515.454
N24600G01 X168.2 Y515.456
N24610G01 X168.742 Y515.582
N24620G01 Z-16 F500
N24630G01 X169.833 Y515.838 F1000
N24640G01 X171.488 Y516.114
N24650G01 X171.488 Y516.113
N24660G01 X171.576 Y516.126
N24670G01 X173.21 Y516.29
N24680G01 X173.299 Y516.294
N24690G01 X173.299 Y516.295
N24700G01 X174.995 Y516.352
N24710G01 X175.085 Y516.348
N24720G01 X175.086 Y516.349
N24730G01 X178.478 Y516.121
N24740G01 X178.478 Y516.119
N24750G01 X178.52 Y516.117
N24760G01 X178.651 Y516.098
N24770G01 X181.911 Y515.432
N24780G01 X182.033 Y515.401
N24790G01 X182.084 Y515.383
N24800G01 X182.084 Y515.384
N24810G01 X185.17 Y514.312
N24820G01 X185.169 Y514.311
N24830G01 X185.243 Y514.284
N24840G01 X185.331 Y514.242
N24850G01 X185.332 Y514.244
N24860G01 X188.219 Y512.795
N24870G01 X188.219 Y512.793
N24880G01 X188.25 Y512.779
N24890G01 X188.369 Y512.707
N24900G01 X191.028 Y510.911
N24910G01 X191.129 Y510.835
N24920G01 X193.566 Y508.692
N24930G01 X193.565 Y508.69
N24940G01 X193.629 Y508.633
N24950G01 X193.686 Y508.569
N24960G01 X193.687 Y508.57
N24970G01 X195.801 Y506.169
N24980G01 X195.8 Y506.168
N24990G01 X195.831 Y506.133
N25000G01 X195.906 Y506.033
N25010G01 X197.703 Y503.373
N25020G01 X197.775 Y503.254
N25030G01 X197.789 Y503.223
N25040G01 X197.791 Y503.223
N25050G01 X199.24 Y500.336
N25060G01 X199.238 Y500.336
N25070G01 X199.28 Y500.247
N25080G01 X199.307 Y500.173
N25090G01 X199.308 Y500.174
N25100G01 X200.38 Y497.088
N25110G01 X200.379 Y497.088
N25120G01 X200.397 Y497.037
N25130G01 X200.427 Y496.916
N25140G01 X201.092 Y493.662
N25150G01 X201.113 Y493.524
N25160G01 X201.115 Y493.482
N25170G01 X201.117 Y493.482
N25180G01 X201.345 Y490.09
N25190G01 X201.344 Y490.09
N25200G01 X201.348 Y489.999
N25210G01 X201.335 Y377.264
N25220G01 Z-15.399
N25230G01 X201.335 Y371.564
N25240G01 Z-16 F500
N25250G01 X201.315 Y211.119 F1000
N25260G01 Z-15.399
N25270G01 X201.315 Y205.419
N25280G01 Z-16 F500
N25290G01 X201.295 Y44.974 F1000
N25300G01 Z-15.399
N25310G01 X201.295 Y39.274
N25320G01 Z-16 F500
N25330G01 X201.29 Y-0.391 F1000
N25340G01 X201.245 Y-0.516
N25350G01 X201.189 Y-0.636
N25360G01 X201.121 Y-0.75
N25370G01 X201.042 Y-0.856
N25380G01 X200.953 Y-0.954
N25390G01 X200.854 Y-1.043
N25400G01 X200.748 Y-1.122
N25410G01 X200.634 Y-1.19
N25420G01 X200.515 Y-1.247
N25430G01 X200.39 Y-1.291
N25440G01 X200.261 Y-1.324
N25450G01 X200.13 Y-1.343
N25460G01 X199.998 Y-1.349
N25470G01 X80.942
N25480G01 Z-15.399
N25490G01 X75.242
N25500G01 Z-16 F500
N25510G01 X0 F1000
N25520G01 X-0.132 Y-1.343
N25530G01 X-0.263 Y-1.324
N25540G01 X-0.391 Y-1.291
N25550G01 X-0.516 Y-1.247
N25560G01 X-0.636 Y-1.19
N25570G01 X-0.75 Y-1.122
N25580G01 X-0.856 Y-1.043
N25590G01 X-0.954 Y-0.954
N25600G01 X-1.043 Y-0.856
N25610G01 X-1.122 Y-0.75
N25620G01 X-1.19 Y-0.636
N25630G01 X-1.247 Y-0.516
N25640G01 X-1.291 Y-0.391
N25650G01 X-1.324 Y-0.263
N25660G01 X-1.343 Y-0.132
N25670G01 X-1.349 Y0
N25680 G00 Z9.999
N25690 G00 X31.45 Y51.347
N25700G01 Z-16.4 F500
N25710G01 X116.34 F1000
N25720G01 Z-15.399
N25730G01 X122.04
N25740G01 Z-16.4 F500
N25750G01 X168.547 F1000
N25760G01 Y168.899
N25770G01 Z-15.399
N25780G01 Y174.599
N25790G01 Z-16.4 F500
N25800G01 Y338.648 F1000
N25810G01 X168.537
N25820G01 Z-15.399
N25830G01 X162.837
N25840G01 Z-16.4 F500
N25850G01 X31.45 Y338.648 F1000
N25860G01 Y305.976
N25870G01 Z-15.399
N25880G01 Y300.276
N25890G01 Z-16.4 F500
N25900G01 X31.45 Y136.217 F1000
N25910G01 Z-15.399
N25920G01 Y130.517
N25930G01 Z-16.4 F500
N25940G01 X31.45 Y51.347 F1000
N25950 G00 Z9.999
N25960 G00 X-1.349 Y0
N25970G01 Z-16.4 F500
N25980G01 X-1.349 Y83.082 F1000
N25990G01 Z-15.399
N26000G01 X-1.349 Y88.782
N26010G01 Z-16.4 F500
N26020G01 X-1.349 Y249.227 F1000
N26030G01 Z-15.399
N26040G01 X-1.349 Y254.927
N26050G01 Z-16.4 F500
N26060G01 X-1.349 Y340.044 F1000
N26070G01 X-1.293 Y341.692
N26080G01 X-1.291 Y341.692
N26090G01 X-1.287 Y341.778
N26100G01 X-1.123 Y343.414
N26110G01 X-1.11 Y343.501
N26120G01 X-1.111 Y343.501
N26130G01 X-0.841 Y345.115
N26140G01 X-0.84 Y345.115
N26150G01 X-0.834 Y345.156
N26160G01 X-0.823 Y345.201
N26170G01 X-0.824 Y345.201
N26180G01 X-0.451 Y346.79
N26190G01 X-0.45 Y346.79
N26200G01 X-0.429 Y346.873
N26210G01 X0.045 Y348.433
N26220G01 X0.074 Y348.515
N26230G01 X0.073 Y348.516
N26240G01 X0.663 Y350.081
N26250G01 X1.351 Y351.604
N26260G01 X1.352 Y351.603
N26270G01 X1.391 Y351.684
N26280G01 X2.157 Y353.122
N26290G01 X2.201 Y353.195
N26300G01 X2.199 Y353.196
N26310G01 X3.058 Y354.584
N26320G01 X3.059 Y354.583
N26330G01 X3.084 Y354.623
N26340G01 X3.108 Y354.656
N26350G01 X3.107 Y354.657
N26360G01 X4.057 Y355.989
N26370G01 X4.058 Y355.988
N26380G01 X4.111 Y356.059
N26390G01 X5.151 Y357.332
N26400G01 X5.209 Y357.396
N26410G01 X5.208 Y357.397
N26420G01 X6.365 Y358.636
N26430G01 X45.021 Y397.289
N26440G01 Z-15.399
N26450G01 X49.051 Y401.319
N26460G01 Z-16.4 F500
N26470G01 X156.398 Y508.658 F1000
N26480G01 X157.603 Y509.787
N26490G01 X157.604 Y509.786
N26500G01 X157.669 Y509.846
N26510G01 X158.94 Y510.887
N26520G01 X159.011 Y510.94
N26530G01 X159.011 Y510.941
N26540G01 X160.376 Y511.918
N26550G01 X161.8 Y512.802
N26560G01 X161.801 Y512.801
N26570G01 X161.876 Y512.846
N26580G01 X163.312 Y513.613
N26590G01 X163.391 Y513.65
N26600G01 X163.391 Y513.652
N26610G01 X163.394 Y513.653
N26620G01 Z-15.399
N26630G01 X164.913 Y514.341
N26640G01 X166.475 Y514.93
N26650G01 X166.475 Y514.929
N26660G01 X166.559 Y514.959
N26670G01 X168.117 Y515.433
N26680G01 X168.2 Y515.454
N26690G01 X168.2 Y515.456
N26700G01 X168.742 Y515.582
N26710G01 Z-16.4 F500
N26720G01 X169.833 Y515.838 F1000
N26730G01 X171.488 Y516.114
N26740G01 X171.488 Y516.113
N26750G01 X171.576 Y516.126
N26760G01 X173.21 Y516.29
N26770G01 X173.299 Y516.294
N26780G01 X173.299 Y516.295
N26790G01 X174.995 Y516.352
N26800G01 X175.085 Y516.348
N26810G01 X175.086 Y516.349
N26820G01 X178.478 Y516.121
N26830G01 X178.478 Y516.119
N26840G01 X178.52 Y516.117
N26850G01 X178.651 Y516.098
N26860G01 X181.911 Y515.432
N26870G01 X182.033 Y515.401
N26880G01 X182.084 Y515.383
N26890G01 X182.084 Y515.384
N26900G01 X185.17 Y514.312
N26910G01 X185.169 Y514.311
N26920G01 X185.243 Y514.284
N26930G01 X185.331 Y514.242
N26940G01 X185.332 Y514.244
N26950G01 X188.219 Y512.795
N26960G01 X188.219 Y512.793
N26970G01 X188.25 Y512.779
N26980G01 X188.369 Y512.707
N26990G01 X191.028 Y510.911
N27000G01 X191.129 Y510.835
N27010G01 X193.566 Y508.692
N27020G01 X193.565 Y508.69
N27030G01 X193.629 Y508.633
N27040G01 X193.686 Y508.569
N27050G01 X193.687 Y508.57
N27060G01 X195.801 Y506.169
N27070G01 X195.8 Y506.168
N27080G01 X195.831 Y506.133
N27090G01 X195.906 Y506.033
N27100G01 X197.703 Y503.373
N27110G01 X197.775 Y503.254
N27120G01 X197.789 Y503.223
N27130G01 X197.791 Y503.223
N27140G01 X199.24 Y500.336
N27150G01 X199.238 Y500.336
N27160G01 X199.28 Y500.247
N27170G01 X199.307 Y500.173
N27180G01 X199.308 Y500.174
N27190G01 X200.38 Y497.088
N27200G01 X200.379 Y497.088
N27210G01 X200.397 Y497.037
N27220G01 X200.427 Y496.916
N27230G01 X201.092 Y493.662
N27240G01 X201.113 Y493.524
N27250G01 X201.115 Y493.482
N27260G01 X201.117 Y493.482
N27270G01 X201.345 Y490.09
N27280G01 X201.344 Y490.09
N27290G01 X201.348 Y489.999
N27300G01 X201.335 Y377.264
N27310G01 Z-15.399
N27320G01 X201.335 Y371.564
N27330G01 Z-16.4 F500
N27340G01 X201.315 Y211.119 F1000
N27350G01 Z-15.399
N27360G01 X201.315 Y205.419
N27370G01 Z-16.4 F500
N27380G01 X201.295 Y44.974 F1000
N27390G01 Z-15.399
N27400G01 X201.295 Y39.274
N27410G01 Z-16.4 F500
N27420G01 X201.29 Y-0.391 F1000
N27430G01 X201.245 Y-0.516
N27440G01 X201.189 Y-0.636
N27450G01 X201.121 Y-0.75
N27460G01 X201.042 Y-0.856
N27470G01 X200.953 Y-0.954
N27480G01 X200.854 Y-1.043
N27490G01 X200.748 Y-1.122
N27500G01 X200.634 Y-1.19
N27510G01 X200.515 Y-1.247
N27520G01 X200.39 Y-1.291
N27530G01 X200.261 Y-1.324
N27540G01 X200.13 Y-1.343
N27550G01 X199.998 Y-1.349
N27560G01 X80.942
N27570G01 Z-15.399
N27580G01 X75.242
N27590G01 Z-16.4 F500
N27600G01 X0 F1000
N27610G01 X-0.132 Y-1.343
N27620G01 X-0.263 Y-1.324
N27630G01 X-0.391 Y-1.291
N27640G01 X-0.516 Y-1.247
N27650G01 X-0.636 Y-1.19
N27660G01 X-0.75 Y-1.122
N27670G01 X-0.856 Y-1.043
N27680G01 X-0.954 Y-0.954
N27690G01 X-1.043 Y-0.856
N27700G01 X-1.122 Y-0.75
N27710G01 X-1.19 Y-0.636
N27720G01 X-1.247 Y-0.516
N27730G01 X-1.291 Y-0.391
N27740G01 X-1.324 Y-0.263
N27750G01 X-1.343 Y-0.132
N27760G01 X-1.349 Y0
N27770 G00 Z9.999
N27780 M02
