(GCode created using the HeeksCNC Mach3 post processor)
(/home/user/git-repos/dkoukoul/donation-box/designs/3D/blender/left-side panel/upper-hinge-file.tap)
(G-code generated with BlenderCAM and NC library)
N10 G17 G21 G90
(Tool change)
N20G43H1
N30T1 M06
N40 G00 X0 Y0 Z19.999 S12000 M03
N50 G00 X19.3 Y240.749
N60G01 Z-1 F500
N70G01 X19.5 Y240.736 F1000
N80G01 X19.699 Y240.749
N90G01 X19.853 Y240.781
N100G01 X19.994 Y240.83
N110G01 X20.131 Y240.899
N120G01 X20.267 Y240.991
N130G01 X20.395 Y241.104
N140G01 X20.508 Y241.232
N150G01 X20.6 Y241.367
N160G01 X20.669 Y241.505
N170G01 X20.718 Y241.645
N180G01 X20.749 Y241.8
N190G01 X20.763 Y242
N200G01 X20.749 Y242.199
N210G01 X20.718 Y242.354
N220G01 X20.669 Y242.494
N230G01 X20.6 Y242.631
N240G01 X20.508 Y242.767
N250G01 X20.396 Y242.896
N260G01 X20.267 Y243.008
N270G01 X20.132 Y243.1
N280G01 X19.994 Y243.169
N290G01 X19.853 Y243.218
N300G01 X19.699 Y243.25
N310G01 X19.499 Y243.263
N320G01 X19.3 Y243.25
N330G01 X19.146 Y243.218
N340G01 X19.005 Y243.169
N350G01 X18.868 Y243.1
N360G01 X18.732 Y243.009
N370G01 X18.603 Y242.895
N380G01 X18.491 Y242.768
N390G01 X18.399 Y242.631
N400G01 X18.33 Y242.494
N410G01 X18.281 Y242.353
N420G01 X18.25 Y242.199
N430G01 X18.236 Y242
N440G01 X18.25 Y241.8
N450G01 X18.281 Y241.645
N460G01 X18.33 Y241.505
N470G01 X18.399 Y241.367
N480G01 X18.491 Y241.232
N490G01 X18.604 Y241.103
N500G01 X18.732 Y240.99
N510G01 X18.867 Y240.899
N520G01 X19.005 Y240.83
N530G01 X19.146 Y240.781
N540G01 X19.3 Y240.749
N550G01 X19.119 Y239.409
N560G01 X19.499 Y239.383
N570G01 X19.88 Y239.409
N580G01 X20.212 Y239.476
N590G01 X20.52 Y239.584
N600G01 X20.815 Y239.731
N610G01 X21.094 Y239.92
N620G01 X21.352 Y240.147
N630G01 X21.579 Y240.405
N640G01 X21.768 Y240.684
N650G01 X21.915 Y240.979
N660G01 X22.023 Y241.287
N670G01 X22.09 Y241.619
N680G01 X22.116 Y242
N690G01 X22.09 Y242.38
N700G01 X22.023 Y242.712
N710G01 X21.915 Y243.02
N720G01 X21.768 Y243.315
N730G01 X21.579 Y243.595
N740G01 X21.352 Y243.852
N750G01 X21.094 Y244.079
N760G01 X20.815 Y244.268
N770G01 X20.52 Y244.416
N780G01 X20.211 Y244.523
N790G01 X19.88 Y244.59
N800G01 X19.499 Y244.616
N810G01 X19.119 Y244.59
N820G01 X18.787 Y244.523
N830G01 X18.479 Y244.415
N840G01 X18.184 Y244.268
N850G01 X17.905 Y244.079
N860G01 X17.647 Y243.852
N870G01 X17.42 Y243.595
N880G01 X17.231 Y243.315
N890G01 X17.084 Y243.02
N900G01 X16.976 Y242.712
N910G01 X16.909 Y242.38
N920G01 X16.883 Y242
N930G01 X16.909 Y241.619
N940G01 X16.976 Y241.287
N950G01 X17.084 Y240.979
N960G01 X17.231 Y240.684
N970G01 X17.42 Y240.405
N980G01 X17.647 Y240.147
N990G01 X17.905 Y239.92
N1000G01 X18.184 Y239.732
N1010G01 X18.479 Y239.584
N1020G01 X18.787 Y239.476
N1030G01 X19.119 Y239.409
N1040G01 X18.938 Y238.068
N1050G01 X19.499 Y238.03
N1060G01 X20.061 Y238.068
N1070G01 X20.57 Y238.172
N1080G01 X21.047 Y238.337
N1090G01 X21.498 Y238.564
N1100G01 X21.922 Y238.85
N1110G01 X22.309 Y239.19
N1120G01 X22.649 Y239.578
N1130G01 X22.935 Y240.001
N1140G01 X23.162 Y240.452
N1150G01 X23.327 Y240.929
N1160G01 X23.431 Y241.437
N1170G01 X23.469 Y242
N1180G01 X23.431 Y242.562
N1190G01 X23.327 Y243.07
N1200G01 X23.162 Y243.547
N1210G01 X22.935 Y243.998
N1220G01 X22.649 Y244.422
N1230G01 X22.309 Y244.808
N1240G01 X21.921 Y245.149
N1250G01 X21.498 Y245.435
N1260G01 X21.046 Y245.662
N1270G01 X20.57 Y245.827
N1280G01 X20.061 Y245.931
N1290G01 X19.499 Y245.969
N1300G01 X18.938 Y245.931
N1310G01 X18.429 Y245.827
N1320G01 X17.952 Y245.662
N1330G01 X17.501 Y245.435
N1340G01 X17.078 Y245.15
N1350G01 X16.69 Y244.808
N1360G01 X16.35 Y244.422
N1370G01 X16.064 Y243.998
N1380G01 X15.837 Y243.547
N1390G01 X15.672 Y243.07
N1400G01 X15.568 Y242.562
N1410G01 X15.53 Y242
N1420G01 X15.568 Y241.437
N1430G01 X15.672 Y240.929
N1440G01 X15.837 Y240.452
N1450G01 X16.064 Y240.001
N1460G01 X16.35 Y239.577
N1470G01 X16.691 Y239.19
N1480G01 X17.078 Y238.85
N1490G01 X17.501 Y238.564
N1500G01 X17.952 Y238.337
N1510G01 X18.429 Y238.172
N1520G01 X18.938 Y238.068
N1530G01 X18.757 Y236.727
N1540G01 X19.499 Y236.677
N1550G01 X20.243 Y236.727
N1560G01 X20.928 Y236.867
N1570G01 X21.573 Y237.091
N1580G01 X22.182 Y237.396
N1590G01 X22.749 Y237.779
N1600G01 X23.265 Y238.234
N1610G01 X23.72 Y238.75
N1620G01 X24.103 Y239.317
N1630G01 X24.408 Y239.926
N1640G01 X24.632 Y240.571
N1650G01 X24.772 Y241.256
N1660G01 X24.822 Y242
N1670G01 X24.772 Y242.743
N1680G01 X24.632 Y243.428
N1690G01 X24.408 Y244.073
N1700G01 X24.103 Y244.682
N1710G01 X23.719 Y245.249
N1720G01 X23.265 Y245.765
N1730G01 X22.749 Y246.22
N1740G01 X22.182 Y246.603
N1750G01 X21.573 Y246.908
N1760G01 X20.928 Y247.132
N1770G01 X20.243 Y247.272
N1780G01 X19.499 Y247.322
N1790G01 X18.756 Y247.272
N1800G01 X18.071 Y247.132
N1810G01 X17.426 Y246.908
N1820G01 X16.817 Y246.603
N1830G01 X16.251 Y246.22
N1840G01 X15.734 Y245.765
N1850G01 X15.28 Y245.249
N1860G01 X14.896 Y244.682
N1870G01 X14.591 Y244.073
N1880G01 X14.367 Y243.428
N1890G01 X14.227 Y242.743
N1900G01 X14.177 Y242
N1910G01 X14.227 Y241.256
N1920G01 X14.367 Y240.571
N1930G01 X14.591 Y239.926
N1940G01 X14.896 Y239.317
N1950G01 X15.279 Y238.75
N1960G01 X15.734 Y238.234
N1970G01 X16.25 Y237.779
N1980G01 X16.817 Y237.396
N1990G01 X17.426 Y237.091
N2000G01 X18.071 Y236.867
N2010G01 X18.757 Y236.727
N2020G01 X18.575 Y235.386
N2030G01 X19.499 Y235.324
N2040G01 X20.424 Y235.386
N2050G01 X21.286 Y235.562
N2060G01 X22.1 Y235.845
N2070G01 X22.865 Y236.229
N2080G01 X23.576 Y236.709
N2090G01 X24.222 Y237.277
N2100G01 X24.79 Y237.923
N2110G01 X25.27 Y238.634
N2120G01 X25.654 Y239.399
N2130G01 X25.937 Y240.213
N2140G01 X26.113 Y241.075
N2150G01 X26.175 Y242
N2160G01 X26.113 Y242.924
N2170G01 X25.937 Y243.786
N2180G01 X25.654 Y244.6
N2190G01 X25.27 Y245.365
N2200G01 X24.79 Y246.076
N2210G01 X24.222 Y246.721
N2220G01 X23.576 Y247.29
N2230G01 X22.865 Y247.77
N2240G01 X22.1 Y248.154
N2250G01 X21.286 Y248.437
N2260G01 X20.424 Y248.613
N2270G01 X19.499 Y248.675
N2280G01 X18.575 Y248.613
N2290G01 X17.713 Y248.437
N2300G01 X16.899 Y248.154
N2310G01 X16.134 Y247.77
N2320G01 X15.423 Y247.29
N2330G01 X14.777 Y246.721
N2340G01 X14.209 Y246.076
N2350G01 X13.729 Y245.365
N2360G01 X13.345 Y244.6
N2370G01 X13.062 Y243.786
N2380G01 X12.886 Y242.924
N2390G01 X12.824 Y242
N2400G01 X12.886 Y241.075
N2410G01 X13.062 Y240.213
N2420G01 X13.345 Y239.399
N2430G01 X13.729 Y238.634
N2440G01 X14.209 Y237.923
N2450G01 X14.777 Y237.277
N2460G01 X15.423 Y236.709
N2470G01 X16.134 Y236.229
N2480G01 X16.899 Y235.845
N2490G01 X17.713 Y235.562
N2500G01 X18.575 Y235.386
N2510G01 X18.394 Y234.045
N2520G01 X19.499 Y233.971
N2530G01 X20.605 Y234.045
N2540G01 X21.644 Y234.258
N2550G01 X22.626 Y234.599
N2560G01 X23.548 Y235.061
N2570G01 X24.403 Y235.639
N2580G01 X25.178 Y236.321
N2590G01 X25.86 Y237.096
N2600G01 X26.438 Y237.951
N2610G01 X26.9 Y238.873
N2620G01 X27.241 Y239.855
N2630G01 X27.454 Y240.894
N2640G01 X27.528 Y242
N2650G01 X27.454 Y243.105
N2660G01 X27.241 Y244.144
N2670G01 X26.9 Y245.126
N2680G01 X26.438 Y246.048
N2690G01 X25.86 Y246.903
N2700G01 X25.178 Y247.678
N2710G01 X24.403 Y248.361
N2720G01 X23.549 Y248.938
N2730G01 X22.626 Y249.401
N2740G01 X21.644 Y249.742
N2750G01 X20.605 Y249.954
N2760G01 X19.499 Y250.028
N2770G01 X18.394 Y249.954
N2780G01 X17.355 Y249.742
N2790G01 X16.373 Y249.4
N2800G01 X15.45 Y248.938
N2810G01 X14.596 Y248.361
N2820G01 X13.82 Y247.678
N2830G01 X13.139 Y246.903
N2840G01 X12.561 Y246.048
N2850G01 X12.099 Y245.126
N2860G01 X11.758 Y244.144
N2870G01 X11.545 Y243.105
N2880G01 X11.471 Y242
N2890G01 X11.545 Y240.894
N2900G01 X11.758 Y239.855
N2910G01 X12.098 Y238.873
N2920G01 X12.561 Y237.951
N2930G01 X13.139 Y237.096
N2940G01 X13.821 Y236.321
N2950G01 X14.596 Y235.639
N2960G01 X15.451 Y235.061
N2970G01 X16.373 Y234.599
N2980G01 X17.355 Y234.258
N2990G01 X18.394 Y234.045
N3000G01 X18.213 Y232.704
N3010G01 X19.499 Y232.618
N3020G01 X20.786 Y232.704
N3030G01 X22.003 Y232.953
N3040G01 X23.153 Y233.352
N3050G01 X24.232 Y233.894
N3060G01 X25.23 Y234.568
N3070G01 X26.135 Y235.364
N3080G01 X26.931 Y236.269
N3090G01 X27.605 Y237.267
N3100G01 X28.147 Y238.347
N3110G01 X28.546 Y239.496
N3120G01 X28.795 Y240.712
N3130G01 X28.881 Y242
N3140G01 X28.795 Y243.287
N3150G01 X28.546 Y244.503
N3160G01 X28.147 Y245.653
N3170G01 X27.605 Y246.732
N3180G01 X26.931 Y247.73
N3190G01 X26.135 Y248.635
N3200G01 X25.23 Y249.431
N3210G01 X24.232 Y250.105
N3220G01 X23.152 Y250.647
N3230G01 X22.002 Y251.046
N3240G01 X20.787 Y251.295
N3250G01 X19.499 Y251.381
N3260G01 X18.212 Y251.295
N3270G01 X16.997 Y251.046
N3280G01 X15.846 Y250.647
N3290G01 X14.767 Y250.105
N3300G01 X13.769 Y249.431
N3310G01 X12.864 Y248.634
N3320G01 X12.068 Y247.731
N3330G01 X11.394 Y246.732
N3340G01 X10.852 Y245.653
N3350G01 X10.453 Y244.503
N3360G01 X10.204 Y243.287
N3370G01 X10.118 Y242
N3380G01 X10.204 Y240.712
N3390G01 X10.453 Y239.496
N3400G01 X10.852 Y238.347
N3410G01 X11.394 Y237.267
N3420G01 X12.068 Y236.269
N3430G01 X12.864 Y235.364
N3440G01 X13.769 Y234.568
N3450G01 X14.767 Y233.894
N3460G01 X15.846 Y233.352
N3470G01 X16.996 Y232.953
N3480G01 X18.213 Y232.704
N3490G01 X18.031 Y231.363
N3500G01 X19.499 Y231.265
N3510G01 X20.968 Y231.363
N3520G01 X22.361 Y231.648
N3530G01 X23.679 Y232.106
N3540G01 X24.915 Y232.726
N3550G01 X26.057 Y233.498
N3560G01 X27.091 Y234.408
N3570G01 X28.001 Y235.442
N3580G01 X28.773 Y236.584
N3590G01 X29.393 Y237.82
N3600G01 X29.851 Y239.138
N3610G01 X30.135 Y240.531
N3620G01 X30.234 Y242
N3630G01 X30.135 Y243.468
N3640G01 X29.851 Y244.861
N3650G01 X29.393 Y246.179
N3660G01 X28.773 Y247.415
N3670G01 X28.001 Y248.558
N3680G01 X27.091 Y249.591
N3690G01 X26.057 Y250.501
N3700G01 X24.915 Y251.273
N3710G01 X23.679 Y251.893
N3720G01 X22.361 Y252.351
N3730G01 X20.968 Y252.636
N3740G01 X19.499 Y252.734
N3750G01 X18.031 Y252.636
N3760G01 X16.638 Y252.351
N3770G01 X15.32 Y251.893
N3780G01 X14.084 Y251.273
N3790G01 X12.942 Y250.501
N3800G01 X11.907 Y249.591
N3810G01 X10.998 Y248.558
N3820G01 X10.226 Y247.415
N3830G01 X9.606 Y246.179
N3840G01 X9.148 Y244.861
N3850G01 X8.864 Y243.468
N3860G01 X8.765 Y242
N3870G01 X8.864 Y240.531
N3880G01 X9.148 Y239.138
N3890G01 X9.606 Y237.82
N3900G01 X10.226 Y236.584
N3910G01 X10.998 Y235.442
N3920G01 X11.908 Y234.408
N3930G01 X12.942 Y233.498
N3940G01 X14.084 Y232.726
N3950G01 X15.32 Y232.106
N3960G01 X16.638 Y231.648
N3970G01 X18.031 Y231.363
N3980G01 X17.85 Y230.023
N3990G01 X19.499 Y229.912
N4000G01 X21.149 Y230.023
N4010G01 X22.719 Y230.343
N4020G01 X24.206 Y230.86
N4030G01 X25.598 Y231.559
N4040G01 X26.885 Y232.427
N4050G01 X28.048 Y233.451
N4060G01 X29.072 Y234.614
N4070G01 X29.94 Y235.9
N4080G01 X30.639 Y237.294
N4090G01 X31.156 Y238.78
N4100G01 X31.476 Y240.35
N4110G01 X31.587 Y242
N4120G01 X31.476 Y243.649
N4130G01 X31.156 Y245.219
N4140G01 X30.639 Y246.706
N4150G01 X29.94 Y248.098
N4160G01 X29.071 Y249.385
N4170G01 X28.048 Y250.548
N4180G01 X26.884 Y251.572
N4190G01 X25.599 Y252.44
N4200G01 X24.205 Y253.139
N4210G01 X22.719 Y253.656
N4220G01 X21.149 Y253.976
N4230G01 X19.499 Y254.087
N4240G01 X17.85 Y253.976
N4250G01 X16.28 Y253.656
N4260G01 X14.794 Y253.139
N4270G01 X13.4 Y252.44
N4280G01 X12.115 Y251.572
N4290G01 X10.951 Y250.547
N4300G01 X9.928 Y249.385
N4310G01 X9.059 Y248.098
N4320G01 X8.36 Y246.706
N4330G01 X7.843 Y245.219
N4340G01 X7.523 Y243.649
N4350G01 X7.412 Y242
N4360G01 X7.523 Y240.35
N4370G01 X7.843 Y238.78
N4380G01 X8.36 Y237.294
N4390G01 X9.059 Y235.9
N4400G01 X9.927 Y234.614
N4410G01 X10.951 Y233.451
N4420G01 X12.115 Y232.427
N4430G01 X13.4 Y231.559
N4440G01 X14.793 Y230.86
N4450G01 X16.28 Y230.343
N4460G01 X17.85 Y230.023
N4470G01 X17.669 Y228.682
N4480G01 X19.499 Y228.559
N4490G01 X21.33 Y228.682
N4500G01 X23.077 Y229.039
N4510G01 X24.732 Y229.614
N4520G01 X26.282 Y230.391
N4530G01 X27.712 Y231.357
N4540G01 X29.004 Y232.495
N4550G01 X30.142 Y233.787
N4560G01 X31.108 Y235.217
N4570G01 X31.886 Y236.767
N4580G01 X32.46 Y238.422
N4590G01 X32.817 Y240.169
N4600G01 X32.94 Y242
N4610G01 X32.817 Y243.83
N4620G01 X32.46 Y245.577
N4630G01 X31.885 Y247.232
N4640G01 X31.108 Y248.782
N4650G01 X30.142 Y250.212
N4660G01 X29.004 Y251.504
N4670G01 X27.712 Y252.642
N4680G01 X26.282 Y253.608
N4690G01 X24.732 Y254.386
N4700G01 X23.077 Y254.96
N4710G01 X21.33 Y255.317
N4720G01 X19.499 Y255.44
N4730G01 X17.669 Y255.317
N4740G01 X15.922 Y254.96
N4750G01 X14.267 Y254.386
N4760G01 X12.717 Y253.608
N4770G01 X11.288 Y252.642
N4780G01 X9.994 Y251.504
N4790G01 X8.857 Y250.212
N4800G01 X7.891 Y248.782
N4810G01 X7.114 Y247.232
N4820G01 X6.539 Y245.577
N4830G01 X6.182 Y243.83
N4840G01 X6.059 Y242
N4850G01 X6.182 Y240.169
N4860G01 X6.539 Y238.422
N4870G01 X7.113 Y236.767
N4880G01 X7.891 Y235.217
N4890G01 X8.857 Y233.787
N4900G01 X9.995 Y232.495
N4910G01 X11.287 Y231.357
N4920G01 X12.717 Y230.391
N4930G01 X14.267 Y229.614
N4940G01 X15.922 Y229.039
N4950G01 X17.669 Y228.682
N4960G01 X17.487 Y227.341
N4970G01 X19.499 Y227.206
N4980G01 X21.512 Y227.341
N4990G01 X23.435 Y227.734
N5000G01 X25.258 Y228.367
N5010G01 X26.965 Y229.224
N5020G01 X28.539 Y230.287
N5030G01 X29.961 Y231.538
N5040G01 X31.212 Y232.96
N5050G01 X32.275 Y234.534
N5060G01 X33.132 Y236.241
N5070G01 X33.765 Y238.064
N5080G01 X34.158 Y239.987
N5090G01 X34.293 Y242
N5100G01 X34.158 Y244.012
N5110G01 X33.765 Y245.935
N5120G01 X33.132 Y247.758
N5130G01 X32.275 Y249.465
N5140G01 X31.212 Y251.039
N5150G01 X29.961 Y252.461
N5160G01 X28.539 Y253.713
N5170G01 X26.966 Y254.775
N5180G01 X25.258 Y255.632
N5190G01 X23.435 Y256.265
N5200G01 X21.512 Y256.658
N5210G01 X19.499 Y256.793
N5220G01 X17.487 Y256.658
N5230G01 X15.564 Y256.265
N5240G01 X13.741 Y255.632
N5250G01 X12.033 Y254.775
N5260G01 X10.46 Y253.713
N5270G01 X9.038 Y252.461
N5280G01 X7.787 Y251.039
N5290G01 X6.724 Y249.465
N5300G01 X5.867 Y247.758
N5310G01 X5.234 Y245.935
N5320G01 X4.841 Y244.012
N5330G01 X4.706 Y242
N5340G01 X4.841 Y239.987
N5350G01 X5.234 Y238.064
N5360G01 X5.867 Y236.241
N5370G01 X6.724 Y234.534
N5380G01 X7.787 Y232.96
N5390G01 X9.038 Y231.538
N5400G01 X10.46 Y230.287
N5410G01 X12.034 Y229.224
N5420G01 X13.741 Y228.367
N5430G01 X15.564 Y227.734
N5440G01 X17.487 Y227.341
N5450G01 X17.306 Y226
N5460G01 X19.499 Y225.853
N5470G01 X21.693 Y226
N5480G01 X23.794 Y226.429
N5490G01 X25.785 Y227.121
N5500G01 X27.649 Y228.056
N5510G01 X29.366 Y229.216
N5520G01 X30.917 Y230.582
N5530G01 X32.283 Y232.133
N5540G01 X33.443 Y233.85
N5550G01 X34.378 Y235.714
N5560G01 X35.07 Y237.706
N5570G01 X35.499 Y239.806
N5580G01 X35.646 Y242
N5590G01 X35.499 Y244.193
N5600G01 X35.07 Y246.294
N5610G01 X34.378 Y248.285
N5620G01 X33.443 Y250.149
N5630G01 X32.283 Y251.866
N5640G01 X30.917 Y253.417
N5650G01 X29.366 Y254.783
N5660G01 X27.649 Y255.943
N5670G01 X25.785 Y256.878
N5680G01 X23.794 Y257.57
N5690G01 X21.693 Y257.999
N5700G01 X19.499 Y258.146
N5710G01 X17.306 Y257.999
N5720G01 X15.205 Y257.57
N5730G01 X13.214 Y256.878
N5740G01 X11.35 Y255.943
N5750G01 X9.633 Y254.783
N5760G01 X8.082 Y253.417
N5770G01 X6.716 Y251.866
N5780G01 X5.556 Y250.149
N5790G01 X4.621 Y248.285
N5800G01 X3.929 Y246.294
N5810G01 X3.5 Y244.193
N5820G01 X3.353 Y242
N5830G01 X3.5 Y239.806
N5840G01 X3.929 Y237.706
N5850G01 X4.621 Y235.714
N5860G01 X5.556 Y233.85
N5870G01 X6.716 Y232.133
N5880G01 X8.082 Y230.582
N5890G01 X9.633 Y229.216
N5900G01 X11.35 Y228.056
N5910G01 X13.214 Y227.121
N5920G01 X15.205 Y226.429
N5930G01 X17.306 Y226
N5940 G00 Z19.999
N5950 G00 X19.3 Y240.749
N5960G01 Z-2 F500
N5970G01 X19.5 Y240.736 F1000
N5980G01 X19.699 Y240.749
N5990G01 X19.853 Y240.781
N6000G01 X19.994 Y240.83
N6010G01 X20.131 Y240.899
N6020G01 X20.267 Y240.991
N6030G01 X20.395 Y241.104
N6040G01 X20.508 Y241.232
N6050G01 X20.6 Y241.367
N6060G01 X20.669 Y241.505
N6070G01 X20.718 Y241.645
N6080G01 X20.749 Y241.8
N6090G01 X20.763 Y242
N6100G01 X20.749 Y242.199
N6110G01 X20.718 Y242.354
N6120G01 X20.669 Y242.494
N6130G01 X20.6 Y242.631
N6140G01 X20.508 Y242.767
N6150G01 X20.396 Y242.896
N6160G01 X20.267 Y243.008
N6170G01 X20.132 Y243.1
N6180G01 X19.994 Y243.169
N6190G01 X19.853 Y243.218
N6200G01 X19.699 Y243.25
N6210G01 X19.499 Y243.263
N6220G01 X19.3 Y243.25
N6230G01 X19.146 Y243.218
N6240G01 X19.005 Y243.169
N6250G01 X18.868 Y243.1
N6260G01 X18.732 Y243.009
N6270G01 X18.603 Y242.895
N6280G01 X18.491 Y242.768
N6290G01 X18.399 Y242.631
N6300G01 X18.33 Y242.494
N6310G01 X18.281 Y242.353
N6320G01 X18.25 Y242.199
N6330G01 X18.236 Y242
N6340G01 X18.25 Y241.8
N6350G01 X18.281 Y241.645
N6360G01 X18.33 Y241.505
N6370G01 X18.399 Y241.367
N6380G01 X18.491 Y241.232
N6390G01 X18.604 Y241.103
N6400G01 X18.732 Y240.99
N6410G01 X18.867 Y240.899
N6420G01 X19.005 Y240.83
N6430G01 X19.146 Y240.781
N6440G01 X19.3 Y240.749
N6450G01 X19.119 Y239.409
N6460G01 X19.499 Y239.383
N6470G01 X19.88 Y239.409
N6480G01 X20.212 Y239.476
N6490G01 X20.52 Y239.584
N6500G01 X20.815 Y239.731
N6510G01 X21.094 Y239.92
N6520G01 X21.352 Y240.147
N6530G01 X21.579 Y240.405
N6540G01 X21.768 Y240.684
N6550G01 X21.915 Y240.979
N6560G01 X22.023 Y241.287
N6570G01 X22.09 Y241.619
N6580G01 X22.116 Y242
N6590G01 X22.09 Y242.38
N6600G01 X22.023 Y242.712
N6610G01 X21.915 Y243.02
N6620G01 X21.768 Y243.315
N6630G01 X21.579 Y243.595
N6640G01 X21.352 Y243.852
N6650G01 X21.094 Y244.079
N6660G01 X20.815 Y244.268
N6670G01 X20.52 Y244.416
N6680G01 X20.211 Y244.523
N6690G01 X19.88 Y244.59
N6700G01 X19.499 Y244.616
N6710G01 X19.119 Y244.59
N6720G01 X18.787 Y244.523
N6730G01 X18.479 Y244.415
N6740G01 X18.184 Y244.268
N6750G01 X17.905 Y244.079
N6760G01 X17.647 Y243.852
N6770G01 X17.42 Y243.595
N6780G01 X17.231 Y243.315
N6790G01 X17.084 Y243.02
N6800G01 X16.976 Y242.712
N6810G01 X16.909 Y242.38
N6820G01 X16.883 Y242
N6830G01 X16.909 Y241.619
N6840G01 X16.976 Y241.287
N6850G01 X17.084 Y240.979
N6860G01 X17.231 Y240.684
N6870G01 X17.42 Y240.405
N6880G01 X17.647 Y240.147
N6890G01 X17.905 Y239.92
N6900G01 X18.184 Y239.732
N6910G01 X18.479 Y239.584
N6920G01 X18.787 Y239.476
N6930G01 X19.119 Y239.409
N6940G01 X18.938 Y238.068
N6950G01 X19.499 Y238.03
N6960G01 X20.061 Y238.068
N6970G01 X20.57 Y238.172
N6980G01 X21.047 Y238.337
N6990G01 X21.498 Y238.564
N7000G01 X21.922 Y238.85
N7010G01 X22.309 Y239.19
N7020G01 X22.649 Y239.578
N7030G01 X22.935 Y240.001
N7040G01 X23.162 Y240.452
N7050G01 X23.327 Y240.929
N7060G01 X23.431 Y241.437
N7070G01 X23.469 Y242
N7080G01 X23.431 Y242.562
N7090G01 X23.327 Y243.07
N7100G01 X23.162 Y243.547
N7110G01 X22.935 Y243.998
N7120G01 X22.649 Y244.422
N7130G01 X22.309 Y244.808
N7140G01 X21.921 Y245.149
N7150G01 X21.498 Y245.435
N7160G01 X21.046 Y245.662
N7170G01 X20.57 Y245.827
N7180G01 X20.061 Y245.931
N7190G01 X19.499 Y245.969
N7200G01 X18.938 Y245.931
N7210G01 X18.429 Y245.827
N7220G01 X17.952 Y245.662
N7230G01 X17.501 Y245.435
N7240G01 X17.078 Y245.15
N7250G01 X16.69 Y244.808
N7260G01 X16.35 Y244.422
N7270G01 X16.064 Y243.998
N7280G01 X15.837 Y243.547
N7290G01 X15.672 Y243.07
N7300G01 X15.568 Y242.562
N7310G01 X15.53 Y242
N7320G01 X15.568 Y241.437
N7330G01 X15.672 Y240.929
N7340G01 X15.837 Y240.452
N7350G01 X16.064 Y240.001
N7360G01 X16.35 Y239.577
N7370G01 X16.691 Y239.19
N7380G01 X17.078 Y238.85
N7390G01 X17.501 Y238.564
N7400G01 X17.952 Y238.337
N7410G01 X18.429 Y238.172
N7420G01 X18.938 Y238.068
N7430G01 X18.757 Y236.727
N7440G01 X19.499 Y236.677
N7450G01 X20.243 Y236.727
N7460G01 X20.928 Y236.867
N7470G01 X21.573 Y237.091
N7480G01 X22.182 Y237.396
N7490G01 X22.749 Y237.779
N7500G01 X23.265 Y238.234
N7510G01 X23.72 Y238.75
N7520G01 X24.103 Y239.317
N7530G01 X24.408 Y239.926
N7540G01 X24.632 Y240.571
N7550G01 X24.772 Y241.256
N7560G01 X24.822 Y242
N7570G01 X24.772 Y242.743
N7580G01 X24.632 Y243.428
N7590G01 X24.408 Y244.073
N7600G01 X24.103 Y244.682
N7610G01 X23.719 Y245.249
N7620G01 X23.265 Y245.765
N7630G01 X22.749 Y246.22
N7640G01 X22.182 Y246.603
N7650G01 X21.573 Y246.908
N7660G01 X20.928 Y247.132
N7670G01 X20.243 Y247.272
N7680G01 X19.499 Y247.322
N7690G01 X18.756 Y247.272
N7700G01 X18.071 Y247.132
N7710G01 X17.426 Y246.908
N7720G01 X16.817 Y246.603
N7730G01 X16.251 Y246.22
N7740G01 X15.734 Y245.765
N7750G01 X15.28 Y245.249
N7760G01 X14.896 Y244.682
N7770G01 X14.591 Y244.073
N7780G01 X14.367 Y243.428
N7790G01 X14.227 Y242.743
N7800G01 X14.177 Y242
N7810G01 X14.227 Y241.256
N7820G01 X14.367 Y240.571
N7830G01 X14.591 Y239.926
N7840G01 X14.896 Y239.317
N7850G01 X15.279 Y238.75
N7860G01 X15.734 Y238.234
N7870G01 X16.25 Y237.779
N7880G01 X16.817 Y237.396
N7890G01 X17.426 Y237.091
N7900G01 X18.071 Y236.867
N7910G01 X18.757 Y236.727
N7920G01 X18.575 Y235.386
N7930G01 X19.499 Y235.324
N7940G01 X20.424 Y235.386
N7950G01 X21.286 Y235.562
N7960G01 X22.1 Y235.845
N7970G01 X22.865 Y236.229
N7980G01 X23.576 Y236.709
N7990G01 X24.222 Y237.277
N8000G01 X24.79 Y237.923
N8010G01 X25.27 Y238.634
N8020G01 X25.654 Y239.399
N8030G01 X25.937 Y240.213
N8040G01 X26.113 Y241.075
N8050G01 X26.175 Y242
N8060G01 X26.113 Y242.924
N8070G01 X25.937 Y243.786
N8080G01 X25.654 Y244.6
N8090G01 X25.27 Y245.365
N8100G01 X24.79 Y246.076
N8110G01 X24.222 Y246.721
N8120G01 X23.576 Y247.29
N8130G01 X22.865 Y247.77
N8140G01 X22.1 Y248.154
N8150G01 X21.286 Y248.437
N8160G01 X20.424 Y248.613
N8170G01 X19.499 Y248.675
N8180G01 X18.575 Y248.613
N8190G01 X17.713 Y248.437
N8200G01 X16.899 Y248.154
N8210G01 X16.134 Y247.77
N8220G01 X15.423 Y247.29
N8230G01 X14.777 Y246.721
N8240G01 X14.209 Y246.076
N8250G01 X13.729 Y245.365
N8260G01 X13.345 Y244.6
N8270G01 X13.062 Y243.786
N8280G01 X12.886 Y242.924
N8290G01 X12.824 Y242
N8300G01 X12.886 Y241.075
N8310G01 X13.062 Y240.213
N8320G01 X13.345 Y239.399
N8330G01 X13.729 Y238.634
N8340G01 X14.209 Y237.923
N8350G01 X14.777 Y237.277
N8360G01 X15.423 Y236.709
N8370G01 X16.134 Y236.229
N8380G01 X16.899 Y235.845
N8390G01 X17.713 Y235.562
N8400G01 X18.575 Y235.386
N8410G01 X18.394 Y234.045
N8420G01 X19.499 Y233.971
N8430G01 X20.605 Y234.045
N8440G01 X21.644 Y234.258
N8450G01 X22.626 Y234.599
N8460G01 X23.548 Y235.061
N8470G01 X24.403 Y235.639
N8480G01 X25.178 Y236.321
N8490G01 X25.86 Y237.096
N8500G01 X26.438 Y237.951
N8510G01 X26.9 Y238.873
N8520G01 X27.241 Y239.855
N8530G01 X27.454 Y240.894
N8540G01 X27.528 Y242
N8550G01 X27.454 Y243.105
N8560G01 X27.241 Y244.144
N8570G01 X26.9 Y245.126
N8580G01 X26.438 Y246.048
N8590G01 X25.86 Y246.903
N8600G01 X25.178 Y247.678
N8610G01 X24.403 Y248.361
N8620G01 X23.549 Y248.938
N8630G01 X22.626 Y249.401
N8640G01 X21.644 Y249.742
N8650G01 X20.605 Y249.954
N8660G01 X19.499 Y250.028
N8670G01 X18.394 Y249.954
N8680G01 X17.355 Y249.742
N8690G01 X16.373 Y249.4
N8700G01 X15.45 Y248.938
N8710G01 X14.596 Y248.361
N8720G01 X13.82 Y247.678
N8730G01 X13.139 Y246.903
N8740G01 X12.561 Y246.048
N8750G01 X12.099 Y245.126
N8760G01 X11.758 Y244.144
N8770G01 X11.545 Y243.105
N8780G01 X11.471 Y242
N8790G01 X11.545 Y240.894
N8800G01 X11.758 Y239.855
N8810G01 X12.098 Y238.873
N8820G01 X12.561 Y237.951
N8830G01 X13.139 Y237.096
N8840G01 X13.821 Y236.321
N8850G01 X14.596 Y235.639
N8860G01 X15.451 Y235.061
N8870G01 X16.373 Y234.599
N8880G01 X17.355 Y234.258
N8890G01 X18.394 Y234.045
N8900G01 X18.213 Y232.704
N8910G01 X19.499 Y232.618
N8920G01 X20.786 Y232.704
N8930G01 X22.003 Y232.953
N8940G01 X23.153 Y233.352
N8950G01 X24.232 Y233.894
N8960G01 X25.23 Y234.568
N8970G01 X26.135 Y235.364
N8980G01 X26.931 Y236.269
N8990G01 X27.605 Y237.267
N9000G01 X28.147 Y238.347
N9010G01 X28.546 Y239.496
N9020G01 X28.795 Y240.712
N9030G01 X28.881 Y242
N9040G01 X28.795 Y243.287
N9050G01 X28.546 Y244.503
N9060G01 X28.147 Y245.653
N9070G01 X27.605 Y246.732
N9080G01 X26.931 Y247.73
N9090G01 X26.135 Y248.635
N9100G01 X25.23 Y249.431
N9110G01 X24.232 Y250.105
N9120G01 X23.152 Y250.647
N9130G01 X22.002 Y251.046
N9140G01 X20.787 Y251.295
N9150G01 X19.499 Y251.381
N9160G01 X18.212 Y251.295
N9170G01 X16.997 Y251.046
N9180G01 X15.846 Y250.647
N9190G01 X14.767 Y250.105
N9200G01 X13.769 Y249.431
N9210G01 X12.864 Y248.634
N9220G01 X12.068 Y247.731
N9230G01 X11.394 Y246.732
N9240G01 X10.852 Y245.653
N9250G01 X10.453 Y244.503
N9260G01 X10.204 Y243.287
N9270G01 X10.118 Y242
N9280G01 X10.204 Y240.712
N9290G01 X10.453 Y239.496
N9300G01 X10.852 Y238.347
N9310G01 X11.394 Y237.267
N9320G01 X12.068 Y236.269
N9330G01 X12.864 Y235.364
N9340G01 X13.769 Y234.568
N9350G01 X14.767 Y233.894
N9360G01 X15.846 Y233.352
N9370G01 X16.996 Y232.953
N9380G01 X18.213 Y232.704
N9390G01 X18.031 Y231.363
N9400G01 X19.499 Y231.265
N9410G01 X20.968 Y231.363
N9420G01 X22.361 Y231.648
N9430G01 X23.679 Y232.106
N9440G01 X24.915 Y232.726
N9450G01 X26.057 Y233.498
N9460G01 X27.091 Y234.408
N9470G01 X28.001 Y235.442
N9480G01 X28.773 Y236.584
N9490G01 X29.393 Y237.82
N9500G01 X29.851 Y239.138
N9510G01 X30.135 Y240.531
N9520G01 X30.234 Y242
N9530G01 X30.135 Y243.468
N9540G01 X29.851 Y244.861
N9550G01 X29.393 Y246.179
N9560G01 X28.773 Y247.415
N9570G01 X28.001 Y248.558
N9580G01 X27.091 Y249.591
N9590G01 X26.057 Y250.501
N9600G01 X24.915 Y251.273
N9610G01 X23.679 Y251.893
N9620G01 X22.361 Y252.351
N9630G01 X20.968 Y252.636
N9640G01 X19.499 Y252.734
N9650G01 X18.031 Y252.636
N9660G01 X16.638 Y252.351
N9670G01 X15.32 Y251.893
N9680G01 X14.084 Y251.273
N9690G01 X12.942 Y250.501
N9700G01 X11.907 Y249.591
N9710G01 X10.998 Y248.558
N9720G01 X10.226 Y247.415
N9730G01 X9.606 Y246.179
N9740G01 X9.148 Y244.861
N9750G01 X8.864 Y243.468
N9760G01 X8.765 Y242
N9770G01 X8.864 Y240.531
N9780G01 X9.148 Y239.138
N9790G01 X9.606 Y237.82
N9800G01 X10.226 Y236.584
N9810G01 X10.998 Y235.442
N9820G01 X11.908 Y234.408
N9830G01 X12.942 Y233.498
N9840G01 X14.084 Y232.726
N9850G01 X15.32 Y232.106
N9860G01 X16.638 Y231.648
N9870G01 X18.031 Y231.363
N9880G01 X17.85 Y230.023
N9890G01 X19.499 Y229.912
N9900G01 X21.149 Y230.023
N9910G01 X22.719 Y230.343
N9920G01 X24.206 Y230.86
N9930G01 X25.598 Y231.559
N9940G01 X26.885 Y232.427
N9950G01 X28.048 Y233.451
N9960G01 X29.072 Y234.614
N9970G01 X29.94 Y235.9
N9980G01 X30.639 Y237.294
N9990G01 X31.156 Y238.78
N10000G01 X31.476 Y240.35
N10010G01 X31.587 Y242
N10020G01 X31.476 Y243.649
N10030G01 X31.156 Y245.219
N10040G01 X30.639 Y246.706
N10050G01 X29.94 Y248.098
N10060G01 X29.071 Y249.385
N10070G01 X28.048 Y250.548
N10080G01 X26.884 Y251.572
N10090G01 X25.599 Y252.44
N10100G01 X24.205 Y253.139
N10110G01 X22.719 Y253.656
N10120G01 X21.149 Y253.976
N10130G01 X19.499 Y254.087
N10140G01 X17.85 Y253.976
N10150G01 X16.28 Y253.656
N10160G01 X14.794 Y253.139
N10170G01 X13.4 Y252.44
N10180G01 X12.115 Y251.572
N10190G01 X10.951 Y250.547
N10200G01 X9.928 Y249.385
N10210G01 X9.059 Y248.098
N10220G01 X8.36 Y246.706
N10230G01 X7.843 Y245.219
N10240G01 X7.523 Y243.649
N10250G01 X7.412 Y242
N10260G01 X7.523 Y240.35
N10270G01 X7.843 Y238.78
N10280G01 X8.36 Y237.294
N10290G01 X9.059 Y235.9
N10300G01 X9.927 Y234.614
N10310G01 X10.951 Y233.451
N10320G01 X12.115 Y232.427
N10330G01 X13.4 Y231.559
N10340G01 X14.793 Y230.86
N10350G01 X16.28 Y230.343
N10360G01 X17.85 Y230.023
N10370G01 X17.669 Y228.682
N10380G01 X19.499 Y228.559
N10390G01 X21.33 Y228.682
N10400G01 X23.077 Y229.039
N10410G01 X24.732 Y229.614
N10420G01 X26.282 Y230.391
N10430G01 X27.712 Y231.357
N10440G01 X29.004 Y232.495
N10450G01 X30.142 Y233.787
N10460G01 X31.108 Y235.217
N10470G01 X31.886 Y236.767
N10480G01 X32.46 Y238.422
N10490G01 X32.817 Y240.169
N10500G01 X32.94 Y242
N10510G01 X32.817 Y243.83
N10520G01 X32.46 Y245.577
N10530G01 X31.885 Y247.232
N10540G01 X31.108 Y248.782
N10550G01 X30.142 Y250.212
N10560G01 X29.004 Y251.504
N10570G01 X27.712 Y252.642
N10580G01 X26.282 Y253.608
N10590G01 X24.732 Y254.386
N10600G01 X23.077 Y254.96
N10610G01 X21.33 Y255.317
N10620G01 X19.499 Y255.44
N10630G01 X17.669 Y255.317
N10640G01 X15.922 Y254.96
N10650G01 X14.267 Y254.386
N10660G01 X12.717 Y253.608
N10670G01 X11.288 Y252.642
N10680G01 X9.994 Y251.504
N10690G01 X8.857 Y250.212
N10700G01 X7.891 Y248.782
N10710G01 X7.114 Y247.232
N10720G01 X6.539 Y245.577
N10730G01 X6.182 Y243.83
N10740G01 X6.059 Y242
N10750G01 X6.182 Y240.169
N10760G01 X6.539 Y238.422
N10770G01 X7.113 Y236.767
N10780G01 X7.891 Y235.217
N10790G01 X8.857 Y233.787
N10800G01 X9.995 Y232.495
N10810G01 X11.287 Y231.357
N10820G01 X12.717 Y230.391
N10830G01 X14.267 Y229.614
N10840G01 X15.922 Y229.039
N10850G01 X17.669 Y228.682
N10860G01 X17.487 Y227.341
N10870G01 X19.499 Y227.206
N10880G01 X21.512 Y227.341
N10890G01 X23.435 Y227.734
N10900G01 X25.258 Y228.367
N10910G01 X26.965 Y229.224
N10920G01 X28.539 Y230.287
N10930G01 X29.961 Y231.538
N10940G01 X31.212 Y232.96
N10950G01 X32.275 Y234.534
N10960G01 X33.132 Y236.241
N10970G01 X33.765 Y238.064
N10980G01 X34.158 Y239.987
N10990G01 X34.293 Y242
N11000G01 X34.158 Y244.012
N11010G01 X33.765 Y245.935
N11020G01 X33.132 Y247.758
N11030G01 X32.275 Y249.465
N11040G01 X31.212 Y251.039
N11050G01 X29.961 Y252.461
N11060G01 X28.539 Y253.713
N11070G01 X26.966 Y254.775
N11080G01 X25.258 Y255.632
N11090G01 X23.435 Y256.265
N11100G01 X21.512 Y256.658
N11110G01 X19.499 Y256.793
N11120G01 X17.487 Y256.658
N11130G01 X15.564 Y256.265
N11140G01 X13.741 Y255.632
N11150G01 X12.033 Y254.775
N11160G01 X10.46 Y253.713
N11170G01 X9.038 Y252.461
N11180G01 X7.787 Y251.039
N11190G01 X6.724 Y249.465
N11200G01 X5.867 Y247.758
N11210G01 X5.234 Y245.935
N11220G01 X4.841 Y244.012
N11230G01 X4.706 Y242
N11240G01 X4.841 Y239.987
N11250G01 X5.234 Y238.064
N11260G01 X5.867 Y236.241
N11270G01 X6.724 Y234.534
N11280G01 X7.787 Y232.96
N11290G01 X9.038 Y231.538
N11300G01 X10.46 Y230.287
N11310G01 X12.034 Y229.224
N11320G01 X13.741 Y228.367
N11330G01 X15.564 Y227.734
N11340G01 X17.487 Y227.341
N11350G01 X17.306 Y226
N11360G01 X19.499 Y225.853
N11370G01 X21.693 Y226
N11380G01 X23.794 Y226.429
N11390G01 X25.785 Y227.121
N11400G01 X27.649 Y228.056
N11410G01 X29.366 Y229.216
N11420G01 X30.917 Y230.582
N11430G01 X32.283 Y232.133
N11440G01 X33.443 Y233.85
N11450G01 X34.378 Y235.714
N11460G01 X35.07 Y237.706
N11470G01 X35.499 Y239.806
N11480G01 X35.646 Y242
N11490G01 X35.499 Y244.193
N11500G01 X35.07 Y246.294
N11510G01 X34.378 Y248.285
N11520G01 X33.443 Y250.149
N11530G01 X32.283 Y251.866
N11540G01 X30.917 Y253.417
N11550G01 X29.366 Y254.783
N11560G01 X27.649 Y255.943
N11570G01 X25.785 Y256.878
N11580G01 X23.794 Y257.57
N11590G01 X21.693 Y257.999
N11600G01 X19.499 Y258.146
N11610G01 X17.306 Y257.999
N11620G01 X15.205 Y257.57
N11630G01 X13.214 Y256.878
N11640G01 X11.35 Y255.943
N11650G01 X9.633 Y254.783
N11660G01 X8.082 Y253.417
N11670G01 X6.716 Y251.866
N11680G01 X5.556 Y250.149
N11690G01 X4.621 Y248.285
N11700G01 X3.929 Y246.294
N11710G01 X3.5 Y244.193
N11720G01 X3.353 Y242
N11730G01 X3.5 Y239.806
N11740G01 X3.929 Y237.706
N11750G01 X4.621 Y235.714
N11760G01 X5.556 Y233.85
N11770G01 X6.716 Y232.133
N11780G01 X8.082 Y230.582
N11790G01 X9.633 Y229.216
N11800G01 X11.35 Y228.056
N11810G01 X13.214 Y227.121
N11820G01 X15.205 Y226.429
N11830G01 X17.306 Y226
N11840 G00 Z19.999
N11850 G00 X19.3 Y240.749
N11860G01 Z-3 F500
N11870G01 X19.5 Y240.736 F1000
N11880G01 X19.699 Y240.749
N11890G01 X19.853 Y240.781
N11900G01 X19.994 Y240.83
N11910G01 X20.131 Y240.899
N11920G01 X20.267 Y240.991
N11930G01 X20.395 Y241.104
N11940G01 X20.508 Y241.232
N11950G01 X20.6 Y241.367
N11960G01 X20.669 Y241.505
N11970G01 X20.718 Y241.645
N11980G01 X20.749 Y241.8
N11990G01 X20.763 Y242
N12000G01 X20.749 Y242.199
N12010G01 X20.718 Y242.354
N12020G01 X20.669 Y242.494
N12030G01 X20.6 Y242.631
N12040G01 X20.508 Y242.767
N12050G01 X20.396 Y242.896
N12060G01 X20.267 Y243.008
N12070G01 X20.132 Y243.1
N12080G01 X19.994 Y243.169
N12090G01 X19.853 Y243.218
N12100G01 X19.699 Y243.25
N12110G01 X19.499 Y243.263
N12120G01 X19.3 Y243.25
N12130G01 X19.146 Y243.218
N12140G01 X19.005 Y243.169
N12150G01 X18.868 Y243.1
N12160G01 X18.732 Y243.009
N12170G01 X18.603 Y242.895
N12180G01 X18.491 Y242.768
N12190G01 X18.399 Y242.631
N12200G01 X18.33 Y242.494
N12210G01 X18.281 Y242.353
N12220G01 X18.25 Y242.199
N12230G01 X18.236 Y242
N12240G01 X18.25 Y241.8
N12250G01 X18.281 Y241.645
N12260G01 X18.33 Y241.505
N12270G01 X18.399 Y241.367
N12280G01 X18.491 Y241.232
N12290G01 X18.604 Y241.103
N12300G01 X18.732 Y240.99
N12310G01 X18.867 Y240.899
N12320G01 X19.005 Y240.83
N12330G01 X19.146 Y240.781
N12340G01 X19.3 Y240.749
N12350G01 X19.119 Y239.409
N12360G01 X19.499 Y239.383
N12370G01 X19.88 Y239.409
N12380G01 X20.212 Y239.476
N12390G01 X20.52 Y239.584
N12400G01 X20.815 Y239.731
N12410G01 X21.094 Y239.92
N12420G01 X21.352 Y240.147
N12430G01 X21.579 Y240.405
N12440G01 X21.768 Y240.684
N12450G01 X21.915 Y240.979
N12460G01 X22.023 Y241.287
N12470G01 X22.09 Y241.619
N12480G01 X22.116 Y242
N12490G01 X22.09 Y242.38
N12500G01 X22.023 Y242.712
N12510G01 X21.915 Y243.02
N12520G01 X21.768 Y243.315
N12530G01 X21.579 Y243.595
N12540G01 X21.352 Y243.852
N12550G01 X21.094 Y244.079
N12560G01 X20.815 Y244.268
N12570G01 X20.52 Y244.416
N12580G01 X20.211 Y244.523
N12590G01 X19.88 Y244.59
N12600G01 X19.499 Y244.616
N12610G01 X19.119 Y244.59
N12620G01 X18.787 Y244.523
N12630G01 X18.479 Y244.415
N12640G01 X18.184 Y244.268
N12650G01 X17.905 Y244.079
N12660G01 X17.647 Y243.852
N12670G01 X17.42 Y243.595
N12680G01 X17.231 Y243.315
N12690G01 X17.084 Y243.02
N12700G01 X16.976 Y242.712
N12710G01 X16.909 Y242.38
N12720G01 X16.883 Y242
N12730G01 X16.909 Y241.619
N12740G01 X16.976 Y241.287
N12750G01 X17.084 Y240.979
N12760G01 X17.231 Y240.684
N12770G01 X17.42 Y240.405
N12780G01 X17.647 Y240.147
N12790G01 X17.905 Y239.92
N12800G01 X18.184 Y239.732
N12810G01 X18.479 Y239.584
N12820G01 X18.787 Y239.476
N12830G01 X19.119 Y239.409
N12840G01 X18.938 Y238.068
N12850G01 X19.499 Y238.03
N12860G01 X20.061 Y238.068
N12870G01 X20.57 Y238.172
N12880G01 X21.047 Y238.337
N12890G01 X21.498 Y238.564
N12900G01 X21.922 Y238.85
N12910G01 X22.309 Y239.19
N12920G01 X22.649 Y239.578
N12930G01 X22.935 Y240.001
N12940G01 X23.162 Y240.452
N12950G01 X23.327 Y240.929
N12960G01 X23.431 Y241.437
N12970G01 X23.469 Y242
N12980G01 X23.431 Y242.562
N12990G01 X23.327 Y243.07
N13000G01 X23.162 Y243.547
N13010G01 X22.935 Y243.998
N13020G01 X22.649 Y244.422
N13030G01 X22.309 Y244.808
N13040G01 X21.921 Y245.149
N13050G01 X21.498 Y245.435
N13060G01 X21.046 Y245.662
N13070G01 X20.57 Y245.827
N13080G01 X20.061 Y245.931
N13090G01 X19.499 Y245.969
N13100G01 X18.938 Y245.931
N13110G01 X18.429 Y245.827
N13120G01 X17.952 Y245.662
N13130G01 X17.501 Y245.435
N13140G01 X17.078 Y245.15
N13150G01 X16.69 Y244.808
N13160G01 X16.35 Y244.422
N13170G01 X16.064 Y243.998
N13180G01 X15.837 Y243.547
N13190G01 X15.672 Y243.07
N13200G01 X15.568 Y242.562
N13210G01 X15.53 Y242
N13220G01 X15.568 Y241.437
N13230G01 X15.672 Y240.929
N13240G01 X15.837 Y240.452
N13250G01 X16.064 Y240.001
N13260G01 X16.35 Y239.577
N13270G01 X16.691 Y239.19
N13280G01 X17.078 Y238.85
N13290G01 X17.501 Y238.564
N13300G01 X17.952 Y238.337
N13310G01 X18.429 Y238.172
N13320G01 X18.938 Y238.068
N13330G01 X18.757 Y236.727
N13340G01 X19.499 Y236.677
N13350G01 X20.243 Y236.727
N13360G01 X20.928 Y236.867
N13370G01 X21.573 Y237.091
N13380G01 X22.182 Y237.396
N13390G01 X22.749 Y237.779
N13400G01 X23.265 Y238.234
N13410G01 X23.72 Y238.75
N13420G01 X24.103 Y239.317
N13430G01 X24.408 Y239.926
N13440G01 X24.632 Y240.571
N13450G01 X24.772 Y241.256
N13460G01 X24.822 Y242
N13470G01 X24.772 Y242.743
N13480G01 X24.632 Y243.428
N13490G01 X24.408 Y244.073
N13500G01 X24.103 Y244.682
N13510G01 X23.719 Y245.249
N13520G01 X23.265 Y245.765
N13530G01 X22.749 Y246.22
N13540G01 X22.182 Y246.603
N13550G01 X21.573 Y246.908
N13560G01 X20.928 Y247.132
N13570G01 X20.243 Y247.272
N13580G01 X19.499 Y247.322
N13590G01 X18.756 Y247.272
N13600G01 X18.071 Y247.132
N13610G01 X17.426 Y246.908
N13620G01 X16.817 Y246.603
N13630G01 X16.251 Y246.22
N13640G01 X15.734 Y245.765
N13650G01 X15.28 Y245.249
N13660G01 X14.896 Y244.682
N13670G01 X14.591 Y244.073
N13680G01 X14.367 Y243.428
N13690G01 X14.227 Y242.743
N13700G01 X14.177 Y242
N13710G01 X14.227 Y241.256
N13720G01 X14.367 Y240.571
N13730G01 X14.591 Y239.926
N13740G01 X14.896 Y239.317
N13750G01 X15.279 Y238.75
N13760G01 X15.734 Y238.234
N13770G01 X16.25 Y237.779
N13780G01 X16.817 Y237.396
N13790G01 X17.426 Y237.091
N13800G01 X18.071 Y236.867
N13810G01 X18.757 Y236.727
N13820G01 X18.575 Y235.386
N13830G01 X19.499 Y235.324
N13840G01 X20.424 Y235.386
N13850G01 X21.286 Y235.562
N13860G01 X22.1 Y235.845
N13870G01 X22.865 Y236.229
N13880G01 X23.576 Y236.709
N13890G01 X24.222 Y237.277
N13900G01 X24.79 Y237.923
N13910G01 X25.27 Y238.634
N13920G01 X25.654 Y239.399
N13930G01 X25.937 Y240.213
N13940G01 X26.113 Y241.075
N13950G01 X26.175 Y242
N13960G01 X26.113 Y242.924
N13970G01 X25.937 Y243.786
N13980G01 X25.654 Y244.6
N13990G01 X25.27 Y245.365
N14000G01 X24.79 Y246.076
N14010G01 X24.222 Y246.721
N14020G01 X23.576 Y247.29
N14030G01 X22.865 Y247.77
N14040G01 X22.1 Y248.154
N14050G01 X21.286 Y248.437
N14060G01 X20.424 Y248.613
N14070G01 X19.499 Y248.675
N14080G01 X18.575 Y248.613
N14090G01 X17.713 Y248.437
N14100G01 X16.899 Y248.154
N14110G01 X16.134 Y247.77
N14120G01 X15.423 Y247.29
N14130G01 X14.777 Y246.721
N14140G01 X14.209 Y246.076
N14150G01 X13.729 Y245.365
N14160G01 X13.345 Y244.6
N14170G01 X13.062 Y243.786
N14180G01 X12.886 Y242.924
N14190G01 X12.824 Y242
N14200G01 X12.886 Y241.075
N14210G01 X13.062 Y240.213
N14220G01 X13.345 Y239.399
N14230G01 X13.729 Y238.634
N14240G01 X14.209 Y237.923
N14250G01 X14.777 Y237.277
N14260G01 X15.423 Y236.709
N14270G01 X16.134 Y236.229
N14280G01 X16.899 Y235.845
N14290G01 X17.713 Y235.562
N14300G01 X18.575 Y235.386
N14310G01 X18.394 Y234.045
N14320G01 X19.499 Y233.971
N14330G01 X20.605 Y234.045
N14340G01 X21.644 Y234.258
N14350G01 X22.626 Y234.599
N14360G01 X23.548 Y235.061
N14370G01 X24.403 Y235.639
N14380G01 X25.178 Y236.321
N14390G01 X25.86 Y237.096
N14400G01 X26.438 Y237.951
N14410G01 X26.9 Y238.873
N14420G01 X27.241 Y239.855
N14430G01 X27.454 Y240.894
N14440G01 X27.528 Y242
N14450G01 X27.454 Y243.105
N14460G01 X27.241 Y244.144
N14470G01 X26.9 Y245.126
N14480G01 X26.438 Y246.048
N14490G01 X25.86 Y246.903
N14500G01 X25.178 Y247.678
N14510G01 X24.403 Y248.361
N14520G01 X23.549 Y248.938
N14530G01 X22.626 Y249.401
N14540G01 X21.644 Y249.742
N14550G01 X20.605 Y249.954
N14560G01 X19.499 Y250.028
N14570G01 X18.394 Y249.954
N14580G01 X17.355 Y249.742
N14590G01 X16.373 Y249.4
N14600G01 X15.45 Y248.938
N14610G01 X14.596 Y248.361
N14620G01 X13.82 Y247.678
N14630G01 X13.139 Y246.903
N14640G01 X12.561 Y246.048
N14650G01 X12.099 Y245.126
N14660G01 X11.758 Y244.144
N14670G01 X11.545 Y243.105
N14680G01 X11.471 Y242
N14690G01 X11.545 Y240.894
N14700G01 X11.758 Y239.855
N14710G01 X12.098 Y238.873
N14720G01 X12.561 Y237.951
N14730G01 X13.139 Y237.096
N14740G01 X13.821 Y236.321
N14750G01 X14.596 Y235.639
N14760G01 X15.451 Y235.061
N14770G01 X16.373 Y234.599
N14780G01 X17.355 Y234.258
N14790G01 X18.394 Y234.045
N14800G01 X18.213 Y232.704
N14810G01 X19.499 Y232.618
N14820G01 X20.786 Y232.704
N14830G01 X22.003 Y232.953
N14840G01 X23.153 Y233.352
N14850G01 X24.232 Y233.894
N14860G01 X25.23 Y234.568
N14870G01 X26.135 Y235.364
N14880G01 X26.931 Y236.269
N14890G01 X27.605 Y237.267
N14900G01 X28.147 Y238.347
N14910G01 X28.546 Y239.496
N14920G01 X28.795 Y240.712
N14930G01 X28.881 Y242
N14940G01 X28.795 Y243.287
N14950G01 X28.546 Y244.503
N14960G01 X28.147 Y245.653
N14970G01 X27.605 Y246.732
N14980G01 X26.931 Y247.73
N14990G01 X26.135 Y248.635
N15000G01 X25.23 Y249.431
N15010G01 X24.232 Y250.105
N15020G01 X23.152 Y250.647
N15030G01 X22.002 Y251.046
N15040G01 X20.787 Y251.295
N15050G01 X19.499 Y251.381
N15060G01 X18.212 Y251.295
N15070G01 X16.997 Y251.046
N15080G01 X15.846 Y250.647
N15090G01 X14.767 Y250.105
N15100G01 X13.769 Y249.431
N15110G01 X12.864 Y248.634
N15120G01 X12.068 Y247.731
N15130G01 X11.394 Y246.732
N15140G01 X10.852 Y245.653
N15150G01 X10.453 Y244.503
N15160G01 X10.204 Y243.287
N15170G01 X10.118 Y242
N15180G01 X10.204 Y240.712
N15190G01 X10.453 Y239.496
N15200G01 X10.852 Y238.347
N15210G01 X11.394 Y237.267
N15220G01 X12.068 Y236.269
N15230G01 X12.864 Y235.364
N15240G01 X13.769 Y234.568
N15250G01 X14.767 Y233.894
N15260G01 X15.846 Y233.352
N15270G01 X16.996 Y232.953
N15280G01 X18.213 Y232.704
N15290G01 X18.031 Y231.363
N15300G01 X19.499 Y231.265
N15310G01 X20.968 Y231.363
N15320G01 X22.361 Y231.648
N15330G01 X23.679 Y232.106
N15340G01 X24.915 Y232.726
N15350G01 X26.057 Y233.498
N15360G01 X27.091 Y234.408
N15370G01 X28.001 Y235.442
N15380G01 X28.773 Y236.584
N15390G01 X29.393 Y237.82
N15400G01 X29.851 Y239.138
N15410G01 X30.135 Y240.531
N15420G01 X30.234 Y242
N15430G01 X30.135 Y243.468
N15440G01 X29.851 Y244.861
N15450G01 X29.393 Y246.179
N15460G01 X28.773 Y247.415
N15470G01 X28.001 Y248.558
N15480G01 X27.091 Y249.591
N15490G01 X26.057 Y250.501
N15500G01 X24.915 Y251.273
N15510G01 X23.679 Y251.893
N15520G01 X22.361 Y252.351
N15530G01 X20.968 Y252.636
N15540G01 X19.499 Y252.734
N15550G01 X18.031 Y252.636
N15560G01 X16.638 Y252.351
N15570G01 X15.32 Y251.893
N15580G01 X14.084 Y251.273
N15590G01 X12.942 Y250.501
N15600G01 X11.907 Y249.591
N15610G01 X10.998 Y248.558
N15620G01 X10.226 Y247.415
N15630G01 X9.606 Y246.179
N15640G01 X9.148 Y244.861
N15650G01 X8.864 Y243.468
N15660G01 X8.765 Y242
N15670G01 X8.864 Y240.531
N15680G01 X9.148 Y239.138
N15690G01 X9.606 Y237.82
N15700G01 X10.226 Y236.584
N15710G01 X10.998 Y235.442
N15720G01 X11.908 Y234.408
N15730G01 X12.942 Y233.498
N15740G01 X14.084 Y232.726
N15750G01 X15.32 Y232.106
N15760G01 X16.638 Y231.648
N15770G01 X18.031 Y231.363
N15780G01 X17.85 Y230.023
N15790G01 X19.499 Y229.912
N15800G01 X21.149 Y230.023
N15810G01 X22.719 Y230.343
N15820G01 X24.206 Y230.86
N15830G01 X25.598 Y231.559
N15840G01 X26.885 Y232.427
N15850G01 X28.048 Y233.451
N15860G01 X29.072 Y234.614
N15870G01 X29.94 Y235.9
N15880G01 X30.639 Y237.294
N15890G01 X31.156 Y238.78
N15900G01 X31.476 Y240.35
N15910G01 X31.587 Y242
N15920G01 X31.476 Y243.649
N15930G01 X31.156 Y245.219
N15940G01 X30.639 Y246.706
N15950G01 X29.94 Y248.098
N15960G01 X29.071 Y249.385
N15970G01 X28.048 Y250.548
N15980G01 X26.884 Y251.572
N15990G01 X25.599 Y252.44
N16000G01 X24.205 Y253.139
N16010G01 X22.719 Y253.656
N16020G01 X21.149 Y253.976
N16030G01 X19.499 Y254.087
N16040G01 X17.85 Y253.976
N16050G01 X16.28 Y253.656
N16060G01 X14.794 Y253.139
N16070G01 X13.4 Y252.44
N16080G01 X12.115 Y251.572
N16090G01 X10.951 Y250.547
N16100G01 X9.928 Y249.385
N16110G01 X9.059 Y248.098
N16120G01 X8.36 Y246.706
N16130G01 X7.843 Y245.219
N16140G01 X7.523 Y243.649
N16150G01 X7.412 Y242
N16160G01 X7.523 Y240.35
N16170G01 X7.843 Y238.78
N16180G01 X8.36 Y237.294
N16190G01 X9.059 Y235.9
N16200G01 X9.927 Y234.614
N16210G01 X10.951 Y233.451
N16220G01 X12.115 Y232.427
N16230G01 X13.4 Y231.559
N16240G01 X14.793 Y230.86
N16250G01 X16.28 Y230.343
N16260G01 X17.85 Y230.023
N16270G01 X17.669 Y228.682
N16280G01 X19.499 Y228.559
N16290G01 X21.33 Y228.682
N16300G01 X23.077 Y229.039
N16310G01 X24.732 Y229.614
N16320G01 X26.282 Y230.391
N16330G01 X27.712 Y231.357
N16340G01 X29.004 Y232.495
N16350G01 X30.142 Y233.787
N16360G01 X31.108 Y235.217
N16370G01 X31.886 Y236.767
N16380G01 X32.46 Y238.422
N16390G01 X32.817 Y240.169
N16400G01 X32.94 Y242
N16410G01 X32.817 Y243.83
N16420G01 X32.46 Y245.577
N16430G01 X31.885 Y247.232
N16440G01 X31.108 Y248.782
N16450G01 X30.142 Y250.212
N16460G01 X29.004 Y251.504
N16470G01 X27.712 Y252.642
N16480G01 X26.282 Y253.608
N16490G01 X24.732 Y254.386
N16500G01 X23.077 Y254.96
N16510G01 X21.33 Y255.317
N16520G01 X19.499 Y255.44
N16530G01 X17.669 Y255.317
N16540G01 X15.922 Y254.96
N16550G01 X14.267 Y254.386
N16560G01 X12.717 Y253.608
N16570G01 X11.288 Y252.642
N16580G01 X9.994 Y251.504
N16590G01 X8.857 Y250.212
N16600G01 X7.891 Y248.782
N16610G01 X7.114 Y247.232
N16620G01 X6.539 Y245.577
N16630G01 X6.182 Y243.83
N16640G01 X6.059 Y242
N16650G01 X6.182 Y240.169
N16660G01 X6.539 Y238.422
N16670G01 X7.113 Y236.767
N16680G01 X7.891 Y235.217
N16690G01 X8.857 Y233.787
N16700G01 X9.995 Y232.495
N16710G01 X11.287 Y231.357
N16720G01 X12.717 Y230.391
N16730G01 X14.267 Y229.614
N16740G01 X15.922 Y229.039
N16750G01 X17.669 Y228.682
N16760G01 X17.487 Y227.341
N16770G01 X19.499 Y227.206
N16780G01 X21.512 Y227.341
N16790G01 X23.435 Y227.734
N16800G01 X25.258 Y228.367
N16810G01 X26.965 Y229.224
N16820G01 X28.539 Y230.287
N16830G01 X29.961 Y231.538
N16840G01 X31.212 Y232.96
N16850G01 X32.275 Y234.534
N16860G01 X33.132 Y236.241
N16870G01 X33.765 Y238.064
N16880G01 X34.158 Y239.987
N16890G01 X34.293 Y242
N16900G01 X34.158 Y244.012
N16910G01 X33.765 Y245.935
N16920G01 X33.132 Y247.758
N16930G01 X32.275 Y249.465
N16940G01 X31.212 Y251.039
N16950G01 X29.961 Y252.461
N16960G01 X28.539 Y253.713
N16970G01 X26.966 Y254.775
N16980G01 X25.258 Y255.632
N16990G01 X23.435 Y256.265
N17000G01 X21.512 Y256.658
N17010G01 X19.499 Y256.793
N17020G01 X17.487 Y256.658
N17030G01 X15.564 Y256.265
N17040G01 X13.741 Y255.632
N17050G01 X12.033 Y254.775
N17060G01 X10.46 Y253.713
N17070G01 X9.038 Y252.461
N17080G01 X7.787 Y251.039
N17090G01 X6.724 Y249.465
N17100G01 X5.867 Y247.758
N17110G01 X5.234 Y245.935
N17120G01 X4.841 Y244.012
N17130G01 X4.706 Y242
N17140G01 X4.841 Y239.987
N17150G01 X5.234 Y238.064
N17160G01 X5.867 Y236.241
N17170G01 X6.724 Y234.534
N17180G01 X7.787 Y232.96
N17190G01 X9.038 Y231.538
N17200G01 X10.46 Y230.287
N17210G01 X12.034 Y229.224
N17220G01 X13.741 Y228.367
N17230G01 X15.564 Y227.734
N17240G01 X17.487 Y227.341
N17250G01 X17.306 Y226
N17260G01 X19.499 Y225.853
N17270G01 X21.693 Y226
N17280G01 X23.794 Y226.429
N17290G01 X25.785 Y227.121
N17300G01 X27.649 Y228.056
N17310G01 X29.366 Y229.216
N17320G01 X30.917 Y230.582
N17330G01 X32.283 Y232.133
N17340G01 X33.443 Y233.85
N17350G01 X34.378 Y235.714
N17360G01 X35.07 Y237.706
N17370G01 X35.499 Y239.806
N17380G01 X35.646 Y242
N17390G01 X35.499 Y244.193
N17400G01 X35.07 Y246.294
N17410G01 X34.378 Y248.285
N17420G01 X33.443 Y250.149
N17430G01 X32.283 Y251.866
N17440G01 X30.917 Y253.417
N17450G01 X29.366 Y254.783
N17460G01 X27.649 Y255.943
N17470G01 X25.785 Y256.878
N17480G01 X23.794 Y257.57
N17490G01 X21.693 Y257.999
N17500G01 X19.499 Y258.146
N17510G01 X17.306 Y257.999
N17520G01 X15.205 Y257.57
N17530G01 X13.214 Y256.878
N17540G01 X11.35 Y255.943
N17550G01 X9.633 Y254.783
N17560G01 X8.082 Y253.417
N17570G01 X6.716 Y251.866
N17580G01 X5.556 Y250.149
N17590G01 X4.621 Y248.285
N17600G01 X3.929 Y246.294
N17610G01 X3.5 Y244.193
N17620G01 X3.353 Y242
N17630G01 X3.5 Y239.806
N17640G01 X3.929 Y237.706
N17650G01 X4.621 Y235.714
N17660G01 X5.556 Y233.85
N17670G01 X6.716 Y232.133
N17680G01 X8.082 Y230.582
N17690G01 X9.633 Y229.216
N17700G01 X11.35 Y228.056
N17710G01 X13.214 Y227.121
N17720G01 X15.205 Y226.429
N17730G01 X17.306 Y226
N17740 G00 Z19.999
N17750 G00 X19.3 Y240.749
N17760G01 Z-4 F500
N17770G01 X19.5 Y240.736 F1000
N17780G01 X19.699 Y240.749
N17790G01 X19.853 Y240.781
N17800G01 X19.994 Y240.83
N17810G01 X20.131 Y240.899
N17820G01 X20.267 Y240.991
N17830G01 X20.395 Y241.104
N17840G01 X20.508 Y241.232
N17850G01 X20.6 Y241.367
N17860G01 X20.669 Y241.505
N17870G01 X20.718 Y241.645
N17880G01 X20.749 Y241.8
N17890G01 X20.763 Y242
N17900G01 X20.749 Y242.199
N17910G01 X20.718 Y242.354
N17920G01 X20.669 Y242.494
N17930G01 X20.6 Y242.631
N17940G01 X20.508 Y242.767
N17950G01 X20.396 Y242.896
N17960G01 X20.267 Y243.008
N17970G01 X20.132 Y243.1
N17980G01 X19.994 Y243.169
N17990G01 X19.853 Y243.218
N18000G01 X19.699 Y243.25
N18010G01 X19.499 Y243.263
N18020G01 X19.3 Y243.25
N18030G01 X19.146 Y243.218
N18040G01 X19.005 Y243.169
N18050G01 X18.868 Y243.1
N18060G01 X18.732 Y243.009
N18070G01 X18.603 Y242.895
N18080G01 X18.491 Y242.768
N18090G01 X18.399 Y242.631
N18100G01 X18.33 Y242.494
N18110G01 X18.281 Y242.353
N18120G01 X18.25 Y242.199
N18130G01 X18.236 Y242
N18140G01 X18.25 Y241.8
N18150G01 X18.281 Y241.645
N18160G01 X18.33 Y241.505
N18170G01 X18.399 Y241.367
N18180G01 X18.491 Y241.232
N18190G01 X18.604 Y241.103
N18200G01 X18.732 Y240.99
N18210G01 X18.867 Y240.899
N18220G01 X19.005 Y240.83
N18230G01 X19.146 Y240.781
N18240G01 X19.3 Y240.749
N18250G01 X19.119 Y239.409
N18260G01 X19.499 Y239.383
N18270G01 X19.88 Y239.409
N18280G01 X20.212 Y239.476
N18290G01 X20.52 Y239.584
N18300G01 X20.815 Y239.731
N18310G01 X21.094 Y239.92
N18320G01 X21.352 Y240.147
N18330G01 X21.579 Y240.405
N18340G01 X21.768 Y240.684
N18350G01 X21.915 Y240.979
N18360G01 X22.023 Y241.287
N18370G01 X22.09 Y241.619
N18380G01 X22.116 Y242
N18390G01 X22.09 Y242.38
N18400G01 X22.023 Y242.712
N18410G01 X21.915 Y243.02
N18420G01 X21.768 Y243.315
N18430G01 X21.579 Y243.595
N18440G01 X21.352 Y243.852
N18450G01 X21.094 Y244.079
N18460G01 X20.815 Y244.268
N18470G01 X20.52 Y244.416
N18480G01 X20.211 Y244.523
N18490G01 X19.88 Y244.59
N18500G01 X19.499 Y244.616
N18510G01 X19.119 Y244.59
N18520G01 X18.787 Y244.523
N18530G01 X18.479 Y244.415
N18540G01 X18.184 Y244.268
N18550G01 X17.905 Y244.079
N18560G01 X17.647 Y243.852
N18570G01 X17.42 Y243.595
N18580G01 X17.231 Y243.315
N18590G01 X17.084 Y243.02
N18600G01 X16.976 Y242.712
N18610G01 X16.909 Y242.38
N18620G01 X16.883 Y242
N18630G01 X16.909 Y241.619
N18640G01 X16.976 Y241.287
N18650G01 X17.084 Y240.979
N18660G01 X17.231 Y240.684
N18670G01 X17.42 Y240.405
N18680G01 X17.647 Y240.147
N18690G01 X17.905 Y239.92
N18700G01 X18.184 Y239.732
N18710G01 X18.479 Y239.584
N18720G01 X18.787 Y239.476
N18730G01 X19.119 Y239.409
N18740G01 X18.938 Y238.068
N18750G01 X19.499 Y238.03
N18760G01 X20.061 Y238.068
N18770G01 X20.57 Y238.172
N18780G01 X21.047 Y238.337
N18790G01 X21.498 Y238.564
N18800G01 X21.922 Y238.85
N18810G01 X22.309 Y239.19
N18820G01 X22.649 Y239.578
N18830G01 X22.935 Y240.001
N18840G01 X23.162 Y240.452
N18850G01 X23.327 Y240.929
N18860G01 X23.431 Y241.437
N18870G01 X23.469 Y242
N18880G01 X23.431 Y242.562
N18890G01 X23.327 Y243.07
N18900G01 X23.162 Y243.547
N18910G01 X22.935 Y243.998
N18920G01 X22.649 Y244.422
N18930G01 X22.309 Y244.808
N18940G01 X21.921 Y245.149
N18950G01 X21.498 Y245.435
N18960G01 X21.046 Y245.662
N18970G01 X20.57 Y245.827
N18980G01 X20.061 Y245.931
N18990G01 X19.499 Y245.969
N19000G01 X18.938 Y245.931
N19010G01 X18.429 Y245.827
N19020G01 X17.952 Y245.662
N19030G01 X17.501 Y245.435
N19040G01 X17.078 Y245.15
N19050G01 X16.69 Y244.808
N19060G01 X16.35 Y244.422
N19070G01 X16.064 Y243.998
N19080G01 X15.837 Y243.547
N19090G01 X15.672 Y243.07
N19100G01 X15.568 Y242.562
N19110G01 X15.53 Y242
N19120G01 X15.568 Y241.437
N19130G01 X15.672 Y240.929
N19140G01 X15.837 Y240.452
N19150G01 X16.064 Y240.001
N19160G01 X16.35 Y239.577
N19170G01 X16.691 Y239.19
N19180G01 X17.078 Y238.85
N19190G01 X17.501 Y238.564
N19200G01 X17.952 Y238.337
N19210G01 X18.429 Y238.172
N19220G01 X18.938 Y238.068
N19230G01 X18.757 Y236.727
N19240G01 X19.499 Y236.677
N19250G01 X20.243 Y236.727
N19260G01 X20.928 Y236.867
N19270G01 X21.573 Y237.091
N19280G01 X22.182 Y237.396
N19290G01 X22.749 Y237.779
N19300G01 X23.265 Y238.234
N19310G01 X23.72 Y238.75
N19320G01 X24.103 Y239.317
N19330G01 X24.408 Y239.926
N19340G01 X24.632 Y240.571
N19350G01 X24.772 Y241.256
N19360G01 X24.822 Y242
N19370G01 X24.772 Y242.743
N19380G01 X24.632 Y243.428
N19390G01 X24.408 Y244.073
N19400G01 X24.103 Y244.682
N19410G01 X23.719 Y245.249
N19420G01 X23.265 Y245.765
N19430G01 X22.749 Y246.22
N19440G01 X22.182 Y246.603
N19450G01 X21.573 Y246.908
N19460G01 X20.928 Y247.132
N19470G01 X20.243 Y247.272
N19480G01 X19.499 Y247.322
N19490G01 X18.756 Y247.272
N19500G01 X18.071 Y247.132
N19510G01 X17.426 Y246.908
N19520G01 X16.817 Y246.603
N19530G01 X16.251 Y246.22
N19540G01 X15.734 Y245.765
N19550G01 X15.28 Y245.249
N19560G01 X14.896 Y244.682
N19570G01 X14.591 Y244.073
N19580G01 X14.367 Y243.428
N19590G01 X14.227 Y242.743
N19600G01 X14.177 Y242
N19610G01 X14.227 Y241.256
N19620G01 X14.367 Y240.571
N19630G01 X14.591 Y239.926
N19640G01 X14.896 Y239.317
N19650G01 X15.279 Y238.75
N19660G01 X15.734 Y238.234
N19670G01 X16.25 Y237.779
N19680G01 X16.817 Y237.396
N19690G01 X17.426 Y237.091
N19700G01 X18.071 Y236.867
N19710G01 X18.757 Y236.727
N19720G01 X18.575 Y235.386
N19730G01 X19.499 Y235.324
N19740G01 X20.424 Y235.386
N19750G01 X21.286 Y235.562
N19760G01 X22.1 Y235.845
N19770G01 X22.865 Y236.229
N19780G01 X23.576 Y236.709
N19790G01 X24.222 Y237.277
N19800G01 X24.79 Y237.923
N19810G01 X25.27 Y238.634
N19820G01 X25.654 Y239.399
N19830G01 X25.937 Y240.213
N19840G01 X26.113 Y241.075
N19850G01 X26.175 Y242
N19860G01 X26.113 Y242.924
N19870G01 X25.937 Y243.786
N19880G01 X25.654 Y244.6
N19890G01 X25.27 Y245.365
N19900G01 X24.79 Y246.076
N19910G01 X24.222 Y246.721
N19920G01 X23.576 Y247.29
N19930G01 X22.865 Y247.77
N19940G01 X22.1 Y248.154
N19950G01 X21.286 Y248.437
N19960G01 X20.424 Y248.613
N19970G01 X19.499 Y248.675
N19980G01 X18.575 Y248.613
N19990G01 X17.713 Y248.437
N20000G01 X16.899 Y248.154
N20010G01 X16.134 Y247.77
N20020G01 X15.423 Y247.29
N20030G01 X14.777 Y246.721
N20040G01 X14.209 Y246.076
N20050G01 X13.729 Y245.365
N20060G01 X13.345 Y244.6
N20070G01 X13.062 Y243.786
N20080G01 X12.886 Y242.924
N20090G01 X12.824 Y242
N20100G01 X12.886 Y241.075
N20110G01 X13.062 Y240.213
N20120G01 X13.345 Y239.399
N20130G01 X13.729 Y238.634
N20140G01 X14.209 Y237.923
N20150G01 X14.777 Y237.277
N20160G01 X15.423 Y236.709
N20170G01 X16.134 Y236.229
N20180G01 X16.899 Y235.845
N20190G01 X17.713 Y235.562
N20200G01 X18.575 Y235.386
N20210G01 X18.394 Y234.045
N20220G01 X19.499 Y233.971
N20230G01 X20.605 Y234.045
N20240G01 X21.644 Y234.258
N20250G01 X22.626 Y234.599
N20260G01 X23.548 Y235.061
N20270G01 X24.403 Y235.639
N20280G01 X25.178 Y236.321
N20290G01 X25.86 Y237.096
N20300G01 X26.438 Y237.951
N20310G01 X26.9 Y238.873
N20320G01 X27.241 Y239.855
N20330G01 X27.454 Y240.894
N20340G01 X27.528 Y242
N20350G01 X27.454 Y243.105
N20360G01 X27.241 Y244.144
N20370G01 X26.9 Y245.126
N20380G01 X26.438 Y246.048
N20390G01 X25.86 Y246.903
N20400G01 X25.178 Y247.678
N20410G01 X24.403 Y248.361
N20420G01 X23.549 Y248.938
N20430G01 X22.626 Y249.401
N20440G01 X21.644 Y249.742
N20450G01 X20.605 Y249.954
N20460G01 X19.499 Y250.028
N20470G01 X18.394 Y249.954
N20480G01 X17.355 Y249.742
N20490G01 X16.373 Y249.4
N20500G01 X15.45 Y248.938
N20510G01 X14.596 Y248.361
N20520G01 X13.82 Y247.678
N20530G01 X13.139 Y246.903
N20540G01 X12.561 Y246.048
N20550G01 X12.099 Y245.126
N20560G01 X11.758 Y244.144
N20570G01 X11.545 Y243.105
N20580G01 X11.471 Y242
N20590G01 X11.545 Y240.894
N20600G01 X11.758 Y239.855
N20610G01 X12.098 Y238.873
N20620G01 X12.561 Y237.951
N20630G01 X13.139 Y237.096
N20640G01 X13.821 Y236.321
N20650G01 X14.596 Y235.639
N20660G01 X15.451 Y235.061
N20670G01 X16.373 Y234.599
N20680G01 X17.355 Y234.258
N20690G01 X18.394 Y234.045
N20700G01 X18.213 Y232.704
N20710G01 X19.499 Y232.618
N20720G01 X20.786 Y232.704
N20730G01 X22.003 Y232.953
N20740G01 X23.153 Y233.352
N20750G01 X24.232 Y233.894
N20760G01 X25.23 Y234.568
N20770G01 X26.135 Y235.364
N20780G01 X26.931 Y236.269
N20790G01 X27.605 Y237.267
N20800G01 X28.147 Y238.347
N20810G01 X28.546 Y239.496
N20820G01 X28.795 Y240.712
N20830G01 X28.881 Y242
N20840G01 X28.795 Y243.287
N20850G01 X28.546 Y244.503
N20860G01 X28.147 Y245.653
N20870G01 X27.605 Y246.732
N20880G01 X26.931 Y247.73
N20890G01 X26.135 Y248.635
N20900G01 X25.23 Y249.431
N20910G01 X24.232 Y250.105
N20920G01 X23.152 Y250.647
N20930G01 X22.002 Y251.046
N20940G01 X20.787 Y251.295
N20950G01 X19.499 Y251.381
N20960G01 X18.212 Y251.295
N20970G01 X16.997 Y251.046
N20980G01 X15.846 Y250.647
N20990G01 X14.767 Y250.105
N21000G01 X13.769 Y249.431
N21010G01 X12.864 Y248.634
N21020G01 X12.068 Y247.731
N21030G01 X11.394 Y246.732
N21040G01 X10.852 Y245.653
N21050G01 X10.453 Y244.503
N21060G01 X10.204 Y243.287
N21070G01 X10.118 Y242
N21080G01 X10.204 Y240.712
N21090G01 X10.453 Y239.496
N21100G01 X10.852 Y238.347
N21110G01 X11.394 Y237.267
N21120G01 X12.068 Y236.269
N21130G01 X12.864 Y235.364
N21140G01 X13.769 Y234.568
N21150G01 X14.767 Y233.894
N21160G01 X15.846 Y233.352
N21170G01 X16.996 Y232.953
N21180G01 X18.213 Y232.704
N21190G01 X18.031 Y231.363
N21200G01 X19.499 Y231.265
N21210G01 X20.968 Y231.363
N21220G01 X22.361 Y231.648
N21230G01 X23.679 Y232.106
N21240G01 X24.915 Y232.726
N21250G01 X26.057 Y233.498
N21260G01 X27.091 Y234.408
N21270G01 X28.001 Y235.442
N21280G01 X28.773 Y236.584
N21290G01 X29.393 Y237.82
N21300G01 X29.851 Y239.138
N21310G01 X30.135 Y240.531
N21320G01 X30.234 Y242
N21330G01 X30.135 Y243.468
N21340G01 X29.851 Y244.861
N21350G01 X29.393 Y246.179
N21360G01 X28.773 Y247.415
N21370G01 X28.001 Y248.558
N21380G01 X27.091 Y249.591
N21390G01 X26.057 Y250.501
N21400G01 X24.915 Y251.273
N21410G01 X23.679 Y251.893
N21420G01 X22.361 Y252.351
N21430G01 X20.968 Y252.636
N21440G01 X19.499 Y252.734
N21450G01 X18.031 Y252.636
N21460G01 X16.638 Y252.351
N21470G01 X15.32 Y251.893
N21480G01 X14.084 Y251.273
N21490G01 X12.942 Y250.501
N21500G01 X11.907 Y249.591
N21510G01 X10.998 Y248.558
N21520G01 X10.226 Y247.415
N21530G01 X9.606 Y246.179
N21540G01 X9.148 Y244.861
N21550G01 X8.864 Y243.468
N21560G01 X8.765 Y242
N21570G01 X8.864 Y240.531
N21580G01 X9.148 Y239.138
N21590G01 X9.606 Y237.82
N21600G01 X10.226 Y236.584
N21610G01 X10.998 Y235.442
N21620G01 X11.908 Y234.408
N21630G01 X12.942 Y233.498
N21640G01 X14.084 Y232.726
N21650G01 X15.32 Y232.106
N21660G01 X16.638 Y231.648
N21670G01 X18.031 Y231.363
N21680G01 X17.85 Y230.023
N21690G01 X19.499 Y229.912
N21700G01 X21.149 Y230.023
N21710G01 X22.719 Y230.343
N21720G01 X24.206 Y230.86
N21730G01 X25.598 Y231.559
N21740G01 X26.885 Y232.427
N21750G01 X28.048 Y233.451
N21760G01 X29.072 Y234.614
N21770G01 X29.94 Y235.9
N21780G01 X30.639 Y237.294
N21790G01 X31.156 Y238.78
N21800G01 X31.476 Y240.35
N21810G01 X31.587 Y242
N21820G01 X31.476 Y243.649
N21830G01 X31.156 Y245.219
N21840G01 X30.639 Y246.706
N21850G01 X29.94 Y248.098
N21860G01 X29.071 Y249.385
N21870G01 X28.048 Y250.548
N21880G01 X26.884 Y251.572
N21890G01 X25.599 Y252.44
N21900G01 X24.205 Y253.139
N21910G01 X22.719 Y253.656
N21920G01 X21.149 Y253.976
N21930G01 X19.499 Y254.087
N21940G01 X17.85 Y253.976
N21950G01 X16.28 Y253.656
N21960G01 X14.794 Y253.139
N21970G01 X13.4 Y252.44
N21980G01 X12.115 Y251.572
N21990G01 X10.951 Y250.547
N22000G01 X9.928 Y249.385
N22010G01 X9.059 Y248.098
N22020G01 X8.36 Y246.706
N22030G01 X7.843 Y245.219
N22040G01 X7.523 Y243.649
N22050G01 X7.412 Y242
N22060G01 X7.523 Y240.35
N22070G01 X7.843 Y238.78
N22080G01 X8.36 Y237.294
N22090G01 X9.059 Y235.9
N22100G01 X9.927 Y234.614
N22110G01 X10.951 Y233.451
N22120G01 X12.115 Y232.427
N22130G01 X13.4 Y231.559
N22140G01 X14.793 Y230.86
N22150G01 X16.28 Y230.343
N22160G01 X17.85 Y230.023
N22170G01 X17.669 Y228.682
N22180G01 X19.499 Y228.559
N22190G01 X21.33 Y228.682
N22200G01 X23.077 Y229.039
N22210G01 X24.732 Y229.614
N22220G01 X26.282 Y230.391
N22230G01 X27.712 Y231.357
N22240G01 X29.004 Y232.495
N22250G01 X30.142 Y233.787
N22260G01 X31.108 Y235.217
N22270G01 X31.886 Y236.767
N22280G01 X32.46 Y238.422
N22290G01 X32.817 Y240.169
N22300G01 X32.94 Y242
N22310G01 X32.817 Y243.83
N22320G01 X32.46 Y245.577
N22330G01 X31.885 Y247.232
N22340G01 X31.108 Y248.782
N22350G01 X30.142 Y250.212
N22360G01 X29.004 Y251.504
N22370G01 X27.712 Y252.642
N22380G01 X26.282 Y253.608
N22390G01 X24.732 Y254.386
N22400G01 X23.077 Y254.96
N22410G01 X21.33 Y255.317
N22420G01 X19.499 Y255.44
N22430G01 X17.669 Y255.317
N22440G01 X15.922 Y254.96
N22450G01 X14.267 Y254.386
N22460G01 X12.717 Y253.608
N22470G01 X11.288 Y252.642
N22480G01 X9.994 Y251.504
N22490G01 X8.857 Y250.212
N22500G01 X7.891 Y248.782
N22510G01 X7.114 Y247.232
N22520G01 X6.539 Y245.577
N22530G01 X6.182 Y243.83
N22540G01 X6.059 Y242
N22550G01 X6.182 Y240.169
N22560G01 X6.539 Y238.422
N22570G01 X7.113 Y236.767
N22580G01 X7.891 Y235.217
N22590G01 X8.857 Y233.787
N22600G01 X9.995 Y232.495
N22610G01 X11.287 Y231.357
N22620G01 X12.717 Y230.391
N22630G01 X14.267 Y229.614
N22640G01 X15.922 Y229.039
N22650G01 X17.669 Y228.682
N22660G01 X17.487 Y227.341
N22670G01 X19.499 Y227.206
N22680G01 X21.512 Y227.341
N22690G01 X23.435 Y227.734
N22700G01 X25.258 Y228.367
N22710G01 X26.965 Y229.224
N22720G01 X28.539 Y230.287
N22730G01 X29.961 Y231.538
N22740G01 X31.212 Y232.96
N22750G01 X32.275 Y234.534
N22760G01 X33.132 Y236.241
N22770G01 X33.765 Y238.064
N22780G01 X34.158 Y239.987
N22790G01 X34.293 Y242
N22800G01 X34.158 Y244.012
N22810G01 X33.765 Y245.935
N22820G01 X33.132 Y247.758
N22830G01 X32.275 Y249.465
N22840G01 X31.212 Y251.039
N22850G01 X29.961 Y252.461
N22860G01 X28.539 Y253.713
N22870G01 X26.966 Y254.775
N22880G01 X25.258 Y255.632
N22890G01 X23.435 Y256.265
N22900G01 X21.512 Y256.658
N22910G01 X19.499 Y256.793
N22920G01 X17.487 Y256.658
N22930G01 X15.564 Y256.265
N22940G01 X13.741 Y255.632
N22950G01 X12.033 Y254.775
N22960G01 X10.46 Y253.713
N22970G01 X9.038 Y252.461
N22980G01 X7.787 Y251.039
N22990G01 X6.724 Y249.465
N23000G01 X5.867 Y247.758
N23010G01 X5.234 Y245.935
N23020G01 X4.841 Y244.012
N23030G01 X4.706 Y242
N23040G01 X4.841 Y239.987
N23050G01 X5.234 Y238.064
N23060G01 X5.867 Y236.241
N23070G01 X6.724 Y234.534
N23080G01 X7.787 Y232.96
N23090G01 X9.038 Y231.538
N23100G01 X10.46 Y230.287
N23110G01 X12.034 Y229.224
N23120G01 X13.741 Y228.367
N23130G01 X15.564 Y227.734
N23140G01 X17.487 Y227.341
N23150G01 X17.306 Y226
N23160G01 X19.499 Y225.853
N23170G01 X21.693 Y226
N23180G01 X23.794 Y226.429
N23190G01 X25.785 Y227.121
N23200G01 X27.649 Y228.056
N23210G01 X29.366 Y229.216
N23220G01 X30.917 Y230.582
N23230G01 X32.283 Y232.133
N23240G01 X33.443 Y233.85
N23250G01 X34.378 Y235.714
N23260G01 X35.07 Y237.706
N23270G01 X35.499 Y239.806
N23280G01 X35.646 Y242
N23290G01 X35.499 Y244.193
N23300G01 X35.07 Y246.294
N23310G01 X34.378 Y248.285
N23320G01 X33.443 Y250.149
N23330G01 X32.283 Y251.866
N23340G01 X30.917 Y253.417
N23350G01 X29.366 Y254.783
N23360G01 X27.649 Y255.943
N23370G01 X25.785 Y256.878
N23380G01 X23.794 Y257.57
N23390G01 X21.693 Y257.999
N23400G01 X19.499 Y258.146
N23410G01 X17.306 Y257.999
N23420G01 X15.205 Y257.57
N23430G01 X13.214 Y256.878
N23440G01 X11.35 Y255.943
N23450G01 X9.633 Y254.783
N23460G01 X8.082 Y253.417
N23470G01 X6.716 Y251.866
N23480G01 X5.556 Y250.149
N23490G01 X4.621 Y248.285
N23500G01 X3.929 Y246.294
N23510G01 X3.5 Y244.193
N23520G01 X3.353 Y242
N23530G01 X3.5 Y239.806
N23540G01 X3.929 Y237.706
N23550G01 X4.621 Y235.714
N23560G01 X5.556 Y233.85
N23570G01 X6.716 Y232.133
N23580G01 X8.082 Y230.582
N23590G01 X9.633 Y229.216
N23600G01 X11.35 Y228.056
N23610G01 X13.214 Y227.121
N23620G01 X15.205 Y226.429
N23630G01 X17.306 Y226
N23640 G00 Z19.999
N23650 G00 X19.3 Y240.749
N23660G01 Z-5 F500
N23670G01 X19.5 Y240.736 F1000
N23680G01 X19.699 Y240.749
N23690G01 X19.853 Y240.781
N23700G01 X19.994 Y240.83
N23710G01 X20.131 Y240.899
N23720G01 X20.267 Y240.991
N23730G01 X20.395 Y241.104
N23740G01 X20.508 Y241.232
N23750G01 X20.6 Y241.367
N23760G01 X20.669 Y241.505
N23770G01 X20.718 Y241.645
N23780G01 X20.749 Y241.8
N23790G01 X20.763 Y242
N23800G01 X20.749 Y242.199
N23810G01 X20.718 Y242.354
N23820G01 X20.669 Y242.494
N23830G01 X20.6 Y242.631
N23840G01 X20.508 Y242.767
N23850G01 X20.396 Y242.896
N23860G01 X20.267 Y243.008
N23870G01 X20.132 Y243.1
N23880G01 X19.994 Y243.169
N23890G01 X19.853 Y243.218
N23900G01 X19.699 Y243.25
N23910G01 X19.499 Y243.263
N23920G01 X19.3 Y243.25
N23930G01 X19.146 Y243.218
N23940G01 X19.005 Y243.169
N23950G01 X18.868 Y243.1
N23960G01 X18.732 Y243.009
N23970G01 X18.603 Y242.895
N23980G01 X18.491 Y242.768
N23990G01 X18.399 Y242.631
N24000G01 X18.33 Y242.494
N24010G01 X18.281 Y242.353
N24020G01 X18.25 Y242.199
N24030G01 X18.236 Y242
N24040G01 X18.25 Y241.8
N24050G01 X18.281 Y241.645
N24060G01 X18.33 Y241.505
N24070G01 X18.399 Y241.367
N24080G01 X18.491 Y241.232
N24090G01 X18.604 Y241.103
N24100G01 X18.732 Y240.99
N24110G01 X18.867 Y240.899
N24120G01 X19.005 Y240.83
N24130G01 X19.146 Y240.781
N24140G01 X19.3 Y240.749
N24150G01 X19.119 Y239.409
N24160G01 X19.499 Y239.383
N24170G01 X19.88 Y239.409
N24180G01 X20.212 Y239.476
N24190G01 X20.52 Y239.584
N24200G01 X20.815 Y239.731
N24210G01 X21.094 Y239.92
N24220G01 X21.352 Y240.147
N24230G01 X21.579 Y240.405
N24240G01 X21.768 Y240.684
N24250G01 X21.915 Y240.979
N24260G01 X22.023 Y241.287
N24270G01 X22.09 Y241.619
N24280G01 X22.116 Y242
N24290G01 X22.09 Y242.38
N24300G01 X22.023 Y242.712
N24310G01 X21.915 Y243.02
N24320G01 X21.768 Y243.315
N24330G01 X21.579 Y243.595
N24340G01 X21.352 Y243.852
N24350G01 X21.094 Y244.079
N24360G01 X20.815 Y244.268
N24370G01 X20.52 Y244.416
N24380G01 X20.211 Y244.523
N24390G01 X19.88 Y244.59
N24400G01 X19.499 Y244.616
N24410G01 X19.119 Y244.59
N24420G01 X18.787 Y244.523
N24430G01 X18.479 Y244.415
N24440G01 X18.184 Y244.268
N24450G01 X17.905 Y244.079
N24460G01 X17.647 Y243.852
N24470G01 X17.42 Y243.595
N24480G01 X17.231 Y243.315
N24490G01 X17.084 Y243.02
N24500G01 X16.976 Y242.712
N24510G01 X16.909 Y242.38
N24520G01 X16.883 Y242
N24530G01 X16.909 Y241.619
N24540G01 X16.976 Y241.287
N24550G01 X17.084 Y240.979
N24560G01 X17.231 Y240.684
N24570G01 X17.42 Y240.405
N24580G01 X17.647 Y240.147
N24590G01 X17.905 Y239.92
N24600G01 X18.184 Y239.732
N24610G01 X18.479 Y239.584
N24620G01 X18.787 Y239.476
N24630G01 X19.119 Y239.409
N24640G01 X18.938 Y238.068
N24650G01 X19.499 Y238.03
N24660G01 X20.061 Y238.068
N24670G01 X20.57 Y238.172
N24680G01 X21.047 Y238.337
N24690G01 X21.498 Y238.564
N24700G01 X21.922 Y238.85
N24710G01 X22.309 Y239.19
N24720G01 X22.649 Y239.578
N24730G01 X22.935 Y240.001
N24740G01 X23.162 Y240.452
N24750G01 X23.327 Y240.929
N24760G01 X23.431 Y241.437
N24770G01 X23.469 Y242
N24780G01 X23.431 Y242.562
N24790G01 X23.327 Y243.07
N24800G01 X23.162 Y243.547
N24810G01 X22.935 Y243.998
N24820G01 X22.649 Y244.422
N24830G01 X22.309 Y244.808
N24840G01 X21.921 Y245.149
N24850G01 X21.498 Y245.435
N24860G01 X21.046 Y245.662
N24870G01 X20.57 Y245.827
N24880G01 X20.061 Y245.931
N24890G01 X19.499 Y245.969
N24900G01 X18.938 Y245.931
N24910G01 X18.429 Y245.827
N24920G01 X17.952 Y245.662
N24930G01 X17.501 Y245.435
N24940G01 X17.078 Y245.15
N24950G01 X16.69 Y244.808
N24960G01 X16.35 Y244.422
N24970G01 X16.064 Y243.998
N24980G01 X15.837 Y243.547
N24990G01 X15.672 Y243.07
N25000G01 X15.568 Y242.562
N25010G01 X15.53 Y242
N25020G01 X15.568 Y241.437
N25030G01 X15.672 Y240.929
N25040G01 X15.837 Y240.452
N25050G01 X16.064 Y240.001
N25060G01 X16.35 Y239.577
N25070G01 X16.691 Y239.19
N25080G01 X17.078 Y238.85
N25090G01 X17.501 Y238.564
N25100G01 X17.952 Y238.337
N25110G01 X18.429 Y238.172
N25120G01 X18.938 Y238.068
N25130G01 X18.757 Y236.727
N25140G01 X19.499 Y236.677
N25150G01 X20.243 Y236.727
N25160G01 X20.928 Y236.867
N25170G01 X21.573 Y237.091
N25180G01 X22.182 Y237.396
N25190G01 X22.749 Y237.779
N25200G01 X23.265 Y238.234
N25210G01 X23.72 Y238.75
N25220G01 X24.103 Y239.317
N25230G01 X24.408 Y239.926
N25240G01 X24.632 Y240.571
N25250G01 X24.772 Y241.256
N25260G01 X24.822 Y242
N25270G01 X24.772 Y242.743
N25280G01 X24.632 Y243.428
N25290G01 X24.408 Y244.073
N25300G01 X24.103 Y244.682
N25310G01 X23.719 Y245.249
N25320G01 X23.265 Y245.765
N25330G01 X22.749 Y246.22
N25340G01 X22.182 Y246.603
N25350G01 X21.573 Y246.908
N25360G01 X20.928 Y247.132
N25370G01 X20.243 Y247.272
N25380G01 X19.499 Y247.322
N25390G01 X18.756 Y247.272
N25400G01 X18.071 Y247.132
N25410G01 X17.426 Y246.908
N25420G01 X16.817 Y246.603
N25430G01 X16.251 Y246.22
N25440G01 X15.734 Y245.765
N25450G01 X15.28 Y245.249
N25460G01 X14.896 Y244.682
N25470G01 X14.591 Y244.073
N25480G01 X14.367 Y243.428
N25490G01 X14.227 Y242.743
N25500G01 X14.177 Y242
N25510G01 X14.227 Y241.256
N25520G01 X14.367 Y240.571
N25530G01 X14.591 Y239.926
N25540G01 X14.896 Y239.317
N25550G01 X15.279 Y238.75
N25560G01 X15.734 Y238.234
N25570G01 X16.25 Y237.779
N25580G01 X16.817 Y237.396
N25590G01 X17.426 Y237.091
N25600G01 X18.071 Y236.867
N25610G01 X18.757 Y236.727
N25620G01 X18.575 Y235.386
N25630G01 X19.499 Y235.324
N25640G01 X20.424 Y235.386
N25650G01 X21.286 Y235.562
N25660G01 X22.1 Y235.845
N25670G01 X22.865 Y236.229
N25680G01 X23.576 Y236.709
N25690G01 X24.222 Y237.277
N25700G01 X24.79 Y237.923
N25710G01 X25.27 Y238.634
N25720G01 X25.654 Y239.399
N25730G01 X25.937 Y240.213
N25740G01 X26.113 Y241.075
N25750G01 X26.175 Y242
N25760G01 X26.113 Y242.924
N25770G01 X25.937 Y243.786
N25780G01 X25.654 Y244.6
N25790G01 X25.27 Y245.365
N25800G01 X24.79 Y246.076
N25810G01 X24.222 Y246.721
N25820G01 X23.576 Y247.29
N25830G01 X22.865 Y247.77
N25840G01 X22.1 Y248.154
N25850G01 X21.286 Y248.437
N25860G01 X20.424 Y248.613
N25870G01 X19.499 Y248.675
N25880G01 X18.575 Y248.613
N25890G01 X17.713 Y248.437
N25900G01 X16.899 Y248.154
N25910G01 X16.134 Y247.77
N25920G01 X15.423 Y247.29
N25930G01 X14.777 Y246.721
N25940G01 X14.209 Y246.076
N25950G01 X13.729 Y245.365
N25960G01 X13.345 Y244.6
N25970G01 X13.062 Y243.786
N25980G01 X12.886 Y242.924
N25990G01 X12.824 Y242
N26000G01 X12.886 Y241.075
N26010G01 X13.062 Y240.213
N26020G01 X13.345 Y239.399
N26030G01 X13.729 Y238.634
N26040G01 X14.209 Y237.923
N26050G01 X14.777 Y237.277
N26060G01 X15.423 Y236.709
N26070G01 X16.134 Y236.229
N26080G01 X16.899 Y235.845
N26090G01 X17.713 Y235.562
N26100G01 X18.575 Y235.386
N26110G01 X18.394 Y234.045
N26120G01 X19.499 Y233.971
N26130G01 X20.605 Y234.045
N26140G01 X21.644 Y234.258
N26150G01 X22.626 Y234.599
N26160G01 X23.548 Y235.061
N26170G01 X24.403 Y235.639
N26180G01 X25.178 Y236.321
N26190G01 X25.86 Y237.096
N26200G01 X26.438 Y237.951
N26210G01 X26.9 Y238.873
N26220G01 X27.241 Y239.855
N26230G01 X27.454 Y240.894
N26240G01 X27.528 Y242
N26250G01 X27.454 Y243.105
N26260G01 X27.241 Y244.144
N26270G01 X26.9 Y245.126
N26280G01 X26.438 Y246.048
N26290G01 X25.86 Y246.903
N26300G01 X25.178 Y247.678
N26310G01 X24.403 Y248.361
N26320G01 X23.549 Y248.938
N26330G01 X22.626 Y249.401
N26340G01 X21.644 Y249.742
N26350G01 X20.605 Y249.954
N26360G01 X19.499 Y250.028
N26370G01 X18.394 Y249.954
N26380G01 X17.355 Y249.742
N26390G01 X16.373 Y249.4
N26400G01 X15.45 Y248.938
N26410G01 X14.596 Y248.361
N26420G01 X13.82 Y247.678
N26430G01 X13.139 Y246.903
N26440G01 X12.561 Y246.048
N26450G01 X12.099 Y245.126
N26460G01 X11.758 Y244.144
N26470G01 X11.545 Y243.105
N26480G01 X11.471 Y242
N26490G01 X11.545 Y240.894
N26500G01 X11.758 Y239.855
N26510G01 X12.098 Y238.873
N26520G01 X12.561 Y237.951
N26530G01 X13.139 Y237.096
N26540G01 X13.821 Y236.321
N26550G01 X14.596 Y235.639
N26560G01 X15.451 Y235.061
N26570G01 X16.373 Y234.599
N26580G01 X17.355 Y234.258
N26590G01 X18.394 Y234.045
N26600G01 X18.213 Y232.704
N26610G01 X19.499 Y232.618
N26620G01 X20.786 Y232.704
N26630G01 X22.003 Y232.953
N26640G01 X23.153 Y233.352
N26650G01 X24.232 Y233.894
N26660G01 X25.23 Y234.568
N26670G01 X26.135 Y235.364
N26680G01 X26.931 Y236.269
N26690G01 X27.605 Y237.267
N26700G01 X28.147 Y238.347
N26710G01 X28.546 Y239.496
N26720G01 X28.795 Y240.712
N26730G01 X28.881 Y242
N26740G01 X28.795 Y243.287
N26750G01 X28.546 Y244.503
N26760G01 X28.147 Y245.653
N26770G01 X27.605 Y246.732
N26780G01 X26.931 Y247.73
N26790G01 X26.135 Y248.635
N26800G01 X25.23 Y249.431
N26810G01 X24.232 Y250.105
N26820G01 X23.152 Y250.647
N26830G01 X22.002 Y251.046
N26840G01 X20.787 Y251.295
N26850G01 X19.499 Y251.381
N26860G01 X18.212 Y251.295
N26870G01 X16.997 Y251.046
N26880G01 X15.846 Y250.647
N26890G01 X14.767 Y250.105
N26900G01 X13.769 Y249.431
N26910G01 X12.864 Y248.634
N26920G01 X12.068 Y247.731
N26930G01 X11.394 Y246.732
N26940G01 X10.852 Y245.653
N26950G01 X10.453 Y244.503
N26960G01 X10.204 Y243.287
N26970G01 X10.118 Y242
N26980G01 X10.204 Y240.712
N26990G01 X10.453 Y239.496
N27000G01 X10.852 Y238.347
N27010G01 X11.394 Y237.267
N27020G01 X12.068 Y236.269
N27030G01 X12.864 Y235.364
N27040G01 X13.769 Y234.568
N27050G01 X14.767 Y233.894
N27060G01 X15.846 Y233.352
N27070G01 X16.996 Y232.953
N27080G01 X18.213 Y232.704
N27090G01 X18.031 Y231.363
N27100G01 X19.499 Y231.265
N27110G01 X20.968 Y231.363
N27120G01 X22.361 Y231.648
N27130G01 X23.679 Y232.106
N27140G01 X24.915 Y232.726
N27150G01 X26.057 Y233.498
N27160G01 X27.091 Y234.408
N27170G01 X28.001 Y235.442
N27180G01 X28.773 Y236.584
N27190G01 X29.393 Y237.82
N27200G01 X29.851 Y239.138
N27210G01 X30.135 Y240.531
N27220G01 X30.234 Y242
N27230G01 X30.135 Y243.468
N27240G01 X29.851 Y244.861
N27250G01 X29.393 Y246.179
N27260G01 X28.773 Y247.415
N27270G01 X28.001 Y248.558
N27280G01 X27.091 Y249.591
N27290G01 X26.057 Y250.501
N27300G01 X24.915 Y251.273
N27310G01 X23.679 Y251.893
N27320G01 X22.361 Y252.351
N27330G01 X20.968 Y252.636
N27340G01 X19.499 Y252.734
N27350G01 X18.031 Y252.636
N27360G01 X16.638 Y252.351
N27370G01 X15.32 Y251.893
N27380G01 X14.084 Y251.273
N27390G01 X12.942 Y250.501
N27400G01 X11.907 Y249.591
N27410G01 X10.998 Y248.558
N27420G01 X10.226 Y247.415
N27430G01 X9.606 Y246.179
N27440G01 X9.148 Y244.861
N27450G01 X8.864 Y243.468
N27460G01 X8.765 Y242
N27470G01 X8.864 Y240.531
N27480G01 X9.148 Y239.138
N27490G01 X9.606 Y237.82
N27500G01 X10.226 Y236.584
N27510G01 X10.998 Y235.442
N27520G01 X11.908 Y234.408
N27530G01 X12.942 Y233.498
N27540G01 X14.084 Y232.726
N27550G01 X15.32 Y232.106
N27560G01 X16.638 Y231.648
N27570G01 X18.031 Y231.363
N27580G01 X17.85 Y230.023
N27590G01 X19.499 Y229.912
N27600G01 X21.149 Y230.023
N27610G01 X22.719 Y230.343
N27620G01 X24.206 Y230.86
N27630G01 X25.598 Y231.559
N27640G01 X26.885 Y232.427
N27650G01 X28.048 Y233.451
N27660G01 X29.072 Y234.614
N27670G01 X29.94 Y235.9
N27680G01 X30.639 Y237.294
N27690G01 X31.156 Y238.78
N27700G01 X31.476 Y240.35
N27710G01 X31.587 Y242
N27720G01 X31.476 Y243.649
N27730G01 X31.156 Y245.219
N27740G01 X30.639 Y246.706
N27750G01 X29.94 Y248.098
N27760G01 X29.071 Y249.385
N27770G01 X28.048 Y250.548
N27780G01 X26.884 Y251.572
N27790G01 X25.599 Y252.44
N27800G01 X24.205 Y253.139
N27810G01 X22.719 Y253.656
N27820G01 X21.149 Y253.976
N27830G01 X19.499 Y254.087
N27840G01 X17.85 Y253.976
N27850G01 X16.28 Y253.656
N27860G01 X14.794 Y253.139
N27870G01 X13.4 Y252.44
N27880G01 X12.115 Y251.572
N27890G01 X10.951 Y250.547
N27900G01 X9.928 Y249.385
N27910G01 X9.059 Y248.098
N27920G01 X8.36 Y246.706
N27930G01 X7.843 Y245.219
N27940G01 X7.523 Y243.649
N27950G01 X7.412 Y242
N27960G01 X7.523 Y240.35
N27970G01 X7.843 Y238.78
N27980G01 X8.36 Y237.294
N27990G01 X9.059 Y235.9
N28000G01 X9.927 Y234.614
N28010G01 X10.951 Y233.451
N28020G01 X12.115 Y232.427
N28030G01 X13.4 Y231.559
N28040G01 X14.793 Y230.86
N28050G01 X16.28 Y230.343
N28060G01 X17.85 Y230.023
N28070G01 X17.669 Y228.682
N28080G01 X19.499 Y228.559
N28090G01 X21.33 Y228.682
N28100G01 X23.077 Y229.039
N28110G01 X24.732 Y229.614
N28120G01 X26.282 Y230.391
N28130G01 X27.712 Y231.357
N28140G01 X29.004 Y232.495
N28150G01 X30.142 Y233.787
N28160G01 X31.108 Y235.217
N28170G01 X31.886 Y236.767
N28180G01 X32.46 Y238.422
N28190G01 X32.817 Y240.169
N28200G01 X32.94 Y242
N28210G01 X32.817 Y243.83
N28220G01 X32.46 Y245.577
N28230G01 X31.885 Y247.232
N28240G01 X31.108 Y248.782
N28250G01 X30.142 Y250.212
N28260G01 X29.004 Y251.504
N28270G01 X27.712 Y252.642
N28280G01 X26.282 Y253.608
N28290G01 X24.732 Y254.386
N28300G01 X23.077 Y254.96
N28310G01 X21.33 Y255.317
N28320G01 X19.499 Y255.44
N28330G01 X17.669 Y255.317
N28340G01 X15.922 Y254.96
N28350G01 X14.267 Y254.386
N28360G01 X12.717 Y253.608
N28370G01 X11.288 Y252.642
N28380G01 X9.994 Y251.504
N28390G01 X8.857 Y250.212
N28400G01 X7.891 Y248.782
N28410G01 X7.114 Y247.232
N28420G01 X6.539 Y245.577
N28430G01 X6.182 Y243.83
N28440G01 X6.059 Y242
N28450G01 X6.182 Y240.169
N28460G01 X6.539 Y238.422
N28470G01 X7.113 Y236.767
N28480G01 X7.891 Y235.217
N28490G01 X8.857 Y233.787
N28500G01 X9.995 Y232.495
N28510G01 X11.287 Y231.357
N28520G01 X12.717 Y230.391
N28530G01 X14.267 Y229.614
N28540G01 X15.922 Y229.039
N28550G01 X17.669 Y228.682
N28560G01 X17.487 Y227.341
N28570G01 X19.499 Y227.206
N28580G01 X21.512 Y227.341
N28590G01 X23.435 Y227.734
N28600G01 X25.258 Y228.367
N28610G01 X26.965 Y229.224
N28620G01 X28.539 Y230.287
N28630G01 X29.961 Y231.538
N28640G01 X31.212 Y232.96
N28650G01 X32.275 Y234.534
N28660G01 X33.132 Y236.241
N28670G01 X33.765 Y238.064
N28680G01 X34.158 Y239.987
N28690G01 X34.293 Y242
N28700G01 X34.158 Y244.012
N28710G01 X33.765 Y245.935
N28720G01 X33.132 Y247.758
N28730G01 X32.275 Y249.465
N28740G01 X31.212 Y251.039
N28750G01 X29.961 Y252.461
N28760G01 X28.539 Y253.713
N28770G01 X26.966 Y254.775
N28780G01 X25.258 Y255.632
N28790G01 X23.435 Y256.265
N28800G01 X21.512 Y256.658
N28810G01 X19.499 Y256.793
N28820G01 X17.487 Y256.658
N28830G01 X15.564 Y256.265
N28840G01 X13.741 Y255.632
N28850G01 X12.033 Y254.775
N28860G01 X10.46 Y253.713
N28870G01 X9.038 Y252.461
N28880G01 X7.787 Y251.039
N28890G01 X6.724 Y249.465
N28900G01 X5.867 Y247.758
N28910G01 X5.234 Y245.935
N28920G01 X4.841 Y244.012
N28930G01 X4.706 Y242
N28940G01 X4.841 Y239.987
N28950G01 X5.234 Y238.064
N28960G01 X5.867 Y236.241
N28970G01 X6.724 Y234.534
N28980G01 X7.787 Y232.96
N28990G01 X9.038 Y231.538
N29000G01 X10.46 Y230.287
N29010G01 X12.034 Y229.224
N29020G01 X13.741 Y228.367
N29030G01 X15.564 Y227.734
N29040G01 X17.487 Y227.341
N29050G01 X17.306 Y226
N29060G01 X19.499 Y225.853
N29070G01 X21.693 Y226
N29080G01 X23.794 Y226.429
N29090G01 X25.785 Y227.121
N29100G01 X27.649 Y228.056
N29110G01 X29.366 Y229.216
N29120G01 X30.917 Y230.582
N29130G01 X32.283 Y232.133
N29140G01 X33.443 Y233.85
N29150G01 X34.378 Y235.714
N29160G01 X35.07 Y237.706
N29170G01 X35.499 Y239.806
N29180G01 X35.646 Y242
N29190G01 X35.499 Y244.193
N29200G01 X35.07 Y246.294
N29210G01 X34.378 Y248.285
N29220G01 X33.443 Y250.149
N29230G01 X32.283 Y251.866
N29240G01 X30.917 Y253.417
N29250G01 X29.366 Y254.783
N29260G01 X27.649 Y255.943
N29270G01 X25.785 Y256.878
N29280G01 X23.794 Y257.57
N29290G01 X21.693 Y257.999
N29300G01 X19.499 Y258.146
N29310G01 X17.306 Y257.999
N29320G01 X15.205 Y257.57
N29330G01 X13.214 Y256.878
N29340G01 X11.35 Y255.943
N29350G01 X9.633 Y254.783
N29360G01 X8.082 Y253.417
N29370G01 X6.716 Y251.866
N29380G01 X5.556 Y250.149
N29390G01 X4.621 Y248.285
N29400G01 X3.929 Y246.294
N29410G01 X3.5 Y244.193
N29420G01 X3.353 Y242
N29430G01 X3.5 Y239.806
N29440G01 X3.929 Y237.706
N29450G01 X4.621 Y235.714
N29460G01 X5.556 Y233.85
N29470G01 X6.716 Y232.133
N29480G01 X8.082 Y230.582
N29490G01 X9.633 Y229.216
N29500G01 X11.35 Y228.056
N29510G01 X13.214 Y227.121
N29520G01 X15.205 Y226.429
N29530G01 X17.306 Y226
N29540 G00 Z19.999
N29550 G00 X19.3 Y240.749
N29560G01 Z-6 F500
N29570G01 X19.5 Y240.736 F1000
N29580G01 X19.699 Y240.749
N29590G01 X19.853 Y240.781
N29600G01 X19.994 Y240.83
N29610G01 X20.131 Y240.899
N29620G01 X20.267 Y240.991
N29630G01 X20.395 Y241.104
N29640G01 X20.508 Y241.232
N29650G01 X20.6 Y241.367
N29660G01 X20.669 Y241.505
N29670G01 X20.718 Y241.645
N29680G01 X20.749 Y241.8
N29690G01 X20.763 Y242
N29700G01 X20.749 Y242.199
N29710G01 X20.718 Y242.354
N29720G01 X20.669 Y242.494
N29730G01 X20.6 Y242.631
N29740G01 X20.508 Y242.767
N29750G01 X20.396 Y242.896
N29760G01 X20.267 Y243.008
N29770G01 X20.132 Y243.1
N29780G01 X19.994 Y243.169
N29790G01 X19.853 Y243.218
N29800G01 X19.699 Y243.25
N29810G01 X19.499 Y243.263
N29820G01 X19.3 Y243.25
N29830G01 X19.146 Y243.218
N29840G01 X19.005 Y243.169
N29850G01 X18.868 Y243.1
N29860G01 X18.732 Y243.009
N29870G01 X18.603 Y242.895
N29880G01 X18.491 Y242.768
N29890G01 X18.399 Y242.631
N29900G01 X18.33 Y242.494
N29910G01 X18.281 Y242.353
N29920G01 X18.25 Y242.199
N29930G01 X18.236 Y242
N29940G01 X18.25 Y241.8
N29950G01 X18.281 Y241.645
N29960G01 X18.33 Y241.505
N29970G01 X18.399 Y241.367
N29980G01 X18.491 Y241.232
N29990G01 X18.604 Y241.103
N30000G01 X18.732 Y240.99
N30010G01 X18.867 Y240.899
N30020G01 X19.005 Y240.83
N30030G01 X19.146 Y240.781
N30040G01 X19.3 Y240.749
N30050G01 X19.119 Y239.409
N30060G01 X19.499 Y239.383
N30070G01 X19.88 Y239.409
N30080G01 X20.212 Y239.476
N30090G01 X20.52 Y239.584
N30100G01 X20.815 Y239.731
N30110G01 X21.094 Y239.92
N30120G01 X21.352 Y240.147
N30130G01 X21.579 Y240.405
N30140G01 X21.768 Y240.684
N30150G01 X21.915 Y240.979
N30160G01 X22.023 Y241.287
N30170G01 X22.09 Y241.619
N30180G01 X22.116 Y242
N30190G01 X22.09 Y242.38
N30200G01 X22.023 Y242.712
N30210G01 X21.915 Y243.02
N30220G01 X21.768 Y243.315
N30230G01 X21.579 Y243.595
N30240G01 X21.352 Y243.852
N30250G01 X21.094 Y244.079
N30260G01 X20.815 Y244.268
N30270G01 X20.52 Y244.416
N30280G01 X20.211 Y244.523
N30290G01 X19.88 Y244.59
N30300G01 X19.499 Y244.616
N30310G01 X19.119 Y244.59
N30320G01 X18.787 Y244.523
N30330G01 X18.479 Y244.415
N30340G01 X18.184 Y244.268
N30350G01 X17.905 Y244.079
N30360G01 X17.647 Y243.852
N30370G01 X17.42 Y243.595
N30380G01 X17.231 Y243.315
N30390G01 X17.084 Y243.02
N30400G01 X16.976 Y242.712
N30410G01 X16.909 Y242.38
N30420G01 X16.883 Y242
N30430G01 X16.909 Y241.619
N30440G01 X16.976 Y241.287
N30450G01 X17.084 Y240.979
N30460G01 X17.231 Y240.684
N30470G01 X17.42 Y240.405
N30480G01 X17.647 Y240.147
N30490G01 X17.905 Y239.92
N30500G01 X18.184 Y239.732
N30510G01 X18.479 Y239.584
N30520G01 X18.787 Y239.476
N30530G01 X19.119 Y239.409
N30540G01 X18.938 Y238.068
N30550G01 X19.499 Y238.03
N30560G01 X20.061 Y238.068
N30570G01 X20.57 Y238.172
N30580G01 X21.047 Y238.337
N30590G01 X21.498 Y238.564
N30600G01 X21.922 Y238.85
N30610G01 X22.309 Y239.19
N30620G01 X22.649 Y239.578
N30630G01 X22.935 Y240.001
N30640G01 X23.162 Y240.452
N30650G01 X23.327 Y240.929
N30660G01 X23.431 Y241.437
N30670G01 X23.469 Y242
N30680G01 X23.431 Y242.562
N30690G01 X23.327 Y243.07
N30700G01 X23.162 Y243.547
N30710G01 X22.935 Y243.998
N30720G01 X22.649 Y244.422
N30730G01 X22.309 Y244.808
N30740G01 X21.921 Y245.149
N30750G01 X21.498 Y245.435
N30760G01 X21.046 Y245.662
N30770G01 X20.57 Y245.827
N30780G01 X20.061 Y245.931
N30790G01 X19.499 Y245.969
N30800G01 X18.938 Y245.931
N30810G01 X18.429 Y245.827
N30820G01 X17.952 Y245.662
N30830G01 X17.501 Y245.435
N30840G01 X17.078 Y245.15
N30850G01 X16.69 Y244.808
N30860G01 X16.35 Y244.422
N30870G01 X16.064 Y243.998
N30880G01 X15.837 Y243.547
N30890G01 X15.672 Y243.07
N30900G01 X15.568 Y242.562
N30910G01 X15.53 Y242
N30920G01 X15.568 Y241.437
N30930G01 X15.672 Y240.929
N30940G01 X15.837 Y240.452
N30950G01 X16.064 Y240.001
N30960G01 X16.35 Y239.577
N30970G01 X16.691 Y239.19
N30980G01 X17.078 Y238.85
N30990G01 X17.501 Y238.564
N31000G01 X17.952 Y238.337
N31010G01 X18.429 Y238.172
N31020G01 X18.938 Y238.068
N31030G01 X18.757 Y236.727
N31040G01 X19.499 Y236.677
N31050G01 X20.243 Y236.727
N31060G01 X20.928 Y236.867
N31070G01 X21.573 Y237.091
N31080G01 X22.182 Y237.396
N31090G01 X22.749 Y237.779
N31100G01 X23.265 Y238.234
N31110G01 X23.72 Y238.75
N31120G01 X24.103 Y239.317
N31130G01 X24.408 Y239.926
N31140G01 X24.632 Y240.571
N31150G01 X24.772 Y241.256
N31160G01 X24.822 Y242
N31170G01 X24.772 Y242.743
N31180G01 X24.632 Y243.428
N31190G01 X24.408 Y244.073
N31200G01 X24.103 Y244.682
N31210G01 X23.719 Y245.249
N31220G01 X23.265 Y245.765
N31230G01 X22.749 Y246.22
N31240G01 X22.182 Y246.603
N31250G01 X21.573 Y246.908
N31260G01 X20.928 Y247.132
N31270G01 X20.243 Y247.272
N31280G01 X19.499 Y247.322
N31290G01 X18.756 Y247.272
N31300G01 X18.071 Y247.132
N31310G01 X17.426 Y246.908
N31320G01 X16.817 Y246.603
N31330G01 X16.251 Y246.22
N31340G01 X15.734 Y245.765
N31350G01 X15.28 Y245.249
N31360G01 X14.896 Y244.682
N31370G01 X14.591 Y244.073
N31380G01 X14.367 Y243.428
N31390G01 X14.227 Y242.743
N31400G01 X14.177 Y242
N31410G01 X14.227 Y241.256
N31420G01 X14.367 Y240.571
N31430G01 X14.591 Y239.926
N31440G01 X14.896 Y239.317
N31450G01 X15.279 Y238.75
N31460G01 X15.734 Y238.234
N31470G01 X16.25 Y237.779
N31480G01 X16.817 Y237.396
N31490G01 X17.426 Y237.091
N31500G01 X18.071 Y236.867
N31510G01 X18.757 Y236.727
N31520G01 X18.575 Y235.386
N31530G01 X19.499 Y235.324
N31540G01 X20.424 Y235.386
N31550G01 X21.286 Y235.562
N31560G01 X22.1 Y235.845
N31570G01 X22.865 Y236.229
N31580G01 X23.576 Y236.709
N31590G01 X24.222 Y237.277
N31600G01 X24.79 Y237.923
N31610G01 X25.27 Y238.634
N31620G01 X25.654 Y239.399
N31630G01 X25.937 Y240.213
N31640G01 X26.113 Y241.075
N31650G01 X26.175 Y242
N31660G01 X26.113 Y242.924
N31670G01 X25.937 Y243.786
N31680G01 X25.654 Y244.6
N31690G01 X25.27 Y245.365
N31700G01 X24.79 Y246.076
N31710G01 X24.222 Y246.721
N31720G01 X23.576 Y247.29
N31730G01 X22.865 Y247.77
N31740G01 X22.1 Y248.154
N31750G01 X21.286 Y248.437
N31760G01 X20.424 Y248.613
N31770G01 X19.499 Y248.675
N31780G01 X18.575 Y248.613
N31790G01 X17.713 Y248.437
N31800G01 X16.899 Y248.154
N31810G01 X16.134 Y247.77
N31820G01 X15.423 Y247.29
N31830G01 X14.777 Y246.721
N31840G01 X14.209 Y246.076
N31850G01 X13.729 Y245.365
N31860G01 X13.345 Y244.6
N31870G01 X13.062 Y243.786
N31880G01 X12.886 Y242.924
N31890G01 X12.824 Y242
N31900G01 X12.886 Y241.075
N31910G01 X13.062 Y240.213
N31920G01 X13.345 Y239.399
N31930G01 X13.729 Y238.634
N31940G01 X14.209 Y237.923
N31950G01 X14.777 Y237.277
N31960G01 X15.423 Y236.709
N31970G01 X16.134 Y236.229
N31980G01 X16.899 Y235.845
N31990G01 X17.713 Y235.562
N32000G01 X18.575 Y235.386
N32010G01 X18.394 Y234.045
N32020G01 X19.499 Y233.971
N32030G01 X20.605 Y234.045
N32040G01 X21.644 Y234.258
N32050G01 X22.626 Y234.599
N32060G01 X23.548 Y235.061
N32070G01 X24.403 Y235.639
N32080G01 X25.178 Y236.321
N32090G01 X25.86 Y237.096
N32100G01 X26.438 Y237.951
N32110G01 X26.9 Y238.873
N32120G01 X27.241 Y239.855
N32130G01 X27.454 Y240.894
N32140G01 X27.528 Y242
N32150G01 X27.454 Y243.105
N32160G01 X27.241 Y244.144
N32170G01 X26.9 Y245.126
N32180G01 X26.438 Y246.048
N32190G01 X25.86 Y246.903
N32200G01 X25.178 Y247.678
N32210G01 X24.403 Y248.361
N32220G01 X23.549 Y248.938
N32230G01 X22.626 Y249.401
N32240G01 X21.644 Y249.742
N32250G01 X20.605 Y249.954
N32260G01 X19.499 Y250.028
N32270G01 X18.394 Y249.954
N32280G01 X17.355 Y249.742
N32290G01 X16.373 Y249.4
N32300G01 X15.45 Y248.938
N32310G01 X14.596 Y248.361
N32320G01 X13.82 Y247.678
N32330G01 X13.139 Y246.903
N32340G01 X12.561 Y246.048
N32350G01 X12.099 Y245.126
N32360G01 X11.758 Y244.144
N32370G01 X11.545 Y243.105
N32380G01 X11.471 Y242
N32390G01 X11.545 Y240.894
N32400G01 X11.758 Y239.855
N32410G01 X12.098 Y238.873
N32420G01 X12.561 Y237.951
N32430G01 X13.139 Y237.096
N32440G01 X13.821 Y236.321
N32450G01 X14.596 Y235.639
N32460G01 X15.451 Y235.061
N32470G01 X16.373 Y234.599
N32480G01 X17.355 Y234.258
N32490G01 X18.394 Y234.045
N32500G01 X18.213 Y232.704
N32510G01 X19.499 Y232.618
N32520G01 X20.786 Y232.704
N32530G01 X22.003 Y232.953
N32540G01 X23.153 Y233.352
N32550G01 X24.232 Y233.894
N32560G01 X25.23 Y234.568
N32570G01 X26.135 Y235.364
N32580G01 X26.931 Y236.269
N32590G01 X27.605 Y237.267
N32600G01 X28.147 Y238.347
N32610G01 X28.546 Y239.496
N32620G01 X28.795 Y240.712
N32630G01 X28.881 Y242
N32640G01 X28.795 Y243.287
N32650G01 X28.546 Y244.503
N32660G01 X28.147 Y245.653
N32670G01 X27.605 Y246.732
N32680G01 X26.931 Y247.73
N32690G01 X26.135 Y248.635
N32700G01 X25.23 Y249.431
N32710G01 X24.232 Y250.105
N32720G01 X23.152 Y250.647
N32730G01 X22.002 Y251.046
N32740G01 X20.787 Y251.295
N32750G01 X19.499 Y251.381
N32760G01 X18.212 Y251.295
N32770G01 X16.997 Y251.046
N32780G01 X15.846 Y250.647
N32790G01 X14.767 Y250.105
N32800G01 X13.769 Y249.431
N32810G01 X12.864 Y248.634
N32820G01 X12.068 Y247.731
N32830G01 X11.394 Y246.732
N32840G01 X10.852 Y245.653
N32850G01 X10.453 Y244.503
N32860G01 X10.204 Y243.287
N32870G01 X10.118 Y242
N32880G01 X10.204 Y240.712
N32890G01 X10.453 Y239.496
N32900G01 X10.852 Y238.347
N32910G01 X11.394 Y237.267
N32920G01 X12.068 Y236.269
N32930G01 X12.864 Y235.364
N32940G01 X13.769 Y234.568
N32950G01 X14.767 Y233.894
N32960G01 X15.846 Y233.352
N32970G01 X16.996 Y232.953
N32980G01 X18.213 Y232.704
N32990G01 X18.031 Y231.363
N33000G01 X19.499 Y231.265
N33010G01 X20.968 Y231.363
N33020G01 X22.361 Y231.648
N33030G01 X23.679 Y232.106
N33040G01 X24.915 Y232.726
N33050G01 X26.057 Y233.498
N33060G01 X27.091 Y234.408
N33070G01 X28.001 Y235.442
N33080G01 X28.773 Y236.584
N33090G01 X29.393 Y237.82
N33100G01 X29.851 Y239.138
N33110G01 X30.135 Y240.531
N33120G01 X30.234 Y242
N33130G01 X30.135 Y243.468
N33140G01 X29.851 Y244.861
N33150G01 X29.393 Y246.179
N33160G01 X28.773 Y247.415
N33170G01 X28.001 Y248.558
N33180G01 X27.091 Y249.591
N33190G01 X26.057 Y250.501
N33200G01 X24.915 Y251.273
N33210G01 X23.679 Y251.893
N33220G01 X22.361 Y252.351
N33230G01 X20.968 Y252.636
N33240G01 X19.499 Y252.734
N33250G01 X18.031 Y252.636
N33260G01 X16.638 Y252.351
N33270G01 X15.32 Y251.893
N33280G01 X14.084 Y251.273
N33290G01 X12.942 Y250.501
N33300G01 X11.907 Y249.591
N33310G01 X10.998 Y248.558
N33320G01 X10.226 Y247.415
N33330G01 X9.606 Y246.179
N33340G01 X9.148 Y244.861
N33350G01 X8.864 Y243.468
N33360G01 X8.765 Y242
N33370G01 X8.864 Y240.531
N33380G01 X9.148 Y239.138
N33390G01 X9.606 Y237.82
N33400G01 X10.226 Y236.584
N33410G01 X10.998 Y235.442
N33420G01 X11.908 Y234.408
N33430G01 X12.942 Y233.498
N33440G01 X14.084 Y232.726
N33450G01 X15.32 Y232.106
N33460G01 X16.638 Y231.648
N33470G01 X18.031 Y231.363
N33480G01 X17.85 Y230.023
N33490G01 X19.499 Y229.912
N33500G01 X21.149 Y230.023
N33510G01 X22.719 Y230.343
N33520G01 X24.206 Y230.86
N33530G01 X25.598 Y231.559
N33540G01 X26.885 Y232.427
N33550G01 X28.048 Y233.451
N33560G01 X29.072 Y234.614
N33570G01 X29.94 Y235.9
N33580G01 X30.639 Y237.294
N33590G01 X31.156 Y238.78
N33600G01 X31.476 Y240.35
N33610G01 X31.587 Y242
N33620G01 X31.476 Y243.649
N33630G01 X31.156 Y245.219
N33640G01 X30.639 Y246.706
N33650G01 X29.94 Y248.098
N33660G01 X29.071 Y249.385
N33670G01 X28.048 Y250.548
N33680G01 X26.884 Y251.572
N33690G01 X25.599 Y252.44
N33700G01 X24.205 Y253.139
N33710G01 X22.719 Y253.656
N33720G01 X21.149 Y253.976
N33730G01 X19.499 Y254.087
N33740G01 X17.85 Y253.976
N33750G01 X16.28 Y253.656
N33760G01 X14.794 Y253.139
N33770G01 X13.4 Y252.44
N33780G01 X12.115 Y251.572
N33790G01 X10.951 Y250.547
N33800G01 X9.928 Y249.385
N33810G01 X9.059 Y248.098
N33820G01 X8.36 Y246.706
N33830G01 X7.843 Y245.219
N33840G01 X7.523 Y243.649
N33850G01 X7.412 Y242
N33860G01 X7.523 Y240.35
N33870G01 X7.843 Y238.78
N33880G01 X8.36 Y237.294
N33890G01 X9.059 Y235.9
N33900G01 X9.927 Y234.614
N33910G01 X10.951 Y233.451
N33920G01 X12.115 Y232.427
N33930G01 X13.4 Y231.559
N33940G01 X14.793 Y230.86
N33950G01 X16.28 Y230.343
N33960G01 X17.85 Y230.023
N33970G01 X17.669 Y228.682
N33980G01 X19.499 Y228.559
N33990G01 X21.33 Y228.682
N34000G01 X23.077 Y229.039
N34010G01 X24.732 Y229.614
N34020G01 X26.282 Y230.391
N34030G01 X27.712 Y231.357
N34040G01 X29.004 Y232.495
N34050G01 X30.142 Y233.787
N34060G01 X31.108 Y235.217
N34070G01 X31.886 Y236.767
N34080G01 X32.46 Y238.422
N34090G01 X32.817 Y240.169
N34100G01 X32.94 Y242
N34110G01 X32.817 Y243.83
N34120G01 X32.46 Y245.577
N34130G01 X31.885 Y247.232
N34140G01 X31.108 Y248.782
N34150G01 X30.142 Y250.212
N34160G01 X29.004 Y251.504
N34170G01 X27.712 Y252.642
N34180G01 X26.282 Y253.608
N34190G01 X24.732 Y254.386
N34200G01 X23.077 Y254.96
N34210G01 X21.33 Y255.317
N34220G01 X19.499 Y255.44
N34230G01 X17.669 Y255.317
N34240G01 X15.922 Y254.96
N34250G01 X14.267 Y254.386
N34260G01 X12.717 Y253.608
N34270G01 X11.288 Y252.642
N34280G01 X9.994 Y251.504
N34290G01 X8.857 Y250.212
N34300G01 X7.891 Y248.782
N34310G01 X7.114 Y247.232
N34320G01 X6.539 Y245.577
N34330G01 X6.182 Y243.83
N34340G01 X6.059 Y242
N34350G01 X6.182 Y240.169
N34360G01 X6.539 Y238.422
N34370G01 X7.113 Y236.767
N34380G01 X7.891 Y235.217
N34390G01 X8.857 Y233.787
N34400G01 X9.995 Y232.495
N34410G01 X11.287 Y231.357
N34420G01 X12.717 Y230.391
N34430G01 X14.267 Y229.614
N34440G01 X15.922 Y229.039
N34450G01 X17.669 Y228.682
N34460G01 X17.487 Y227.341
N34470G01 X19.499 Y227.206
N34480G01 X21.512 Y227.341
N34490G01 X23.435 Y227.734
N34500G01 X25.258 Y228.367
N34510G01 X26.965 Y229.224
N34520G01 X28.539 Y230.287
N34530G01 X29.961 Y231.538
N34540G01 X31.212 Y232.96
N34550G01 X32.275 Y234.534
N34560G01 X33.132 Y236.241
N34570G01 X33.765 Y238.064
N34580G01 X34.158 Y239.987
N34590G01 X34.293 Y242
N34600G01 X34.158 Y244.012
N34610G01 X33.765 Y245.935
N34620G01 X33.132 Y247.758
N34630G01 X32.275 Y249.465
N34640G01 X31.212 Y251.039
N34650G01 X29.961 Y252.461
N34660G01 X28.539 Y253.713
N34670G01 X26.966 Y254.775
N34680G01 X25.258 Y255.632
N34690G01 X23.435 Y256.265
N34700G01 X21.512 Y256.658
N34710G01 X19.499 Y256.793
N34720G01 X17.487 Y256.658
N34730G01 X15.564 Y256.265
N34740G01 X13.741 Y255.632
N34750G01 X12.033 Y254.775
N34760G01 X10.46 Y253.713
N34770G01 X9.038 Y252.461
N34780G01 X7.787 Y251.039
N34790G01 X6.724 Y249.465
N34800G01 X5.867 Y247.758
N34810G01 X5.234 Y245.935
N34820G01 X4.841 Y244.012
N34830G01 X4.706 Y242
N34840G01 X4.841 Y239.987
N34850G01 X5.234 Y238.064
N34860G01 X5.867 Y236.241
N34870G01 X6.724 Y234.534
N34880G01 X7.787 Y232.96
N34890G01 X9.038 Y231.538
N34900G01 X10.46 Y230.287
N34910G01 X12.034 Y229.224
N34920G01 X13.741 Y228.367
N34930G01 X15.564 Y227.734
N34940G01 X17.487 Y227.341
N34950G01 X17.306 Y226
N34960G01 X19.499 Y225.853
N34970G01 X21.693 Y226
N34980G01 X23.794 Y226.429
N34990G01 X25.785 Y227.121
N35000G01 X27.649 Y228.056
N35010G01 X29.366 Y229.216
N35020G01 X30.917 Y230.582
N35030G01 X32.283 Y232.133
N35040G01 X33.443 Y233.85
N35050G01 X34.378 Y235.714
N35060G01 X35.07 Y237.706
N35070G01 X35.499 Y239.806
N35080G01 X35.646 Y242
N35090G01 X35.499 Y244.193
N35100G01 X35.07 Y246.294
N35110G01 X34.378 Y248.285
N35120G01 X33.443 Y250.149
N35130G01 X32.283 Y251.866
N35140G01 X30.917 Y253.417
N35150G01 X29.366 Y254.783
N35160G01 X27.649 Y255.943
N35170G01 X25.785 Y256.878
N35180G01 X23.794 Y257.57
N35190G01 X21.693 Y257.999
N35200G01 X19.499 Y258.146
N35210G01 X17.306 Y257.999
N35220G01 X15.205 Y257.57
N35230G01 X13.214 Y256.878
N35240G01 X11.35 Y255.943
N35250G01 X9.633 Y254.783
N35260G01 X8.082 Y253.417
N35270G01 X6.716 Y251.866
N35280G01 X5.556 Y250.149
N35290G01 X4.621 Y248.285
N35300G01 X3.929 Y246.294
N35310G01 X3.5 Y244.193
N35320G01 X3.353 Y242
N35330G01 X3.5 Y239.806
N35340G01 X3.929 Y237.706
N35350G01 X4.621 Y235.714
N35360G01 X5.556 Y233.85
N35370G01 X6.716 Y232.133
N35380G01 X8.082 Y230.582
N35390G01 X9.633 Y229.216
N35400G01 X11.35 Y228.056
N35410G01 X13.214 Y227.121
N35420G01 X15.205 Y226.429
N35430G01 X17.306 Y226
N35440 G00 Z19.999
N35450 G00 X19.3 Y240.749
N35460G01 Z-7 F500
N35470G01 X19.5 Y240.736 F1000
N35480G01 X19.699 Y240.749
N35490G01 X19.853 Y240.781
N35500G01 X19.994 Y240.83
N35510G01 X20.131 Y240.899
N35520G01 X20.267 Y240.991
N35530G01 X20.395 Y241.104
N35540G01 X20.508 Y241.232
N35550G01 X20.6 Y241.367
N35560G01 X20.669 Y241.505
N35570G01 X20.718 Y241.645
N35580G01 X20.749 Y241.8
N35590G01 X20.763 Y242
N35600G01 X20.749 Y242.199
N35610G01 X20.718 Y242.354
N35620G01 X20.669 Y242.494
N35630G01 X20.6 Y242.631
N35640G01 X20.508 Y242.767
N35650G01 X20.396 Y242.896
N35660G01 X20.267 Y243.008
N35670G01 X20.132 Y243.1
N35680G01 X19.994 Y243.169
N35690G01 X19.853 Y243.218
N35700G01 X19.699 Y243.25
N35710G01 X19.499 Y243.263
N35720G01 X19.3 Y243.25
N35730G01 X19.146 Y243.218
N35740G01 X19.005 Y243.169
N35750G01 X18.868 Y243.1
N35760G01 X18.732 Y243.009
N35770G01 X18.603 Y242.895
N35780G01 X18.491 Y242.768
N35790G01 X18.399 Y242.631
N35800G01 X18.33 Y242.494
N35810G01 X18.281 Y242.353
N35820G01 X18.25 Y242.199
N35830G01 X18.236 Y242
N35840G01 X18.25 Y241.8
N35850G01 X18.281 Y241.645
N35860G01 X18.33 Y241.505
N35870G01 X18.399 Y241.367
N35880G01 X18.491 Y241.232
N35890G01 X18.604 Y241.103
N35900G01 X18.732 Y240.99
N35910G01 X18.867 Y240.899
N35920G01 X19.005 Y240.83
N35930G01 X19.146 Y240.781
N35940G01 X19.3 Y240.749
N35950G01 X19.119 Y239.409
N35960G01 X19.499 Y239.383
N35970G01 X19.88 Y239.409
N35980G01 X20.212 Y239.476
N35990G01 X20.52 Y239.584
N36000G01 X20.815 Y239.731
N36010G01 X21.094 Y239.92
N36020G01 X21.352 Y240.147
N36030G01 X21.579 Y240.405
N36040G01 X21.768 Y240.684
N36050G01 X21.915 Y240.979
N36060G01 X22.023 Y241.287
N36070G01 X22.09 Y241.619
N36080G01 X22.116 Y242
N36090G01 X22.09 Y242.38
N36100G01 X22.023 Y242.712
N36110G01 X21.915 Y243.02
N36120G01 X21.768 Y243.315
N36130G01 X21.579 Y243.595
N36140G01 X21.352 Y243.852
N36150G01 X21.094 Y244.079
N36160G01 X20.815 Y244.268
N36170G01 X20.52 Y244.416
N36180G01 X20.211 Y244.523
N36190G01 X19.88 Y244.59
N36200G01 X19.499 Y244.616
N36210G01 X19.119 Y244.59
N36220G01 X18.787 Y244.523
N36230G01 X18.479 Y244.415
N36240G01 X18.184 Y244.268
N36250G01 X17.905 Y244.079
N36260G01 X17.647 Y243.852
N36270G01 X17.42 Y243.595
N36280G01 X17.231 Y243.315
N36290G01 X17.084 Y243.02
N36300G01 X16.976 Y242.712
N36310G01 X16.909 Y242.38
N36320G01 X16.883 Y242
N36330G01 X16.909 Y241.619
N36340G01 X16.976 Y241.287
N36350G01 X17.084 Y240.979
N36360G01 X17.231 Y240.684
N36370G01 X17.42 Y240.405
N36380G01 X17.647 Y240.147
N36390G01 X17.905 Y239.92
N36400G01 X18.184 Y239.732
N36410G01 X18.479 Y239.584
N36420G01 X18.787 Y239.476
N36430G01 X19.119 Y239.409
N36440G01 X18.938 Y238.068
N36450G01 X19.499 Y238.03
N36460G01 X20.061 Y238.068
N36470G01 X20.57 Y238.172
N36480G01 X21.047 Y238.337
N36490G01 X21.498 Y238.564
N36500G01 X21.922 Y238.85
N36510G01 X22.309 Y239.19
N36520G01 X22.649 Y239.578
N36530G01 X22.935 Y240.001
N36540G01 X23.162 Y240.452
N36550G01 X23.327 Y240.929
N36560G01 X23.431 Y241.437
N36570G01 X23.469 Y242
N36580G01 X23.431 Y242.562
N36590G01 X23.327 Y243.07
N36600G01 X23.162 Y243.547
N36610G01 X22.935 Y243.998
N36620G01 X22.649 Y244.422
N36630G01 X22.309 Y244.808
N36640G01 X21.921 Y245.149
N36650G01 X21.498 Y245.435
N36660G01 X21.046 Y245.662
N36670G01 X20.57 Y245.827
N36680G01 X20.061 Y245.931
N36690G01 X19.499 Y245.969
N36700G01 X18.938 Y245.931
N36710G01 X18.429 Y245.827
N36720G01 X17.952 Y245.662
N36730G01 X17.501 Y245.435
N36740G01 X17.078 Y245.15
N36750G01 X16.69 Y244.808
N36760G01 X16.35 Y244.422
N36770G01 X16.064 Y243.998
N36780G01 X15.837 Y243.547
N36790G01 X15.672 Y243.07
N36800G01 X15.568 Y242.562
N36810G01 X15.53 Y242
N36820G01 X15.568 Y241.437
N36830G01 X15.672 Y240.929
N36840G01 X15.837 Y240.452
N36850G01 X16.064 Y240.001
N36860G01 X16.35 Y239.577
N36870G01 X16.691 Y239.19
N36880G01 X17.078 Y238.85
N36890G01 X17.501 Y238.564
N36900G01 X17.952 Y238.337
N36910G01 X18.429 Y238.172
N36920G01 X18.938 Y238.068
N36930G01 X18.757 Y236.727
N36940G01 X19.499 Y236.677
N36950G01 X20.243 Y236.727
N36960G01 X20.928 Y236.867
N36970G01 X21.573 Y237.091
N36980G01 X22.182 Y237.396
N36990G01 X22.749 Y237.779
N37000G01 X23.265 Y238.234
N37010G01 X23.72 Y238.75
N37020G01 X24.103 Y239.317
N37030G01 X24.408 Y239.926
N37040G01 X24.632 Y240.571
N37050G01 X24.772 Y241.256
N37060G01 X24.822 Y242
N37070G01 X24.772 Y242.743
N37080G01 X24.632 Y243.428
N37090G01 X24.408 Y244.073
N37100G01 X24.103 Y244.682
N37110G01 X23.719 Y245.249
N37120G01 X23.265 Y245.765
N37130G01 X22.749 Y246.22
N37140G01 X22.182 Y246.603
N37150G01 X21.573 Y246.908
N37160G01 X20.928 Y247.132
N37170G01 X20.243 Y247.272
N37180G01 X19.499 Y247.322
N37190G01 X18.756 Y247.272
N37200G01 X18.071 Y247.132
N37210G01 X17.426 Y246.908
N37220G01 X16.817 Y246.603
N37230G01 X16.251 Y246.22
N37240G01 X15.734 Y245.765
N37250G01 X15.28 Y245.249
N37260G01 X14.896 Y244.682
N37270G01 X14.591 Y244.073
N37280G01 X14.367 Y243.428
N37290G01 X14.227 Y242.743
N37300G01 X14.177 Y242
N37310G01 X14.227 Y241.256
N37320G01 X14.367 Y240.571
N37330G01 X14.591 Y239.926
N37340G01 X14.896 Y239.317
N37350G01 X15.279 Y238.75
N37360G01 X15.734 Y238.234
N37370G01 X16.25 Y237.779
N37380G01 X16.817 Y237.396
N37390G01 X17.426 Y237.091
N37400G01 X18.071 Y236.867
N37410G01 X18.757 Y236.727
N37420G01 X18.575 Y235.386
N37430G01 X19.499 Y235.324
N37440G01 X20.424 Y235.386
N37450G01 X21.286 Y235.562
N37460G01 X22.1 Y235.845
N37470G01 X22.865 Y236.229
N37480G01 X23.576 Y236.709
N37490G01 X24.222 Y237.277
N37500G01 X24.79 Y237.923
N37510G01 X25.27 Y238.634
N37520G01 X25.654 Y239.399
N37530G01 X25.937 Y240.213
N37540G01 X26.113 Y241.075
N37550G01 X26.175 Y242
N37560G01 X26.113 Y242.924
N37570G01 X25.937 Y243.786
N37580G01 X25.654 Y244.6
N37590G01 X25.27 Y245.365
N37600G01 X24.79 Y246.076
N37610G01 X24.222 Y246.721
N37620G01 X23.576 Y247.29
N37630G01 X22.865 Y247.77
N37640G01 X22.1 Y248.154
N37650G01 X21.286 Y248.437
N37660G01 X20.424 Y248.613
N37670G01 X19.499 Y248.675
N37680G01 X18.575 Y248.613
N37690G01 X17.713 Y248.437
N37700G01 X16.899 Y248.154
N37710G01 X16.134 Y247.77
N37720G01 X15.423 Y247.29
N37730G01 X14.777 Y246.721
N37740G01 X14.209 Y246.076
N37750G01 X13.729 Y245.365
N37760G01 X13.345 Y244.6
N37770G01 X13.062 Y243.786
N37780G01 X12.886 Y242.924
N37790G01 X12.824 Y242
N37800G01 X12.886 Y241.075
N37810G01 X13.062 Y240.213
N37820G01 X13.345 Y239.399
N37830G01 X13.729 Y238.634
N37840G01 X14.209 Y237.923
N37850G01 X14.777 Y237.277
N37860G01 X15.423 Y236.709
N37870G01 X16.134 Y236.229
N37880G01 X16.899 Y235.845
N37890G01 X17.713 Y235.562
N37900G01 X18.575 Y235.386
N37910G01 X18.394 Y234.045
N37920G01 X19.499 Y233.971
N37930G01 X20.605 Y234.045
N37940G01 X21.644 Y234.258
N37950G01 X22.626 Y234.599
N37960G01 X23.548 Y235.061
N37970G01 X24.403 Y235.639
N37980G01 X25.178 Y236.321
N37990G01 X25.86 Y237.096
N38000G01 X26.438 Y237.951
N38010G01 X26.9 Y238.873
N38020G01 X27.241 Y239.855
N38030G01 X27.454 Y240.894
N38040G01 X27.528 Y242
N38050G01 X27.454 Y243.105
N38060G01 X27.241 Y244.144
N38070G01 X26.9 Y245.126
N38080G01 X26.438 Y246.048
N38090G01 X25.86 Y246.903
N38100G01 X25.178 Y247.678
N38110G01 X24.403 Y248.361
N38120G01 X23.549 Y248.938
N38130G01 X22.626 Y249.401
N38140G01 X21.644 Y249.742
