(GCode created using the HeeksCNC Mach3 post processor)
(/home/user/git-repos/donation-box/designs/3D/blender/bottom panel/bottom-file.tap)
(G-code generated with BlenderCAM and NC library)
N10 G17 G21 G90
(Tool change)
N20G43H1
N30T1 M06
N40 G00 X0 Y0 Z9.999 S12000 M03
N50 G00 X-1.368 Y-0.018
N60G01 Z-1 F500
N70G01 X-1.368 Y173.006 F1000
N80G01 X-1.362 Y173.138
N90G01 X-1.342 Y173.269
N100G01 X-1.31 Y173.398
N110G01 X-1.265 Y173.522
N120G01 X-1.209 Y173.642
N130G01 X-1.141 Y173.756
N140G01 X-1.062 Y173.862
N150G01 X-0.973 Y173.96
N160G01 X-0.875 Y174.049
N170G01 X-0.768 Y174.128
N180G01 X-0.655 Y174.196
N190G01 X-0.535 Y174.253
N200G01 X-0.41 Y174.298
N210G01 X-0.282 Y174.33
N220G01 X-0.151 Y174.349
N230G01 X-0.018 Y174.356
N240G01 X350.006
N250G01 X350.138 Y174.349
N260G01 X350.269 Y174.33
N270G01 X350.398 Y174.298
N280G01 X350.522 Y174.253
N290G01 X350.642 Y174.196
N300G01 X350.756 Y174.128
N310G01 X350.862 Y174.049
N320G01 X350.96 Y173.96
N330G01 X351.049 Y173.862
N340G01 X351.128 Y173.756
N350G01 X351.196 Y173.642
N360G01 X351.253 Y173.522
N370G01 X351.298 Y173.398
N380G01 X351.33 Y173.269
N390G01 X351.349 Y173.138
N400G01 X351.356 Y173.006
N410G01 X351.356 Y-0.018
N420G01 X351.349 Y-0.151
N430G01 X351.33 Y-0.282
N440G01 X351.298 Y-0.41
N450G01 X351.253 Y-0.535
N460G01 X351.196 Y-0.655
N470G01 X351.128 Y-0.768
N480G01 X351.049 Y-0.875
N490G01 X350.96 Y-0.973
N500G01 X350.862 Y-1.062
N510G01 X350.756 Y-1.141
N520G01 X350.642 Y-1.209
N530G01 X350.522 Y-1.265
N540G01 X350.398 Y-1.31
N550G01 X350.269 Y-1.342
N560G01 X350.138 Y-1.362
N570G01 X350.006 Y-1.368
N580G01 X-0.151 Y-1.362
N590G01 X-0.282 Y-1.342
N600G01 X-0.41 Y-1.31
N610G01 X-0.535 Y-1.265
N620G01 X-0.655 Y-1.209
N630G01 X-0.768 Y-1.141
N640G01 X-0.875 Y-1.062
N650G01 X-0.973 Y-0.973
N660G01 X-1.062 Y-0.875
N670G01 X-1.141 Y-0.768
N680G01 X-1.209 Y-0.655
N690G01 X-1.265 Y-0.535
N700G01 X-1.31 Y-0.41
N710G01 X-1.342 Y-0.282
N720G01 X-1.362 Y-0.151
N730G01 X-1.368 Y-0.018
N740G01 Z-2 F500
N750G01 X-1.368 Y173.006 F1000
N760G01 X-1.362 Y173.138
N770G01 X-1.342 Y173.269
N780G01 X-1.31 Y173.398
N790G01 X-1.265 Y173.522
N800G01 X-1.209 Y173.642
N810G01 X-1.141 Y173.756
N820G01 X-1.062 Y173.862
N830G01 X-0.973 Y173.96
N840G01 X-0.875 Y174.049
N850G01 X-0.768 Y174.128
N860G01 X-0.655 Y174.196
N870G01 X-0.535 Y174.253
N880G01 X-0.41 Y174.298
N890G01 X-0.282 Y174.33
N900G01 X-0.151 Y174.349
N910G01 X-0.018 Y174.356
N920G01 X350.006
N930G01 X350.138 Y174.349
N940G01 X350.269 Y174.33
N950G01 X350.398 Y174.298
N960G01 X350.522 Y174.253
N970G01 X350.642 Y174.196
N980G01 X350.756 Y174.128
N990G01 X350.862 Y174.049
N1000G01 X350.96 Y173.96
N1010G01 X351.049 Y173.862
N1020G01 X351.128 Y173.756
N1030G01 X351.196 Y173.642
N1040G01 X351.253 Y173.522
N1050G01 X351.298 Y173.398
N1060G01 X351.33 Y173.269
N1070G01 X351.349 Y173.138
N1080G01 X351.356 Y173.006
N1090G01 X351.356 Y-0.018
N1100G01 X351.349 Y-0.151
N1110G01 X351.33 Y-0.282
N1120G01 X351.298 Y-0.41
N1130G01 X351.253 Y-0.535
N1140G01 X351.196 Y-0.655
N1150G01 X351.128 Y-0.768
N1160G01 X351.049 Y-0.875
N1170G01 X350.96 Y-0.973
N1180G01 X350.862 Y-1.062
N1190G01 X350.756 Y-1.141
N1200G01 X350.642 Y-1.209
N1210G01 X350.522 Y-1.265
N1220G01 X350.398 Y-1.31
N1230G01 X350.269 Y-1.342
N1240G01 X350.138 Y-1.362
N1250G01 X350.006 Y-1.368
N1260G01 X-0.151 Y-1.362
N1270G01 X-0.282 Y-1.342
N1280G01 X-0.41 Y-1.31
N1290G01 X-0.535 Y-1.265
N1300G01 X-0.655 Y-1.209
N1310G01 X-0.768 Y-1.141
N1320G01 X-0.875 Y-1.062
N1330G01 X-0.973 Y-0.973
N1340G01 X-1.062 Y-0.875
N1350G01 X-1.141 Y-0.768
N1360G01 X-1.209 Y-0.655
N1370G01 X-1.265 Y-0.535
N1380G01 X-1.31 Y-0.41
N1390G01 X-1.342 Y-0.282
N1400G01 X-1.362 Y-0.151
N1410G01 X-1.368 Y-0.018
N1420G01 Z-3 F500
N1430G01 X-1.368 Y173.006 F1000
N1440G01 X-1.362 Y173.138
N1450G01 X-1.342 Y173.269
N1460G01 X-1.31 Y173.398
N1470G01 X-1.265 Y173.522
N1480G01 X-1.209 Y173.642
N1490G01 X-1.141 Y173.756
N1500G01 X-1.062 Y173.862
N1510G01 X-0.973 Y173.96
N1520G01 X-0.875 Y174.049
N1530G01 X-0.768 Y174.128
N1540G01 X-0.655 Y174.196
N1550G01 X-0.535 Y174.253
N1560G01 X-0.41 Y174.298
N1570G01 X-0.282 Y174.33
N1580G01 X-0.151 Y174.349
N1590G01 X-0.018 Y174.356
N1600G01 X350.006
N1610G01 X350.138 Y174.349
N1620G01 X350.269 Y174.33
N1630G01 X350.398 Y174.298
N1640G01 X350.522 Y174.253
N1650G01 X350.642 Y174.196
N1660G01 X350.756 Y174.128
N1670G01 X350.862 Y174.049
N1680G01 X350.96 Y173.96
N1690G01 X351.049 Y173.862
N1700G01 X351.128 Y173.756
N1710G01 X351.196 Y173.642
N1720G01 X351.253 Y173.522
N1730G01 X351.298 Y173.398
N1740G01 X351.33 Y173.269
N1750G01 X351.349 Y173.138
N1760G01 X351.356 Y173.006
N1770G01 X351.356 Y-0.018
N1780G01 X351.349 Y-0.151
N1790G01 X351.33 Y-0.282
N1800G01 X351.298 Y-0.41
N1810G01 X351.253 Y-0.535
N1820G01 X351.196 Y-0.655
N1830G01 X351.128 Y-0.768
N1840G01 X351.049 Y-0.875
N1850G01 X350.96 Y-0.973
N1860G01 X350.862 Y-1.062
N1870G01 X350.756 Y-1.141
N1880G01 X350.642 Y-1.209
N1890G01 X350.522 Y-1.265
N1900G01 X350.398 Y-1.31
N1910G01 X350.269 Y-1.342
N1920G01 X350.138 Y-1.362
N1930G01 X350.006 Y-1.368
N1940G01 X-0.151 Y-1.362
N1950G01 X-0.282 Y-1.342
N1960G01 X-0.41 Y-1.31
N1970G01 X-0.535 Y-1.265
N1980G01 X-0.655 Y-1.209
N1990G01 X-0.768 Y-1.141
N2000G01 X-0.875 Y-1.062
N2010G01 X-0.973 Y-0.973
N2020G01 X-1.062 Y-0.875
N2030G01 X-1.141 Y-0.768
N2040G01 X-1.209 Y-0.655
N2050G01 X-1.265 Y-0.535
N2060G01 X-1.31 Y-0.41
N2070G01 X-1.342 Y-0.282
N2080G01 X-1.362 Y-0.151
N2090G01 X-1.368 Y-0.018
N2100G01 Z-4 F500
N2110G01 X-1.368 Y173.006 F1000
N2120G01 X-1.362 Y173.138
N2130G01 X-1.342 Y173.269
N2140G01 X-1.31 Y173.398
N2150G01 X-1.265 Y173.522
N2160G01 X-1.209 Y173.642
N2170G01 X-1.141 Y173.756
N2180G01 X-1.062 Y173.862
N2190G01 X-0.973 Y173.96
N2200G01 X-0.875 Y174.049
N2210G01 X-0.768 Y174.128
N2220G01 X-0.655 Y174.196
N2230G01 X-0.535 Y174.253
N2240G01 X-0.41 Y174.298
N2250G01 X-0.282 Y174.33
N2260G01 X-0.151 Y174.349
N2270G01 X-0.018 Y174.356
N2280G01 X350.006
N2290G01 X350.138 Y174.349
N2300G01 X350.269 Y174.33
N2310G01 X350.398 Y174.298
N2320G01 X350.522 Y174.253
N2330G01 X350.642 Y174.196
N2340G01 X350.756 Y174.128
N2350G01 X350.862 Y174.049
N2360G01 X350.96 Y173.96
N2370G01 X351.049 Y173.862
N2380G01 X351.128 Y173.756
N2390G01 X351.196 Y173.642
N2400G01 X351.253 Y173.522
N2410G01 X351.298 Y173.398
N2420G01 X351.33 Y173.269
N2430G01 X351.349 Y173.138
N2440G01 X351.356 Y173.006
N2450G01 X351.356 Y-0.018
N2460G01 X351.349 Y-0.151
N2470G01 X351.33 Y-0.282
N2480G01 X351.298 Y-0.41
N2490G01 X351.253 Y-0.535
N2500G01 X351.196 Y-0.655
N2510G01 X351.128 Y-0.768
N2520G01 X351.049 Y-0.875
N2530G01 X350.96 Y-0.973
N2540G01 X350.862 Y-1.062
N2550G01 X350.756 Y-1.141
N2560G01 X350.642 Y-1.209
N2570G01 X350.522 Y-1.265
N2580G01 X350.398 Y-1.31
N2590G01 X350.269 Y-1.342
N2600G01 X350.138 Y-1.362
N2610G01 X350.006 Y-1.368
N2620G01 X-0.151 Y-1.362
N2630G01 X-0.282 Y-1.342
N2640G01 X-0.41 Y-1.31
N2650G01 X-0.535 Y-1.265
N2660G01 X-0.655 Y-1.209
N2670G01 X-0.768 Y-1.141
N2680G01 X-0.875 Y-1.062
N2690G01 X-0.973 Y-0.973
N2700G01 X-1.062 Y-0.875
N2710G01 X-1.141 Y-0.768
N2720G01 X-1.209 Y-0.655
N2730G01 X-1.265 Y-0.535
N2740G01 X-1.31 Y-0.41
N2750G01 X-1.342 Y-0.282
N2760G01 X-1.362 Y-0.151
N2770G01 X-1.368 Y-0.018
N2780G01 Z-5 F500
N2790G01 X-1.368 Y173.006 F1000
N2800G01 X-1.362 Y173.138
N2810G01 X-1.342 Y173.269
N2820G01 X-1.31 Y173.398
N2830G01 X-1.265 Y173.522
N2840G01 X-1.209 Y173.642
N2850G01 X-1.141 Y173.756
N2860G01 X-1.062 Y173.862
N2870G01 X-0.973 Y173.96
N2880G01 X-0.875 Y174.049
N2890G01 X-0.768 Y174.128
N2900G01 X-0.655 Y174.196
N2910G01 X-0.535 Y174.253
N2920G01 X-0.41 Y174.298
N2930G01 X-0.282 Y174.33
N2940G01 X-0.151 Y174.349
N2950G01 X-0.018 Y174.356
N2960G01 X350.006
N2970G01 X350.138 Y174.349
N2980G01 X350.269 Y174.33
N2990G01 X350.398 Y174.298
N3000G01 X350.522 Y174.253
N3010G01 X350.642 Y174.196
N3020G01 X350.756 Y174.128
N3030G01 X350.862 Y174.049
N3040G01 X350.96 Y173.96
N3050G01 X351.049 Y173.862
N3060G01 X351.128 Y173.756
N3070G01 X351.196 Y173.642
N3080G01 X351.253 Y173.522
N3090G01 X351.298 Y173.398
N3100G01 X351.33 Y173.269
N3110G01 X351.349 Y173.138
N3120G01 X351.356 Y173.006
N3130G01 X351.356 Y-0.018
N3140G01 X351.349 Y-0.151
N3150G01 X351.33 Y-0.282
N3160G01 X351.298 Y-0.41
N3170G01 X351.253 Y-0.535
N3180G01 X351.196 Y-0.655
N3190G01 X351.128 Y-0.768
N3200G01 X351.049 Y-0.875
N3210G01 X350.96 Y-0.973
N3220G01 X350.862 Y-1.062
N3230G01 X350.756 Y-1.141
N3240G01 X350.642 Y-1.209
N3250G01 X350.522 Y-1.265
N3260G01 X350.398 Y-1.31
N3270G01 X350.269 Y-1.342
N3280G01 X350.138 Y-1.362
N3290G01 X350.006 Y-1.368
N3300G01 X-0.151 Y-1.362
N3310G01 X-0.282 Y-1.342
N3320G01 X-0.41 Y-1.31
N3330G01 X-0.535 Y-1.265
N3340G01 X-0.655 Y-1.209
N3350G01 X-0.768 Y-1.141
N3360G01 X-0.875 Y-1.062
N3370G01 X-0.973 Y-0.973
N3380G01 X-1.062 Y-0.875
N3390G01 X-1.141 Y-0.768
N3400G01 X-1.209 Y-0.655
N3410G01 X-1.265 Y-0.535
N3420G01 X-1.31 Y-0.41
N3430G01 X-1.342 Y-0.282
N3440G01 X-1.362 Y-0.151
N3450G01 X-1.368 Y-0.018
N3460G01 Z-6 F500
N3470G01 X-1.368 Y173.006 F1000
N3480G01 X-1.362 Y173.138
N3490G01 X-1.342 Y173.269
N3500G01 X-1.31 Y173.398
N3510G01 X-1.265 Y173.522
N3520G01 X-1.209 Y173.642
N3530G01 X-1.141 Y173.756
N3540G01 X-1.062 Y173.862
N3550G01 X-0.973 Y173.96
N3560G01 X-0.875 Y174.049
N3570G01 X-0.768 Y174.128
N3580G01 X-0.655 Y174.196
N3590G01 X-0.535 Y174.253
N3600G01 X-0.41 Y174.298
N3610G01 X-0.282 Y174.33
N3620G01 X-0.151 Y174.349
N3630G01 X-0.018 Y174.356
N3640G01 X350.006
N3650G01 X350.138 Y174.349
N3660G01 X350.269 Y174.33
N3670G01 X350.398 Y174.298
N3680G01 X350.522 Y174.253
N3690G01 X350.642 Y174.196
N3700G01 X350.756 Y174.128
N3710G01 X350.862 Y174.049
N3720G01 X350.96 Y173.96
N3730G01 X351.049 Y173.862
N3740G01 X351.128 Y173.756
N3750G01 X351.196 Y173.642
N3760G01 X351.253 Y173.522
N3770G01 X351.298 Y173.398
N3780G01 X351.33 Y173.269
N3790G01 X351.349 Y173.138
N3800G01 X351.356 Y173.006
N3810G01 X351.356 Y-0.018
N3820G01 X351.349 Y-0.151
N3830G01 X351.33 Y-0.282
N3840G01 X351.298 Y-0.41
N3850G01 X351.253 Y-0.535
N3860G01 X351.196 Y-0.655
N3870G01 X351.128 Y-0.768
N3880G01 X351.049 Y-0.875
N3890G01 X350.96 Y-0.973
N3900G01 X350.862 Y-1.062
N3910G01 X350.756 Y-1.141
N3920G01 X350.642 Y-1.209
N3930G01 X350.522 Y-1.265
N3940G01 X350.398 Y-1.31
N3950G01 X350.269 Y-1.342
N3960G01 X350.138 Y-1.362
N3970G01 X350.006 Y-1.368
N3980G01 X-0.151 Y-1.362
N3990G01 X-0.282 Y-1.342
N4000G01 X-0.41 Y-1.31
N4010G01 X-0.535 Y-1.265
N4020G01 X-0.655 Y-1.209
N4030G01 X-0.768 Y-1.141
N4040G01 X-0.875 Y-1.062
N4050G01 X-0.973 Y-0.973
N4060G01 X-1.062 Y-0.875
N4070G01 X-1.141 Y-0.768
N4080G01 X-1.209 Y-0.655
N4090G01 X-1.265 Y-0.535
N4100G01 X-1.31 Y-0.41
N4110G01 X-1.342 Y-0.282
N4120G01 X-1.362 Y-0.151
N4130G01 X-1.368 Y-0.018
N4140G01 Z-7 F500
N4150G01 X-1.368 Y173.006 F1000
N4160G01 X-1.362 Y173.138
N4170G01 X-1.342 Y173.269
N4180G01 X-1.31 Y173.398
N4190G01 X-1.265 Y173.522
N4200G01 X-1.209 Y173.642
N4210G01 X-1.141 Y173.756
N4220G01 X-1.062 Y173.862
N4230G01 X-0.973 Y173.96
N4240G01 X-0.875 Y174.049
N4250G01 X-0.768 Y174.128
N4260G01 X-0.655 Y174.196
N4270G01 X-0.535 Y174.253
N4280G01 X-0.41 Y174.298
N4290G01 X-0.282 Y174.33
N4300G01 X-0.151 Y174.349
N4310G01 X-0.018 Y174.356
N4320G01 X350.006
N4330G01 X350.138 Y174.349
N4340G01 X350.269 Y174.33
N4350G01 X350.398 Y174.298
N4360G01 X350.522 Y174.253
N4370G01 X350.642 Y174.196
N4380G01 X350.756 Y174.128
N4390G01 X350.862 Y174.049
N4400G01 X350.96 Y173.96
N4410G01 X351.049 Y173.862
N4420G01 X351.128 Y173.756
N4430G01 X351.196 Y173.642
N4440G01 X351.253 Y173.522
N4450G01 X351.298 Y173.398
N4460G01 X351.33 Y173.269
N4470G01 X351.349 Y173.138
N4480G01 X351.356 Y173.006
N4490G01 X351.356 Y-0.018
N4500G01 X351.349 Y-0.151
N4510G01 X351.33 Y-0.282
N4520G01 X351.298 Y-0.41
N4530G01 X351.253 Y-0.535
N4540G01 X351.196 Y-0.655
N4550G01 X351.128 Y-0.768
N4560G01 X351.049 Y-0.875
N4570G01 X350.96 Y-0.973
N4580G01 X350.862 Y-1.062
N4590G01 X350.756 Y-1.141
N4600G01 X350.642 Y-1.209
N4610G01 X350.522 Y-1.265
N4620G01 X350.398 Y-1.31
N4630G01 X350.269 Y-1.342
N4640G01 X350.138 Y-1.362
N4650G01 X350.006 Y-1.368
N4660G01 X-0.151 Y-1.362
N4670G01 X-0.282 Y-1.342
N4680G01 X-0.41 Y-1.31
N4690G01 X-0.535 Y-1.265
N4700G01 X-0.655 Y-1.209
N4710G01 X-0.768 Y-1.141
N4720G01 X-0.875 Y-1.062
N4730G01 X-0.973 Y-0.973
N4740G01 X-1.062 Y-0.875
N4750G01 X-1.141 Y-0.768
N4760G01 X-1.209 Y-0.655
N4770G01 X-1.265 Y-0.535
N4780G01 X-1.31 Y-0.41
N4790G01 X-1.342 Y-0.282
N4800G01 X-1.362 Y-0.151
N4810G01 X-1.368 Y-0.018
N4820G01 Z-8 F500
N4830G01 X-1.368 Y173.006 F1000
N4840G01 X-1.362 Y173.138
N4850G01 X-1.342 Y173.269
N4860G01 X-1.31 Y173.398
N4870G01 X-1.265 Y173.522
N4880G01 X-1.209 Y173.642
N4890G01 X-1.141 Y173.756
N4900G01 X-1.062 Y173.862
N4910G01 X-0.973 Y173.96
N4920G01 X-0.875 Y174.049
N4930G01 X-0.768 Y174.128
N4940G01 X-0.655 Y174.196
N4950G01 X-0.535 Y174.253
N4960G01 X-0.41 Y174.298
N4970G01 X-0.282 Y174.33
N4980G01 X-0.151 Y174.349
N4990G01 X-0.018 Y174.356
N5000G01 X350.006
N5010G01 X350.138 Y174.349
N5020G01 X350.269 Y174.33
N5030G01 X350.398 Y174.298
N5040G01 X350.522 Y174.253
N5050G01 X350.642 Y174.196
N5060G01 X350.756 Y174.128
N5070G01 X350.862 Y174.049
N5080G01 X350.96 Y173.96
N5090G01 X351.049 Y173.862
N5100G01 X351.128 Y173.756
N5110G01 X351.196 Y173.642
N5120G01 X351.253 Y173.522
N5130G01 X351.298 Y173.398
N5140G01 X351.33 Y173.269
N5150G01 X351.349 Y173.138
N5160G01 X351.356 Y173.006
N5170G01 X351.356 Y-0.018
N5180G01 X351.349 Y-0.151
N5190G01 X351.33 Y-0.282
N5200G01 X351.298 Y-0.41
N5210G01 X351.253 Y-0.535
N5220G01 X351.196 Y-0.655
N5230G01 X351.128 Y-0.768
N5240G01 X351.049 Y-0.875
N5250G01 X350.96 Y-0.973
N5260G01 X350.862 Y-1.062
N5270G01 X350.756 Y-1.141
N5280G01 X350.642 Y-1.209
N5290G01 X350.522 Y-1.265
N5300G01 X350.398 Y-1.31
N5310G01 X350.269 Y-1.342
N5320G01 X350.138 Y-1.362
N5330G01 X350.006 Y-1.368
N5340G01 X-0.151 Y-1.362
N5350G01 X-0.282 Y-1.342
N5360G01 X-0.41 Y-1.31
N5370G01 X-0.535 Y-1.265
N5380G01 X-0.655 Y-1.209
N5390G01 X-0.768 Y-1.141
N5400G01 X-0.875 Y-1.062
N5410G01 X-0.973 Y-0.973
N5420G01 X-1.062 Y-0.875
N5430G01 X-1.141 Y-0.768
N5440G01 X-1.209 Y-0.655
N5450G01 X-1.265 Y-0.535
N5460G01 X-1.31 Y-0.41
N5470G01 X-1.342 Y-0.282
N5480G01 X-1.362 Y-0.151
N5490G01 X-1.368 Y-0.018
N5500G01 Z-9 F500
N5510G01 X-1.368 Y173.006 F1000
N5520G01 X-1.362 Y173.138
N5530G01 X-1.342 Y173.269
N5540G01 X-1.31 Y173.398
N5550G01 X-1.265 Y173.522
N5560G01 X-1.209 Y173.642
N5570G01 X-1.141 Y173.756
N5580G01 X-1.062 Y173.862
N5590G01 X-0.973 Y173.96
N5600G01 X-0.875 Y174.049
N5610G01 X-0.768 Y174.128
N5620G01 X-0.655 Y174.196
N5630G01 X-0.535 Y174.253
N5640G01 X-0.41 Y174.298
N5650G01 X-0.282 Y174.33
N5660G01 X-0.151 Y174.349
N5670G01 X-0.018 Y174.356
N5680G01 X350.006
N5690G01 X350.138 Y174.349
N5700G01 X350.269 Y174.33
N5710G01 X350.398 Y174.298
N5720G01 X350.522 Y174.253
N5730G01 X350.642 Y174.196
N5740G01 X350.756 Y174.128
N5750G01 X350.862 Y174.049
N5760G01 X350.96 Y173.96
N5770G01 X351.049 Y173.862
N5780G01 X351.128 Y173.756
N5790G01 X351.196 Y173.642
N5800G01 X351.253 Y173.522
N5810G01 X351.298 Y173.398
N5820G01 X351.33 Y173.269
N5830G01 X351.349 Y173.138
N5840G01 X351.356 Y173.006
N5850G01 X351.356 Y-0.018
N5860G01 X351.349 Y-0.151
N5870G01 X351.33 Y-0.282
N5880G01 X351.298 Y-0.41
N5890G01 X351.253 Y-0.535
N5900G01 X351.196 Y-0.655
N5910G01 X351.128 Y-0.768
N5920G01 X351.049 Y-0.875
N5930G01 X350.96 Y-0.973
N5940G01 X350.862 Y-1.062
N5950G01 X350.756 Y-1.141
N5960G01 X350.642 Y-1.209
N5970G01 X350.522 Y-1.265
N5980G01 X350.398 Y-1.31
N5990G01 X350.269 Y-1.342
N6000G01 X350.138 Y-1.362
N6010G01 X350.006 Y-1.368
N6020G01 X-0.151 Y-1.362
N6030G01 X-0.282 Y-1.342
N6040G01 X-0.41 Y-1.31
N6050G01 X-0.535 Y-1.265
N6060G01 X-0.655 Y-1.209
N6070G01 X-0.768 Y-1.141
N6080G01 X-0.875 Y-1.062
N6090G01 X-0.973 Y-0.973
N6100G01 X-1.062 Y-0.875
N6110G01 X-1.141 Y-0.768
N6120G01 X-1.209 Y-0.655
N6130G01 X-1.265 Y-0.535
N6140G01 X-1.31 Y-0.41
N6150G01 X-1.342 Y-0.282
N6160G01 X-1.362 Y-0.151
N6170G01 X-1.368 Y-0.018
N6180G01 Z-10 F500
N6190G01 X-1.368 Y173.006 F1000
N6200G01 X-1.362 Y173.138
N6210G01 X-1.342 Y173.269
N6220G01 X-1.31 Y173.398
N6230G01 X-1.265 Y173.522
N6240G01 X-1.209 Y173.642
N6250G01 X-1.141 Y173.756
N6260G01 X-1.062 Y173.862
N6270G01 X-0.973 Y173.96
N6280G01 X-0.875 Y174.049
N6290G01 X-0.768 Y174.128
N6300G01 X-0.655 Y174.196
N6310G01 X-0.535 Y174.253
N6320G01 X-0.41 Y174.298
N6330G01 X-0.282 Y174.33
N6340G01 X-0.151 Y174.349
N6350G01 X-0.018 Y174.356
N6360G01 X350.006
N6370G01 X350.138 Y174.349
N6380G01 X350.269 Y174.33
N6390G01 X350.398 Y174.298
N6400G01 X350.522 Y174.253
N6410G01 X350.642 Y174.196
N6420G01 X350.756 Y174.128
N6430G01 X350.862 Y174.049
N6440G01 X350.96 Y173.96
N6450G01 X351.049 Y173.862
N6460G01 X351.128 Y173.756
N6470G01 X351.196 Y173.642
N6480G01 X351.253 Y173.522
N6490G01 X351.298 Y173.398
N6500G01 X351.33 Y173.269
N6510G01 X351.349 Y173.138
N6520G01 X351.356 Y173.006
N6530G01 X351.356 Y-0.018
N6540G01 X351.349 Y-0.151
N6550G01 X351.33 Y-0.282
N6560G01 X351.298 Y-0.41
N6570G01 X351.253 Y-0.535
N6580G01 X351.196 Y-0.655
N6590G01 X351.128 Y-0.768
N6600G01 X351.049 Y-0.875
N6610G01 X350.96 Y-0.973
N6620G01 X350.862 Y-1.062
N6630G01 X350.756 Y-1.141
N6640G01 X350.642 Y-1.209
N6650G01 X350.522 Y-1.265
N6660G01 X350.398 Y-1.31
N6670G01 X350.269 Y-1.342
N6680G01 X350.138 Y-1.362
N6690G01 X350.006 Y-1.368
N6700G01 X-0.151 Y-1.362
N6710G01 X-0.282 Y-1.342
N6720G01 X-0.41 Y-1.31
N6730G01 X-0.535 Y-1.265
N6740G01 X-0.655 Y-1.209
N6750G01 X-0.768 Y-1.141
N6760G01 X-0.875 Y-1.062
N6770G01 X-0.973 Y-0.973
N6780G01 X-1.062 Y-0.875
N6790G01 X-1.141 Y-0.768
N6800G01 X-1.209 Y-0.655
N6810G01 X-1.265 Y-0.535
N6820G01 X-1.31 Y-0.41
N6830G01 X-1.342 Y-0.282
N6840G01 X-1.362 Y-0.151
N6850G01 X-1.368 Y-0.018
N6860G01 Z-11 F500
N6870G01 X-1.368 Y173.006 F1000
N6880G01 X-1.362 Y173.138
N6890G01 X-1.342 Y173.269
N6900G01 X-1.31 Y173.398
N6910G01 X-1.265 Y173.522
N6920G01 X-1.209 Y173.642
N6930G01 X-1.141 Y173.756
N6940G01 X-1.062 Y173.862
N6950G01 X-0.973 Y173.96
N6960G01 X-0.875 Y174.049
N6970G01 X-0.768 Y174.128
N6980G01 X-0.655 Y174.196
N6990G01 X-0.535 Y174.253
N7000G01 X-0.41 Y174.298
N7010G01 X-0.282 Y174.33
N7020G01 X-0.151 Y174.349
N7030G01 X-0.018 Y174.356
N7040G01 X350.006
N7050G01 X350.138 Y174.349
N7060G01 X350.269 Y174.33
N7070G01 X350.398 Y174.298
N7080G01 X350.522 Y174.253
N7090G01 X350.642 Y174.196
N7100G01 X350.756 Y174.128
N7110G01 X350.862 Y174.049
N7120G01 X350.96 Y173.96
N7130G01 X351.049 Y173.862
N7140G01 X351.128 Y173.756
N7150G01 X351.196 Y173.642
N7160G01 X351.253 Y173.522
N7170G01 X351.298 Y173.398
N7180G01 X351.33 Y173.269
N7190G01 X351.349 Y173.138
N7200G01 X351.356 Y173.006
N7210G01 X351.356 Y-0.018
N7220G01 X351.349 Y-0.151
N7230G01 X351.33 Y-0.282
N7240G01 X351.298 Y-0.41
N7250G01 X351.253 Y-0.535
N7260G01 X351.196 Y-0.655
N7270G01 X351.128 Y-0.768
N7280G01 X351.049 Y-0.875
N7290G01 X350.96 Y-0.973
N7300G01 X350.862 Y-1.062
N7310G01 X350.756 Y-1.141
N7320G01 X350.642 Y-1.209
N7330G01 X350.522 Y-1.265
N7340G01 X350.398 Y-1.31
N7350G01 X350.269 Y-1.342
N7360G01 X350.138 Y-1.362
N7370G01 X350.006 Y-1.368
N7380G01 X-0.151 Y-1.362
N7390G01 X-0.282 Y-1.342
N7400G01 X-0.41 Y-1.31
N7410G01 X-0.535 Y-1.265
N7420G01 X-0.655 Y-1.209
N7430G01 X-0.768 Y-1.141
N7440G01 X-0.875 Y-1.062
N7450G01 X-0.973 Y-0.973
N7460G01 X-1.062 Y-0.875
N7470G01 X-1.141 Y-0.768
N7480G01 X-1.209 Y-0.655
N7490G01 X-1.265 Y-0.535
N7500G01 X-1.31 Y-0.41
N7510G01 X-1.342 Y-0.282
N7520G01 X-1.362 Y-0.151
N7530G01 X-1.368 Y-0.018
N7540G01 Z-12 F500
N7550G01 X-1.368 Y173.006 F1000
N7560G01 X-1.362 Y173.138
N7570G01 X-1.342 Y173.269
N7580G01 X-1.31 Y173.398
N7590G01 X-1.265 Y173.522
N7600G01 X-1.209 Y173.642
N7610G01 X-1.141 Y173.756
N7620G01 X-1.062 Y173.862
N7630G01 X-0.973 Y173.96
N7640G01 X-0.875 Y174.049
N7650G01 X-0.768 Y174.128
N7660G01 X-0.655 Y174.196
N7670G01 X-0.535 Y174.253
N7680G01 X-0.41 Y174.298
N7690G01 X-0.282 Y174.33
N7700G01 X-0.151 Y174.349
N7710G01 X-0.018 Y174.356
N7720G01 X350.006
N7730G01 X350.138 Y174.349
N7740G01 X350.269 Y174.33
N7750G01 X350.398 Y174.298
N7760G01 X350.522 Y174.253
N7770G01 X350.642 Y174.196
N7780G01 X350.756 Y174.128
N7790G01 X350.862 Y174.049
N7800G01 X350.96 Y173.96
N7810G01 X351.049 Y173.862
N7820G01 X351.128 Y173.756
N7830G01 X351.196 Y173.642
N7840G01 X351.253 Y173.522
N7850G01 X351.298 Y173.398
N7860G01 X351.33 Y173.269
N7870G01 X351.349 Y173.138
N7880G01 X351.356 Y173.006
N7890G01 X351.356 Y-0.018
N7900G01 X351.349 Y-0.151
N7910G01 X351.33 Y-0.282
N7920G01 X351.298 Y-0.41
N7930G01 X351.253 Y-0.535
N7940G01 X351.196 Y-0.655
N7950G01 X351.128 Y-0.768
N7960G01 X351.049 Y-0.875
N7970G01 X350.96 Y-0.973
N7980G01 X350.862 Y-1.062
N7990G01 X350.756 Y-1.141
N8000G01 X350.642 Y-1.209
N8010G01 X350.522 Y-1.265
N8020G01 X350.398 Y-1.31
N8030G01 X350.269 Y-1.342
N8040G01 X350.138 Y-1.362
N8050G01 X350.006 Y-1.368
N8060G01 X-0.151 Y-1.362
N8070G01 X-0.282 Y-1.342
N8080G01 X-0.41 Y-1.31
N8090G01 X-0.535 Y-1.265
N8100G01 X-0.655 Y-1.209
N8110G01 X-0.768 Y-1.141
N8120G01 X-0.875 Y-1.062
N8130G01 X-0.973 Y-0.973
N8140G01 X-1.062 Y-0.875
N8150G01 X-1.141 Y-0.768
N8160G01 X-1.209 Y-0.655
N8170G01 X-1.265 Y-0.535
N8180G01 X-1.31 Y-0.41
N8190G01 X-1.342 Y-0.282
N8200G01 X-1.362 Y-0.151
N8210G01 X-1.368 Y-0.018
N8220G01 Z-13 F500
N8230G01 X-1.368 Y173.006 F1000
N8240G01 X-1.362 Y173.138
N8250G01 X-1.342 Y173.269
N8260G01 X-1.31 Y173.398
N8270G01 X-1.265 Y173.522
N8280G01 X-1.209 Y173.642
N8290G01 X-1.141 Y173.756
N8300G01 X-1.062 Y173.862
N8310G01 X-0.973 Y173.96
N8320G01 X-0.875 Y174.049
N8330G01 X-0.768 Y174.128
N8340G01 X-0.655 Y174.196
N8350G01 X-0.535 Y174.253
N8360G01 X-0.41 Y174.298
N8370G01 X-0.282 Y174.33
N8380G01 X-0.151 Y174.349
N8390G01 X-0.018 Y174.356
N8400G01 X350.006
N8410G01 X350.138 Y174.349
N8420G01 X350.269 Y174.33
N8430G01 X350.398 Y174.298
N8440G01 X350.522 Y174.253
N8450G01 X350.642 Y174.196
N8460G01 X350.756 Y174.128
N8470G01 X350.862 Y174.049
N8480G01 X350.96 Y173.96
N8490G01 X351.049 Y173.862
N8500G01 X351.128 Y173.756
N8510G01 X351.196 Y173.642
N8520G01 X351.253 Y173.522
N8530G01 X351.298 Y173.398
N8540G01 X351.33 Y173.269
N8550G01 X351.349 Y173.138
N8560G01 X351.356 Y173.006
N8570G01 X351.356 Y-0.018
N8580G01 X351.349 Y-0.151
N8590G01 X351.33 Y-0.282
N8600G01 X351.298 Y-0.41
N8610G01 X351.253 Y-0.535
N8620G01 X351.196 Y-0.655
N8630G01 X351.128 Y-0.768
N8640G01 X351.049 Y-0.875
N8650G01 X350.96 Y-0.973
N8660G01 X350.862 Y-1.062
N8670G01 X350.756 Y-1.141
N8680G01 X350.642 Y-1.209
N8690G01 X350.522 Y-1.265
N8700G01 X350.398 Y-1.31
N8710G01 X350.269 Y-1.342
N8720G01 X350.138 Y-1.362
N8730G01 X350.006 Y-1.368
N8740G01 X-0.151 Y-1.362
N8750G01 X-0.282 Y-1.342
N8760G01 X-0.41 Y-1.31
N8770G01 X-0.535 Y-1.265
N8780G01 X-0.655 Y-1.209
N8790G01 X-0.768 Y-1.141
N8800G01 X-0.875 Y-1.062
N8810G01 X-0.973 Y-0.973
N8820G01 X-1.062 Y-0.875
N8830G01 X-1.141 Y-0.768
N8840G01 X-1.209 Y-0.655
N8850G01 X-1.265 Y-0.535
N8860G01 X-1.31 Y-0.41
N8870G01 X-1.342 Y-0.282
N8880G01 X-1.362 Y-0.151
N8890G01 X-1.368 Y-0.018
N8900G01 Z-14 F500
N8910G01 X-1.368 Y173.006 F1000
N8920G01 X-1.362 Y173.138
N8930G01 X-1.342 Y173.269
N8940G01 X-1.31 Y173.398
N8950G01 X-1.265 Y173.522
N8960G01 X-1.209 Y173.642
N8970G01 X-1.141 Y173.756
N8980G01 X-1.062 Y173.862
N8990G01 X-0.973 Y173.96
N9000G01 X-0.875 Y174.049
N9010G01 X-0.768 Y174.128
N9020G01 X-0.655 Y174.196
N9030G01 X-0.535 Y174.253
N9040G01 X-0.41 Y174.298
N9050G01 X-0.282 Y174.33
N9060G01 X-0.151 Y174.349
N9070G01 X-0.018 Y174.356
N9080G01 X350.006
N9090G01 X350.138 Y174.349
N9100G01 X350.269 Y174.33
N9110G01 X350.398 Y174.298
N9120G01 X350.522 Y174.253
N9130G01 X350.642 Y174.196
N9140G01 X350.756 Y174.128
N9150G01 X350.862 Y174.049
N9160G01 X350.96 Y173.96
N9170G01 X351.049 Y173.862
N9180G01 X351.128 Y173.756
N9190G01 X351.196 Y173.642
N9200G01 X351.253 Y173.522
N9210G01 X351.298 Y173.398
N9220G01 X351.33 Y173.269
N9230G01 X351.349 Y173.138
N9240G01 X351.356 Y173.006
N9250G01 X351.356 Y-0.018
N9260G01 X351.349 Y-0.151
N9270G01 X351.33 Y-0.282
N9280G01 X351.298 Y-0.41
N9290G01 X351.253 Y-0.535
N9300G01 X351.196 Y-0.655
N9310G01 X351.128 Y-0.768
N9320G01 X351.049 Y-0.875
N9330G01 X350.96 Y-0.973
N9340G01 X350.862 Y-1.062
N9350G01 X350.756 Y-1.141
N9360G01 X350.642 Y-1.209
N9370G01 X350.522 Y-1.265
N9380G01 X350.398 Y-1.31
N9390G01 X350.269 Y-1.342
N9400G01 X350.138 Y-1.362
N9410G01 X350.006 Y-1.368
N9420G01 X-0.151 Y-1.362
N9430G01 X-0.282 Y-1.342
N9440G01 X-0.41 Y-1.31
N9450G01 X-0.535 Y-1.265
N9460G01 X-0.655 Y-1.209
N9470G01 X-0.768 Y-1.141
N9480G01 X-0.875 Y-1.062
N9490G01 X-0.973 Y-0.973
N9500G01 X-1.062 Y-0.875
N9510G01 X-1.141 Y-0.768
N9520G01 X-1.209 Y-0.655
N9530G01 X-1.265 Y-0.535
N9540G01 X-1.31 Y-0.41
N9550G01 X-1.342 Y-0.282
N9560G01 X-1.362 Y-0.151
N9570G01 X-1.368 Y-0.018
N9580G01 Z-15 F500
N9590G01 X-1.368 Y87.872 F1000
N9600G01 Z-14.599
N9610G01 X-1.368 Y93.572
N9620G01 Z-15 F500
N9630G01 X-1.368 Y173.006 F1000
N9640G01 X-1.362 Y173.138
N9650G01 X-1.342 Y173.269
N9660G01 X-1.31 Y173.398
N9670G01 X-1.265 Y173.522
N9680G01 X-1.209 Y173.642
N9690G01 X-1.141 Y173.756
N9700G01 X-1.062 Y173.862
N9710G01 X-0.973 Y173.96
N9720G01 X-0.875 Y174.049
N9730G01 X-0.768 Y174.128
N9740G01 X-0.655 Y174.196
N9750G01 X-0.535 Y174.253
N9760G01 X-0.41 Y174.298
N9770G01 X-0.282 Y174.33
N9780G01 X-0.151 Y174.349
N9790G01 X-0.018 Y174.356
N9800G01 X88.491
N9810G01 Z-14.599
N9820G01 X94.191
N9830G01 Z-15 F500
N9840G01 X264.254 Y174.356 F1000
N9850G01 Z-14.599
N9860G01 X269.954
N9870G01 Z-15 F500
N9880G01 X350.006 Y174.356 F1000
N9890G01 X350.138 Y174.349
N9900G01 X350.269 Y174.33
N9910G01 X350.398 Y174.298
N9920G01 X350.522 Y174.253
N9930G01 X350.642 Y174.196
N9940G01 X350.756 Y174.128
N9950G01 X350.862 Y174.049
N9960G01 X350.96 Y173.96
N9970G01 X351.049 Y173.862
N9980G01 X351.128 Y173.756
N9990G01 X351.196 Y173.642
N10000G01 X351.253 Y173.522
N10010G01 X351.298 Y173.398
N10020G01 X351.33 Y173.269
N10030G01 X351.349 Y173.138
N10040G01 X351.356 Y173.006
N10050G01 X351.356 Y85.114
N10060G01 Z-14.599
N10070G01 Y79.414
N10080G01 Z-15 F500
N10090G01 Y-0.018 F1000
N10100G01 X351.349 Y-0.151
N10110G01 X351.33 Y-0.282
N10120G01 X351.298 Y-0.41
N10130G01 X351.253 Y-0.535
N10140G01 X351.196 Y-0.655
N10150G01 X351.128 Y-0.768
N10160G01 X351.049 Y-0.875
N10170G01 X350.96 Y-0.973
N10180G01 X350.862 Y-1.062
N10190G01 X350.756 Y-1.141
N10200G01 X350.642 Y-1.209
N10210G01 X350.522 Y-1.265
N10220G01 X350.398 Y-1.31
N10230G01 X350.269 Y-1.342
N10240G01 X350.138 Y-1.362
N10250G01 X350.006 Y-1.368
N10260G01 X261.496 Y-1.367
N10270G01 Z-14.599
N10280G01 X255.796 Y-1.367
N10290G01 Z-15 F500
N10300G01 X85.733 Y-1.363 F1000
N10310G01 Z-14.599
N10320G01 X80.033 Y-1.363
N10330G01 Z-15 F500
N10340G01 X-0.151 Y-1.362 F1000
N10350G01 X-0.282 Y-1.342
N10360G01 X-0.41 Y-1.31
N10370G01 X-0.535 Y-1.265
N10380G01 X-0.655 Y-1.209
N10390G01 X-0.768 Y-1.141
N10400G01 X-0.875 Y-1.062
N10410G01 X-0.973 Y-0.973
N10420G01 X-1.062 Y-0.875
N10430G01 X-1.141 Y-0.768
N10440G01 X-1.209 Y-0.655
N10450G01 X-1.265 Y-0.535
N10460G01 X-1.31 Y-0.41
N10470G01 X-1.342 Y-0.282
N10480G01 X-1.362 Y-0.151
N10490G01 X-1.368 Y-0.018
N10500G01 Z-16 F500
N10510G01 X-1.368 Y87.872 F1000
N10520G01 Z-14.599
N10530G01 X-1.368 Y93.572
N10540G01 Z-16 F500
N10550G01 X-1.368 Y173.006 F1000
N10560G01 X-1.362 Y173.138
N10570G01 X-1.342 Y173.269
N10580G01 X-1.31 Y173.398
N10590G01 X-1.265 Y173.522
N10600G01 X-1.209 Y173.642
N10610G01 X-1.141 Y173.756
N10620G01 X-1.062 Y173.862
N10630G01 X-0.973 Y173.96
N10640G01 X-0.875 Y174.049
N10650G01 X-0.768 Y174.128
N10660G01 X-0.655 Y174.196
N10670G01 X-0.535 Y174.253
N10680G01 X-0.41 Y174.298
N10690G01 X-0.282 Y174.33
N10700G01 X-0.151 Y174.349
N10710G01 X-0.018 Y174.356
N10720G01 X88.491
N10730G01 Z-14.599
N10740G01 X94.191
N10750G01 Z-16 F500
N10760G01 X264.254 Y174.356 F1000
N10770G01 Z-14.599
N10780G01 X269.954
N10790G01 Z-16 F500
N10800G01 X350.006 Y174.356 F1000
N10810G01 X350.138 Y174.349
N10820G01 X350.269 Y174.33
N10830G01 X350.398 Y174.298
N10840G01 X350.522 Y174.253
N10850G01 X350.642 Y174.196
N10860G01 X350.756 Y174.128
N10870G01 X350.862 Y174.049
N10880G01 X350.96 Y173.96
N10890G01 X351.049 Y173.862
N10900G01 X351.128 Y173.756
N10910G01 X351.196 Y173.642
N10920G01 X351.253 Y173.522
N10930G01 X351.298 Y173.398
N10940G01 X351.33 Y173.269
N10950G01 X351.349 Y173.138
N10960G01 X351.356 Y173.006
N10970G01 X351.356 Y85.114
N10980G01 Z-14.599
N10990G01 Y79.414
N11000G01 Z-16 F500
N11010G01 Y-0.018 F1000
N11020G01 X351.349 Y-0.151
N11030G01 X351.33 Y-0.282
N11040G01 X351.298 Y-0.41
N11050G01 X351.253 Y-0.535
N11060G01 X351.196 Y-0.655
N11070G01 X351.128 Y-0.768
N11080G01 X351.049 Y-0.875
N11090G01 X350.96 Y-0.973
N11100G01 X350.862 Y-1.062
N11110G01 X350.756 Y-1.141
N11120G01 X350.642 Y-1.209
N11130G01 X350.522 Y-1.265
N11140G01 X350.398 Y-1.31
N11150G01 X350.269 Y-1.342
N11160G01 X350.138 Y-1.362
N11170G01 X350.006 Y-1.368
N11180G01 X261.496 Y-1.367
N11190G01 Z-14.599
N11200G01 X255.796 Y-1.367
N11210G01 Z-16 F500
N11220G01 X85.733 Y-1.363 F1000
N11230G01 Z-14.599
N11240G01 X80.033 Y-1.363
N11250G01 Z-16 F500
N11260G01 X-0.151 Y-1.362 F1000
N11270G01 X-0.282 Y-1.342
N11280G01 X-0.41 Y-1.31
N11290G01 X-0.535 Y-1.265
N11300G01 X-0.655 Y-1.209
N11310G01 X-0.768 Y-1.141
N11320G01 X-0.875 Y-1.062
N11330G01 X-0.973 Y-0.973
N11340G01 X-1.062 Y-0.875
N11350G01 X-1.141 Y-0.768
N11360G01 X-1.209 Y-0.655
N11370G01 X-1.265 Y-0.535
N11380G01 X-1.31 Y-0.41
N11390G01 X-1.342 Y-0.282
N11400G01 X-1.362 Y-0.151
N11410G01 X-1.368 Y-0.018
N11420G01 Z-16.599 F500
N11430G01 X-1.368 Y87.872 F1000
N11440G01 Z-14.599
N11450G01 X-1.368 Y93.572
N11460G01 Z-16.599 F500
N11470G01 X-1.368 Y173.006 F1000
N11480G01 X-1.362 Y173.138
N11490G01 X-1.342 Y173.269
N11500G01 X-1.31 Y173.398
N11510G01 X-1.265 Y173.522
N11520G01 X-1.209 Y173.642
N11530G01 X-1.141 Y173.756
N11540G01 X-1.062 Y173.862
N11550G01 X-0.973 Y173.96
N11560G01 X-0.875 Y174.049
N11570G01 X-0.768 Y174.128
N11580G01 X-0.655 Y174.196
N11590G01 X-0.535 Y174.253
N11600G01 X-0.41 Y174.298
N11610G01 X-0.282 Y174.33
N11620G01 X-0.151 Y174.349
N11630G01 X-0.018 Y174.356
N11640G01 X88.491
N11650G01 Z-14.599
N11660G01 X94.191
N11670G01 Z-16.599 F500
N11680G01 X264.254 Y174.356 F1000
N11690G01 Z-14.599
N11700G01 X269.954
N11710G01 Z-16.599 F500
N11720G01 X350.006 Y174.356 F1000
N11730G01 X350.138 Y174.349
N11740G01 X350.269 Y174.33
N11750G01 X350.398 Y174.298
N11760G01 X350.522 Y174.253
N11770G01 X350.642 Y174.196
N11780G01 X350.756 Y174.128
N11790G01 X350.862 Y174.049
N11800G01 X350.96 Y173.96
N11810G01 X351.049 Y173.862
N11820G01 X351.128 Y173.756
N11830G01 X351.196 Y173.642
N11840G01 X351.253 Y173.522
N11850G01 X351.298 Y173.398
N11860G01 X351.33 Y173.269
N11870G01 X351.349 Y173.138
N11880G01 X351.356 Y173.006
N11890G01 X351.356 Y85.114
N11900G01 Z-14.599
N11910G01 Y79.414
N11920G01 Z-16.599 F500
N11930G01 Y-0.018 F1000
N11940G01 X351.349 Y-0.151
N11950G01 X351.33 Y-0.282
N11960G01 X351.298 Y-0.41
N11970G01 X351.253 Y-0.535
N11980G01 X351.196 Y-0.655
N11990G01 X351.128 Y-0.768
N12000G01 X351.049 Y-0.875
N12010G01 X350.96 Y-0.973
N12020G01 X350.862 Y-1.062
N12030G01 X350.756 Y-1.141
N12040G01 X350.642 Y-1.209
N12050G01 X350.522 Y-1.265
N12060G01 X350.398 Y-1.31
N12070G01 X350.269 Y-1.342
N12080G01 X350.138 Y-1.362
N12090G01 X350.006 Y-1.368
N12100G01 X261.496 Y-1.367
N12110G01 Z-14.599
N12120G01 X255.796 Y-1.367
N12130G01 Z-16.599 F500
N12140G01 X85.733 Y-1.363 F1000
N12150G01 Z-14.599
N12160G01 X80.033 Y-1.363
N12170G01 Z-16.599 F500
N12180G01 X-0.151 Y-1.362 F1000
N12190G01 X-0.282 Y-1.342
N12200G01 X-0.41 Y-1.31
N12210G01 X-0.535 Y-1.265
N12220G01 X-0.655 Y-1.209
N12230G01 X-0.768 Y-1.141
N12240G01 X-0.875 Y-1.062
N12250G01 X-0.973 Y-0.973
N12260G01 X-1.062 Y-0.875
N12270G01 X-1.141 Y-0.768
N12280G01 X-1.209 Y-0.655
N12290G01 X-1.265 Y-0.535
N12300G01 X-1.31 Y-0.41
N12310G01 X-1.342 Y-0.282
N12320G01 X-1.362 Y-0.151
N12330G01 X-1.368 Y-0.018
N12340 G00 Z9.999
N12350 M02
